OSUrobotics/apple-harvest/harvest_control/resource/voxel_ik_data_fine.csv
j1,j2,j3,j4,j5,j6,end_effector_x,end_effector_y,end_effector_z,quat_x,quat_y,quat_z,quat_w,manipulability
2.557756399098593203e+00,-2.908501558311865458e-05,1.764072803958946500e-01,3.187898554777985005e+00,-2.099393836612208464e+00,-3.245713664941758392e-01,-9.372643645407003898e-01,6.416799883372314994e-01,1.281071971878586790e-01,-6.971812263468518678e-01,-3.280685826505824187e-01,0.000000000000000000e+00,6.374239897486898565e-01,2.103068037030985868e-02
2.558357128393437208e+00,-5.793162958866472645e-02,1.755062164866099117e-01,3.245797835883385662e+00,-2.100533390889038454e+00,-3.249160671122438004e-01,-9.372643645407003898e-01,6.416799883372314994e-01,1.781071971878586957e-01,-6.971812263468518678e-01,-3.280685826505824187e-01,0.000000000000000000e+00,6.374239897486898565e-01,2.097504356938192580e-02
2.558360291307937295e+00,-1.144597665673535575e-01,1.712561935631545518e-01,3.305761622162878499e+00,-2.100599371215077671e+00,-3.253293321728652487e-01,-9.372643645407003898e-01,6.416799883372314994e-01,2.281071971878586846e-01,-6.971812263468518678e-01,-3.280685826505824187e-01,0.000000000000000000e+00,6.374239897486898565e-01,2.046957053020927869e-02
2.557755319834940089e+00,-1.696656473747270855e-01,1.646498962231193186e-01,3.366684122062989282e+00,-2.099585274651857070e+00,-3.258952964909418992e-01,-9.372643645407003898e-01,6.416799883372314994e-01,2.781071971878587012e-01,-6.971812263468518678e-01,-3.280685826505824187e-01,0.000000000000000000e+00,6.374239897486898565e-01,1.963334954805789553e-02
2.556530919265445956e+00,-2.243112222305128634e-01,1.581536441924591696e-01,3.426688396035429296e+00,-2.097493088755290724e+00,-3.267016232235452344e-01,-9.372643645407003898e-01,6.416799883372314994e-01,3.281071971878587457e-01,-6.971812263468518678e-01,-3.280685826505824187e-01,0.000000000000000000e+00,6.374239897486898565e-01,1.876339454161451634e-02
2.558920922642977658e+00,-1.908334962195255835e-01,1.132582602518156512e-01,3.295301111984711095e+00,-2.107801289788265642e+00,-4.000355417414976911e-01,-9.362591329910204818e-01,6.395437625550912664e-01,3.594185779293970207e-01,-6.595905344899156697e-01,-3.103797457566520590e-01,0.000000000000000000e+00,6.845471059286887261e-01,1.319682957453018578e-02
2.612100184217240439e+00,-4.420332059665096902e-02,2.949013733601387743e-01,2.971693220427485738e+00,-2.163295994107136355e+00,-3.940099960651646249e-01,-9.362591329910204818e-01,5.895437625550914440e-01,1.594185779293970096e-01,-6.595905344899156697e-01,-3.103797457566520590e-01,0.000000000000000000e+00,6.845471059286887261e-01,3.263252239809456140e-02
2.612783257559043726e+00,-1.063026344435223924e-01,3.013169870742773426e-01,3.026341592275998860e+00,-2.164557957101757690e+00,-3.945459093411574636e-01,-9.362591329910204818e-01,5.895437625550914440e-01,2.094185779293969984e-01,-6.595905344899156697e-01,-3.103797457566520590e-01,0.000000000000000000e+00,6.845471059286887261e-01,3.340488473338263514e-02
2.611094373276702019e+00,-1.878882727989713008e-01,1.981589408861572366e-01,3.358783129358228869e+00,-2.154773709980791541e+00,-3.119530999195308518e-01,-9.372643645407003898e-01,5.916799883372316771e-01,2.781071971878587012e-01,-6.971812263468518678e-01,-3.280685826505824187e-01,0.000000000000000000e+00,6.374239897486898565e-01,2.276680788034381522e-02
2.609837163618615286e+00,-2.428073873443317154e-01,1.892382185763062941e-01,3.421791237650395612e+00,-2.152542819293032483e+00,-3.126480264306930601e-01,-9.372643645407003898e-01,5.916799883372316771e-01,3.281071971878587457e-01,-6.971812263468518678e-01,-3.280685826505824187e-01,0.000000000000000000e+00,6.374239897486898565e-01,2.163958475982641697e-02
2.607982646921996217e+00,-2.949884017007761150e-01,1.768456775912782553e-01,3.485100798484707330e+00,-2.149279222277507007e+00,-3.136899726143588252e-01,-9.372643645407003898e-01,5.916799883372316771e-01,3.781071971878587346e-01,-6.971812263468518678e-01,-3.280685826505824187e-01,0.000000000000000000e+00,6.374239897486898565e-01,2.008029607378958650e-02
2.605552853919096634e+00,-3.443195772024654211e-01,1.615295450852416437e-01,3.547920720183954213e+00,-2.145059623995188680e+00,-3.151420573850332030e-01,-9.372643645407003898e-01,5.916799883372316771e-01,4.281071971878587235e-01,-6.971812263468518678e-01,-3.280685826505824187e-01,0.000000000000000000e+00,6.374239897486898565e-01,1.816984993611198834e-02
2.608441517958828726e+00,-3.078958481635673539e-01,1.129425956116722474e-01,3.412938114278507573e+00,-2.156856563873743138e+00,-3.967155643587377267e-01,-9.362591329910204818e-01,5.895437625550914440e-01,4.594185779293969984e-01,-6.595905344899156697e-01,-3.103797457566520590e-01,0.000000000000000000e+00,6.845471059286887261e-01,1.247090150567612549e-02
2.665220095958612312e+00,-2.643113569537821061e-01,2.271175921720264279e-01,3.414693797896179550e+00,-2.209328345253580572e+00,-2.969402921272659146e-01,-9.372643645407003898e-01,5.416799883372316327e-01,3.281071971878587457e-01,-6.971812263468518678e-01,-3.280685826505824187e-01,0.000000000000000000e+00,6.374239897486898565e-01,2.486107701179045976e-02
2.663349340716600455e+00,-3.156143550133168052e-01,2.102859756805607327e-01,3.481787602485079347e+00,-2.205930407067784760e+00,-2.979097606568074652e-01,-9.372643645407003898e-01,5.416799883372316327e-01,3.781071971878587346e-01,-6.971812263468518678e-01,-3.280685826505824187e-01,0.000000000000000000e+00,6.374239897486898565e-01,2.287441860498279356e-02
2.660891318215937051e+00,-3.635166191014703174e-01,1.895642575780805417e-01,3.548745900630448702e+00,-2.201537267792218255e+00,-2.993551813159958663e-01,-9.372643645407003898e-01,5.416799883372316327e-01,4.281071971878587235e-01,-6.971812263468518678e-01,-3.280685826505824187e-01,0.000000000000000000e+00,6.374239897486898565e-01,2.044467651665512337e-02
2.657851441723202424e+00,-4.091663819537428859e-01,1.680428524660309009e-01,3.613501604392363564e+00,-2.196205010875198482e+00,-3.013419536542962796e-01,-9.372643645407003898e-01,5.416799883372316327e-01,4.781071971878587124e-01,-6.971812263468518678e-01,-3.280685826505824187e-01,0.000000000000000000e+00,6.374239897486898565e-01,1.792430692706646622e-02
2.661179081889133879e+00,-3.704064899962025148e-01,1.165259637912415686e-01,3.473738029202185551e+00,-2.209553131229506029e+00,-3.923128251569748537e-01,-9.362591329910204818e-01,5.395437625550913996e-01,5.094185779293970429e-01,-6.595905344899158917e-01,-3.103797457566521700e-01,0.000000000000000000e+00,6.845471059286885041e-01,1.218265873983183020e-02
2.722113422757709511e+00,-3.474126303261714233e-01,1.767952821735206403e-01,3.395450617444365715e+00,-2.275150279363576278e+00,-3.853727270910023428e-01,-9.362591329910204818e-01,4.895437625550913552e-01,4.594185779293969984e-01,-6.595905344899156697e-01,-3.103797457566520590e-01,0.000000000000000000e+00,6.845471059286887261e-01,1.773373636471983761e-02
2.718932069833659870e+00,-3.900182474881798700e-01,1.469219047041976367e-01,3.466893336601231557e+00,-2.269303726170768254e+00,-3.862436250345330779e-01,-9.362591329910204818e-01,4.895437625550913552e-01,5.094185779293970429e-01,-6.595905344899158917e-01,-3.103797457566521700e-01,0.000000000000000000e+00,6.845471059286885041e-01,1.460135862833260301e-02
2.715082730428461488e+00,-3.388876388788361615e-01,6.943766970729783883e-02,3.332004275605785715e+00,-2.262580612383624956e+00,-4.908200401313866923e-01,-9.362591329910204818e-01,4.895437625550913552e-01,5.405814220706030016e-01,-6.193967401315993992e-01,-2.914659818052378615e-01,0.000000000000000000e+00,7.289686274214115524e-01,6.861330484215864139e-03
2.431021699848231243e+00,3.944591200931158760e-03,1.680579731958272982e-01,3.178505651074837957e+00,-1.976088129695467099e+00,-3.549605152963662968e-01,-8.872643645407003454e-01,7.416799883372315882e-01,1.281071971878586790e-01,-6.971812263468518678e-01,-3.280685826505824187e-01,0.000000000000000000e+00,6.374239897486898565e-01,2.130570016188450266e-02
2.431624495234257832e+00,-5.361226763309717008e-02,1.670395775945414107e-01,3.236148146266710324e+00,-1.977146248084603819e+00,-3.552165942644764929e-01,-8.872643645407003454e-01,7.416799883372315882e-01,1.781071971878586957e-01,-6.971812263468518678e-01,-3.280685826505824187e-01,0.000000000000000000e+00,6.374239897486898565e-01,2.123348188113325860e-02
2.431627695441231474e+00,-1.100487744286903907e-01,1.632144843990691596e-01,3.295578159175971411e+00,-1.977199935666456021e+00,-3.555470745737607241e-01,-8.872643645407003454e-01,7.416799883372315882e-01,2.281071971878586846e-01,-6.971812263468518678e-01,-3.280685826505824187e-01,0.000000000000000000e+00,6.374239897486898565e-01,2.074924277218953561e-02
2.431026392541983050e+00,-1.651289442008356256e-01,1.569690097629978243e-01,3.356021224066983333e+00,-1.976249797522090512e+00,-3.560115473163548705e-01,-8.872643645407003454e-01,7.416799883372315882e-01,2.781071971878587012e-01,-6.971812263468518678e-01,-3.280685826505824187e-01,0.000000000000000000e+00,6.374239897486898565e-01,1.990412765507702450e-02
2.429809286662966361e+00,-2.196853720502121576e-01,1.509113739983876934e-01,3.415540898279638249e+00,-1.974294220294464886e+00,-3.566739888236248879e-01,-8.872643645407003454e-01,7.416799883372315882e-01,3.281071971878587457e-01,-6.971812263468518678e-01,-3.280685826505824187e-01,0.000000000000000000e+00,6.374239897486898565e-01,1.903235837329847469e-02
2.521184911699672515e+00,-3.948916288649315792e-02,2.305051845486679463e-01,3.334582176639548923e+00,-2.161144368121579618e+00,-8.967063849813355914e-02,-9.059161060780644981e-01,6.893237254218789190e-01,9.635254915624211214e-02,-7.694208842938135007e-01,-2.499999999999999445e-01,0.000000000000000000e+00,5.877852522924731371e-01,2.678283435429070283e-02
2.521614279267403891e+00,-9.665920275037323539e-02,2.293600704021744319e-01,3.391899228248315801e+00,-2.162091697013807323e+00,-9.009742439825015048e-02,-9.059161060780644981e-01,6.893237254218789190e-01,1.463525491562421288e-01,-7.694208842938135007e-01,-2.499999999999999445e-01,0.000000000000000000e+00,5.877852522924731371e-01,2.669615079808610597e-02
2.481787623479088101e+00,-7.456522831914338956e-02,2.130248191334524477e-01,3.215036455626347767e+00,-2.029790700420599947e+00,-3.440875095200210398e-01,-8.872643645407003454e-01,6.916799883372315438e-01,1.781071971878586957e-01,-6.971812263468518678e-01,-3.280685826505824187e-01,0.000000000000000000e+00,6.374239897486898565e-01,2.630643775749794133e-02
2.481802640846333396e+00,-1.326892307585688380e-01,2.087621212635651924e-01,3.277033364258019166e+00,-2.029841364146240057e+00,-3.442577699492574417e-01,-8.872643645407003454e-01,6.916799883372315438e-01,2.281071971878586846e-01,-6.971812263468518678e-01,-3.280685826505824187e-01,0.000000000000000000e+00,6.374239897486898565e-01,2.578790733796937004e-02
2.481184922153453432e+00,-1.886550716384092219e-01,2.004377202377010114e-01,3.340863249414488312e+00,-2.028812212370171508e+00,-3.445781861826298087e-01,-8.872643645407003454e-01,6.916799883372315438e-01,2.781071971878587012e-01,-6.971812263468518678e-01,-3.280685826505824187e-01,0.000000000000000000e+00,6.374239897486898565e-01,2.470468724679597897e-02
2.479916374594727468e+00,-2.434153979840278648e-01,1.909891041874705042e-01,3.404368236101586120e+00,-2.026692331791814183e+00,-3.451276599919068100e-01,-8.872643645407003454e-01,6.916799883372315438e-01,3.281071971878587457e-01,-6.971812263468518678e-01,-3.280685826505824187e-01,0.000000000000000000e+00,6.374239897486898565e-01,2.342110741296058243e-02
2.478042764798276121e+00,-2.952886247865825764e-01,1.777966190307197214e-01,3.468344607702980031e+00,-2.023586078681469669e+00,-3.459577805013099305e-01,-8.872643645407003454e-01,6.916799883372315438e-01,3.781071971878587346e-01,-6.971812263468518678e-01,-3.280685826505824187e-01,0.000000000000000000e+00,6.374239897486898565e-01,2.163858018465061872e-02
2.475586534675953576e+00,-3.441922037781141031e-01,1.614717770173931255e-01,3.531975331001350860e+00,-2.019562543309451730e+00,-3.471138048592591896e-01,-8.872643645407003454e-01,6.916799883372315438e-01,4.281071971878587235e-01,-6.971812263468518678e-01,-3.280685826505824187e-01,0.000000000000000000e+00,6.374239897486898565e-01,1.945463833666756862e-02
2.477998418405670034e+00,-3.099438617176645816e-01,1.160483696456570957e-01,3.405904584328083740e+00,-2.028688663411186255e+00,-4.079720663416233073e-01,-8.862591329910204374e-01,6.895437625550913108e-01,4.594185779293969984e-01,-6.595905344899156697e-01,-3.103797457566520590e-01,0.000000000000000000e+00,6.845471059286887261e-01,1.378088823990533500e-02
2.571999492476102045e+00,-5.786594414452218144e-02,2.719265173206711905e-01,3.325343859335633034e+00,-2.211747630320852309e+00,-6.590886067014711802e-02,-9.059161060780644981e-01,6.393237254218788745e-01,9.635254915624211214e-02,-7.694208842938135007e-01,-2.499999999999999445e-01,0.000000000000000000e+00,5.877852522924731371e-01,3.034532636535754863e-02
2.533831122810970005e+00,-4.128359287046905884e-02,2.744472455044916215e-01,3.125581348530678483e+00,-2.083636236017105681e+00,-3.318467414754100453e-01,-8.872643645407003454e-01,6.416799883372314994e-01,1.281071971878586790e-01,-6.971812263468518678e-01,-3.280685826505824187e-01,0.000000000000000000e+00,6.374239897486898565e-01,3.255897405194305844e-02
2.534454731708291497e+00,-1.055272768895652025e-01,2.796878147854788832e-01,3.184538654854195627e+00,-2.084736325849674721e+00,-3.317519538776884103e-01,-8.872643645407003454e-01,6.416799883372314994e-01,1.781071971878586957e-01,-6.971812263468518678e-01,-3.280685826505824187e-01,0.000000000000000000e+00,6.374239897486898565e-01,3.325095002080966089e-02
2.534471875796919793e+00,-1.657847104851983000e-01,2.760474005093133121e-01,3.248465863118799479e+00,-2.084764291895796706e+00,-3.317339497134966786e-01,-8.872643645407003454e-01,6.416799883372314994e-01,2.281071971878586846e-01,-6.971812263468518678e-01,-3.280685826505824187e-01,0.000000000000000000e+00,6.374239897486898565e-01,3.283230071446831960e-02
2.533866751948961937e+00,-2.220186026014397129e-01,2.644958685460767622e-01,3.316181905540094288e+00,-2.083704384824393241e+00,-3.318812590855172440e-01,-8.872643645407003454e-01,6.416799883372314994e-01,2.781071971878587012e-01,-6.971812263468518678e-01,-3.280685826505824187e-01,0.000000000000000000e+00,6.374239897486898565e-01,3.141206292993487664e-02
2.532584909949738616e+00,-2.761951824594507943e-01,2.501573747534722170e-01,3.384347743238229622e+00,-2.081482431101919328e+00,-3.322924815964141687e-01,-8.872643645407003454e-01,6.416799883372314994e-01,3.281071971878587457e-01,-6.971812263468518678e-01,-3.280685826505824187e-01,0.000000000000000000e+00,6.374239897486898565e-01,2.958556116422161528e-02
2.530694592721326686e+00,-3.259383636542801388e-01,2.290443383641042885e-01,3.454426230877352122e+00,-2.078246847363832916e+00,-3.330258516912111277e-01,-8.872643645407003454e-01,6.416799883372314994e-01,3.781071971878587346e-01,-6.971812263468518678e-01,-3.280685826505824187e-01,0.000000000000000000e+00,6.374239897486898565e-01,2.691737200936179797e-02
2.528197244173884251e+00,-3.718831679454276951e-01,2.033225166020552199e-01,3.524754305540770627e+00,-2.074034221623202612e+00,-3.341412209617421469e-01,-8.872643645407003454e-01,6.416799883372314994e-01,4.281071971878587235e-01,-6.971812263468518678e-01,-3.280685826505824187e-01,0.000000000000000000e+00,6.374239897486898565e-01,2.368475581525695747e-02
2.525087830001577327e+00,-4.156731978212842016e-01,1.771242098018383504e-01,3.592721241076724858e+00,-2.068876145408918621e+00,-3.356912346306799022e-01,-8.872643645407003454e-01,6.416799883372314994e-01,4.781071971878587124e-01,-6.971812263468518678e-01,-3.280685826505824187e-01,0.000000000000000000e+00,6.374239897486898565e-01,2.039353155460903871e-02
2.528090602843012569e+00,-3.793211509568094608e-01,1.291968981939351224e-01,3.463155937568613396e+00,-2.079606653311049769e+00,-4.043587195947562218e-01,-8.862591329910204374e-01,6.395437625550912664e-01,5.094185779293970429e-01,-6.595905344899158917e-01,-3.103797457566521700e-01,0.000000000000000000e+00,6.845471059286885041e-01,1.465379370184481493e-02
2.524909170374777911e+00,-3.301648617067213243e-01,5.426955256228434277e-02,3.347559328158013159e+00,-2.074326906979645280e+00,-4.740364961285842837e-01,-8.862591329910204374e-01,6.395437625550912664e-01,5.405814220706030016e-01,-6.193967401315993992e-01,-2.914659818052378615e-01,0.000000000000000000e+00,7.289686274214115524e-01,6.112423005303953966e-03
2.590584608385851251e+00,-8.585514431315346973e-02,3.962017613558227458e-01,2.906535541301236591e+00,-2.149845694072788582e+00,-3.984534502017437196e-01,-8.862591329910204374e-01,5.895437625550914440e-01,1.594185779293970096e-01,-6.595905344899156697e-01,-3.103797457566520590e-01,0.000000000000000000e+00,6.845471059286887261e-01,4.327787631463746176e-02
2.591281103451379408e+00,-1.539962181624744686e-01,4.078950878910555522e-01,2.962825890797792017e+00,-2.151085564839194664e+00,-3.984958866664205512e-01,-8.862591329910204374e-01,5.895437625550914440e-01,2.094185779293969984e-01,-6.595905344899156697e-01,-3.103797457566520590e-01,0.000000000000000000e+00,6.845471059286887261e-01,4.459663367153921670e-02
2.591459214086905938e+00,-2.158678268413113666e-01,4.056893348841497660e-01,3.026961041492388649e+00,-2.151400739484496949e+00,-3.984523177465121857e-01,-8.862591329910204374e-01,5.895437625550914440e-01,2.594185779293969873e-01,-6.595905344899156697e-01,-3.103797457566520590e-01,0.000000000000000000e+00,6.845471059286887261e-01,4.439806549081436876e-02
2.591219092589520656e+00,-2.682262515808974124e-01,3.838977716684823238e-01,3.101232017058828561e+00,-2.150971978821118125e+00,-3.984001981269252868e-01,-8.862591329910204374e-01,5.895437625550914440e-01,3.094185779293970318e-01,-6.595905344899156697e-01,-3.103797457566520590e-01,0.000000000000000000e+00,6.845471059286887261e-01,4.210006864341653970e-02
2.590534660756745211e+00,-3.098967290313693335e-01,3.411110061812374084e-01,3.185776964358652652e+00,-2.149756640744407310e+00,-3.983945503996450532e-01,-8.862591329910204374e-01,5.895437625550914440e-01,3.594185779293970207e-01,-6.595905344899156697e-01,-3.103797457566520590e-01,0.000000000000000000e+00,6.845471059286887261e-01,3.751164274385294234e-02
2.589207006116556631e+00,-3.436437579324582159e-01,2.840469742360574035e-01,3.276550850568985762e+00,-2.147409647308650360e+00,-3.984981782332280842e-01,-8.862591329910204374e-01,5.895437625550914440e-01,4.094185779293970096e-01,-6.595905344899156697e-01,-3.103797457566520590e-01,0.000000000000000000e+00,6.845471059286887261e-01,3.127191426893546899e-02
2.587019506544605996e+00,-3.750714814570435540e-01,2.252453163185947072e-01,3.366473500615430936e+00,-2.143570740997563284e+00,-3.988027736323341288e-01,-8.862591329910204374e-01,5.895437625550914440e-01,4.594185779293969984e-01,-6.595905344899156697e-01,-3.103797457566520590e-01,0.000000000000000000e+00,6.845471059286887261e-01,2.472146297333799661e-02
2.576465718159445473e+00,-4.832380842947251454e-01,1.848001331391066482e-01,3.658336847059249664e+00,-2.119190428927675285e+00,-3.233252129111736095e-01,-8.872643645407003454e-01,5.916799883372316771e-01,5.281071971878587012e-01,-6.971812263468518678e-01,-3.280685826505824187e-01,0.000000000000000000e+00,6.374239897486898565e-01,2.018495099106014032e-02
2.580007559836661635e+00,-4.444464430583699444e-01,1.334723887129034559e-01,3.525471078382428569e+00,-2.131506073513186550e+00,-4.003958339216959761e-01,-8.862591329910204374e-01,5.895437625550914440e-01,5.594185779293970873e-01,-6.595905344899158917e-01,-3.103797457566521700e-01,0.000000000000000000e+00,6.845471059286885041e-01,1.434828290128779306e-02
2.576778904808639581e+00,-3.912261033703353652e-01,5.217636875454025047e-02,3.407520719114567775e+00,-2.126095486346077479e+00,-4.788488073981824189e-01,-8.862591329910204374e-01,5.895437625550914440e-01,5.905814220706030460e-01,-6.193967401315993992e-01,-2.914659818052378615e-01,0.000000000000000000e+00,7.289686274214115524e-01,5.576212140734533931e-03
2.646573715649728875e+00,-3.489464024633540107e-01,5.484495222239912371e-01,3.020385109123653322e+00,-2.206751614974745479e+00,-3.932132241188059929e-01,-8.862591329910204374e-01,5.395437625550913996e-01,3.094185779293970318e-01,-6.595905344899156697e-01,-3.103797457566520590e-01,0.000000000000000000e+00,6.845471059286887261e-01,5.530436767958624156e-02
2.646595514362528601e+00,-3.844921507542774508e-01,4.900042724755701573e-01,3.114481787168664972e+00,-2.206795400247827832e+00,-3.931480240007287352e-01,-8.862591329910204374e-01,5.395437625550913996e-01,3.594185779293970207e-01,-6.595905344899156697e-01,-3.103797457566520590e-01,0.000000000000000000e+00,6.845471059286887261e-01,4.993291416352341888e-02
2.646103111991910062e+00,-4.082221718936515642e-01,4.093483794296909895e-01,3.218915219346173195e+00,-2.205921053540465415e+00,-3.931503355847679737e-01,-8.862591329910204374e-01,5.395437625550913996e-01,4.094185779293970096e-01,-6.595905344899156697e-01,-3.103797457566520590e-01,0.000000000000000000e+00,6.845471059286887261e-01,4.216430396547520693e-02
2.644689927628469661e+00,-4.253309270573429335e-01,3.181943016894195897e-01,3.327027900477528277e+00,-2.203405101301275870e+00,-3.933283112282307536e-01,-8.862591329910204374e-01,5.395437625550913996e-01,4.594185779293969984e-01,-6.595905344899156697e-01,-3.103797457566520590e-01,0.000000000000000000e+00,6.845471059286887261e-01,3.298524345737510050e-02
2.642061068127914414e+00,-4.446175053809733879e-01,2.356180354633217733e-01,3.428329734251300387e+00,-2.198753091247064528e+00,-3.938244973119791048e-01,-8.862591329910204374e-01,5.395437625550913996e-01,5.094185779293970429e-01,-6.595905344899158917e-01,-3.103797457566521700e-01,0.000000000000000000e+00,6.845471059286885041e-01,2.438841450176809644e-02
2.629653826977582654e+00,-5.445640174970582947e-01,1.819897585164397258e-01,3.728834851142491580e+00,-2.170379025910070592e+00,-3.100702206846367437e-01,-8.872643645407003454e-01,5.416799883372316327e-01,5.781071971878587457e-01,-6.971812263468518678e-01,-3.280685826505824187e-01,0.000000000000000000e+00,6.374239897486898565e-01,1.872742560998400668e-02
2.633621742582880731e+00,-5.034880765949121262e-01,1.273747315759257148e-01,3.592252317273645801e+00,-2.184153311304009470e+00,-3.962037082466481341e-01,-8.862591329910204374e-01,5.395437625550913996e-01,6.094185779293971317e-01,-6.595905344899158917e-01,-3.103797457566521700e-01,0.000000000000000000e+00,6.845471059286885041e-01,1.288070775130385238e-02
2.630166331383825273e+00,-4.489588003136493755e-01,4.507092459975187843e-02,3.468851452607921715e+00,-2.178327745200656640e+00,-4.841119422987020249e-01,-8.862591329910204374e-01,5.395437625550913996e-01,6.405814220706029793e-01,-6.193967401315993992e-01,-2.914659818052378615e-01,0.000000000000000000e+00,7.289686274214115524e-01,4.534109192253352703e-03
2.703714535286503740e+00,-4.860620342881179501e-01,4.342914300831822727e-01,3.275572711803426795e+00,-2.263480135274632765e+00,-3.871962694735897603e-01,-8.862591329910204374e-01,4.895437625550913552e-01,4.594185779293969984e-01,-6.595905344899156697e-01,-3.103797457566520590e-01,0.000000000000000000e+00,6.845471059286887261e-01,4.183180814571768602e-02
2.702042182887798294e+00,-4.890940080556033243e-01,3.158843463615049196e-01,3.396642162720008962e+00,-2.260484689010869186e+00,-3.875380145843764779e-01,-8.862591329910204374e-01,4.895437625550913552e-01,5.094185779293970429e-01,-6.595905344899158917e-01,-3.103797457566521700e-01,0.000000000000000000e+00,6.845471059286885041e-01,3.072269596162345226e-02
2.698725087374941101e+00,-5.022517624843846340e-01,2.234222437317872068e-01,3.501230536910153734e+00,-2.254579201383644094e+00,-3.884004826684144263e-01,-8.862591329910204374e-01,4.895437625550913552e-01,5.594185779293970873e-01,-6.595905344899158917e-01,-3.103797457566521700e-01,0.000000000000000000e+00,6.845471059286885041e-01,2.167408370335165493e-02
2.694144750300374813e+00,-5.278924544225650495e-01,1.623580942095831647e-01,3.586032135221159933e+00,-2.246552750669777776e+00,-3.898814038129947979e-01,-8.862591329910204374e-01,4.895437625550913552e-01,6.094185779293971317e-01,-6.595905344899158917e-01,-3.103797457566521700e-01,0.000000000000000000e+00,6.845471059286885041e-01,1.557248652853391799e-02
2.688690497331109430e+00,-5.615844922148446328e-01,1.238662243792826717e-01,3.655328404540028497e+00,-2.237192923064857286e+00,-3.920098022773050861e-01,-8.862591329910204374e-01,4.895437625550913552e-01,6.594185779293970651e-01,-6.595905344899158917e-01,-3.103797457566521700e-01,0.000000000000000000e+00,6.845471059286885041e-01,1.168757525693747343e-02
2.756748456116116852e+00,-5.478794858977129589e-01,1.908508842220673629e-01,3.582680895689348777e+00,-2.310704570996963803e+00,-3.826657432083359067e-01,-8.862591329910204374e-01,4.395437625550913108e-01,6.094185779293971317e-01,-6.595905344899158917e-01,-3.103797457566521700e-01,0.000000000000000000e+00,6.845471059286885041e-01,1.723576056871460246e-02
2.751328936509735090e+00,-5.761756908730477633e-01,1.398934225312447599e-01,3.659063960562578544e+00,-2.301208516164135798e+00,-3.849233510473180631e-01,-8.862591329910204374e-01,4.395437625550913108e-01,6.594185779293970651e-01,-6.595905344899158917e-01,-3.103797457566521700e-01,0.000000000000000000e+00,6.845471059286885041e-01,1.245516994153560153e-02
2.747455825605061186e+00,-5.210759857468393319e-01,5.965494741929853323e-02,3.518084056148345962e+00,-2.294579048777042551e+00,-4.966790403986804381e-01,-8.862591329910204374e-01,4.395437625550913108e-01,6.905814220706030238e-01,-6.193967401315993992e-01,-2.914659818052378615e-01,0.000000000000000000e+00,7.289686274214115524e-01,5.292546809995886739e-03
2.352360194547702843e+00,-3.772912509827902345e-03,1.878515858923705817e-01,3.159376334742296510e+00,-1.901632072139329610e+00,-3.724532051457231652e-01,-8.372643645407004120e-01,7.916799883372316327e-01,1.281071971878586790e-01,-6.971812263468518678e-01,-3.280685826505824187e-01,0.000000000000000000e+00,6.374239897486898565e-01,2.443534144028898167e-02
2.352978044959928017e+00,-6.278872012329024532e-02,1.879010188409966364e-01,3.217649175547604212e+00,-1.902648311118068314e+00,-3.725629437343665473e-01,-8.372643645407004120e-01,7.916799883372316327e-01,1.781071971878586957e-01,-6.971812263468518678e-01,-3.280685826505824187e-01,0.000000000000000000e+00,6.374239897486898565e-01,2.451130706757232922e-02
2.352987875748630220e+00,-1.201630366517915660e-01,1.840315850900050842e-01,3.278310225117954335e+00,-1.902691915462788375e+00,-3.727519486889045441e-01,-8.372643645407004120e-01,7.916799883372316327e-01,2.281071971878586846e-01,-6.971812263468518678e-01,-3.280685826505824187e-01,0.000000000000000000e+00,6.374239897486898565e-01,2.401139713461366773e-02
2.352381756161671778e+00,-1.757671033103970770e-01,1.769038780878872119e-01,3.340415338651483879e+00,-1.901757555066714067e+00,-3.730710387317354160e-01,-8.372643645407004120e-01,7.916799883372316327e-01,2.781071971878587012e-01,-6.971812263468518678e-01,-3.280685826505824187e-01,0.000000000000000000e+00,6.374239897486898565e-01,2.302262359050336743e-02
2.351146398423286321e+00,-2.304467704705104036e-01,1.691994472700288632e-01,3.401968704304502822e+00,-1.899839137454472970e+00,-3.735734690728384488e-01,-8.372643645407004120e-01,7.916799883372316327e-01,3.281071971878587457e-01,-6.971812263468518678e-01,-3.280685826505824187e-01,0.000000000000000000e+00,6.374239897486898565e-01,2.189813665989141789e-02
2.349324585571096691e+00,-2.824744610551175317e-01,1.581639997826727595e-01,3.463868177965702344e+00,-1.897024795167819855e+00,-3.742904131608199014e-01,-8.372643645407004120e-01,7.916799883372316327e-01,3.781071971878587346e-01,-6.971812263468518678e-01,-3.280685826505824187e-01,0.000000000000000000e+00,6.374239897486898565e-01,2.030270496408729738e-02
2.350938981119230053e+00,-2.504615708169857236e-01,1.156684604725806836e-01,3.343876916653425013e+00,-1.903342832975468468e+00,-4.171634492080189549e-01,-8.362591329910205040e-01,7.895437625550913996e-01,4.094185779293970096e-01,-6.595905344899156697e-01,-3.103797457566520590e-01,0.000000000000000000e+00,6.845471059286887261e-01,1.466512498672606704e-02
2.445451815161333808e+00,-4.879155050681996397e-02,2.551177412539905043e-01,3.301778559376378208e+00,-2.094392584392743117e+00,-1.224499062337071204e-01,-8.559161060780644537e-01,7.393237254218789634e-01,9.635254915624211214e-02,-7.694208842938131676e-01,-2.500000000000004441e-01,0.000000000000000000e+00,5.877852522924732481e-01,3.073097746096776356e-02
2.400713239195973792e+00,-3.261342959344717962e-02,2.552284895785988383e-01,3.123051744026751564e+00,-1.952571329316466819e+00,-3.625513450535532423e-01,-8.372643645407004120e-01,7.416799883372315882e-01,1.281071971878586790e-01,-6.971812263468518678e-01,-3.280685826505824187e-01,0.000000000000000000e+00,6.374239897486898565e-01,3.229439039410190310e-02
2.401337460745341268e+00,-9.606793019631870711e-02,2.599489583910550294e-01,3.181600569652296873e+00,-1.953603093841639549e+00,-3.625028850215681886e-01,-8.372643645407004120e-01,7.416799883372315882e-01,1.781071971878586957e-01,-6.971812263468518678e-01,-3.280685826505824187e-01,0.000000000000000000e+00,6.374239897486898565e-01,3.297067945194107064e-02
2.401352383853114780e+00,-1.559436070036221700e-01,2.566572917183505553e-01,3.244676520508460449e+00,-1.953632169517081962e+00,-3.625340051289945853e-01,-8.372643645407004120e-01,7.416799883372315882e-01,2.281071971878586846e-01,-6.971812263468518678e-01,-3.280685826505824187e-01,0.000000000000000000e+00,6.374239897486898565e-01,3.256439480127235747e-02
2.400744108105314911e+00,-2.121877081508200535e-01,2.462752752068396167e-01,3.311141815807683741e+00,-1.952644537741132336e+00,-3.627080924602418821e-01,-8.372643645407004120e-01,7.416799883372315882e-01,2.781071971878587012e-01,-6.971812263468518678e-01,-3.280685826505824187e-01,0.000000000000000000e+00,6.374239897486898565e-01,3.118769406033237296e-02
2.399470833957344951e+00,-2.664195711322005500e-01,2.331909847609002773e-01,3.378059438182480001e+00,-1.950588980271653838e+00,-3.630951139101557534e-01,-8.372643645407004120e-01,7.416799883372315882e-01,3.281071971878587457e-01,-6.971812263468518678e-01,-3.280685826505824187e-01,0.000000000000000000e+00,6.374239897486898565e-01,2.938978166467601932e-02
2.397593048425882056e+00,-3.164739244651882943e-01,2.138321201368242330e-01,3.446697409283616675e+00,-1.947587545469285253e+00,-3.637334517742198403e-01,-8.372643645407004120e-01,7.416799883372315882e-01,3.781071971878587346e-01,-6.971812263468518678e-01,-3.280685826505824187e-01,0.000000000000000000e+00,6.374239897486898565e-01,2.675704087718010910e-02
2.395116325926340828e+00,-3.628727170729411644e-01,1.901111372802732624e-01,3.515541914447199989e+00,-1.943677393804598141e+00,-3.646633779695232502e-01,-8.372643645407004120e-01,7.416799883372315882e-01,4.281071971878587235e-01,-6.971812263468518678e-01,-3.280685826505824187e-01,0.000000000000000000e+00,6.374239897486898565e-01,2.355674653356468889e-02
2.392040355658528572e+00,-4.071150454945880459e-01,1.658436493097034392e-01,3.582163744969568686e+00,-1.938890765285832707e+00,-3.659192221185598171e-01,-8.372643645407004120e-01,7.416799883372315882e-01,4.781071971878587124e-01,-6.971812263468518678e-01,-3.280685826505824187e-01,0.000000000000000000e+00,6.374239897486898565e-01,2.029016330064071019e-02
2.394259367914079117e+00,-3.724765085284489907e-01,1.195755925156233856e-01,3.461173497845574154e+00,-1.946595124404825849e+00,-4.147283875130695630e-01,-8.362591329910205040e-01,7.395437625550913552e-01,5.094185779293970429e-01,-6.595905344899158917e-01,-3.103797457566521700e-01,0.000000000000000000e+00,6.845471059286885041e-01,1.445774107589582226e-02
2.520518780082610544e+00,-9.787478960645352999e-02,3.240319862453155952e-01,3.487201797844877049e+00,-2.235112205298205090e+00,1.939122226478668942e-01,-8.745678476154286063e-01,6.916799883372315438e-01,6.386689373476089893e-02,-8.293725566548315609e-01,-1.582112766220056255e-01,0.000000000000000000e+00,5.358267949789965456e-01,3.587891703304912916e-02
2.495391527189541936e+00,-7.394479568420886384e-02,3.117208263942654600e-01,3.281496003403608697e+00,-2.144818516571785683e+00,-1.011470607369403946e-01,-8.559161060780644537e-01,6.893237254218789190e-01,9.635254915624211214e-02,-7.694208842938131676e-01,-2.500000000000004441e-01,0.000000000000000000e+00,5.877852522924732481e-01,3.611361067764237015e-02
2.451482353077981902e+00,-8.254859050471292925e-02,3.662638950314079933e-01,3.065472188010493593e+00,-2.005532284351835948e+00,-3.516350802633430028e-01,-8.372643645407004120e-01,6.916799883372315438e-01,1.281071971878586790e-01,-6.971812263468518678e-01,-3.280685826505824187e-01,0.000000000000000000e+00,6.374239897486898565e-01,4.440051567091590073e-02
2.452520911255489988e+00,-9.093539291665295177e-02,4.070156057592581034e-01,2.895221818509227774e+00,-2.012032825275213543e+00,-4.098858494578654921e-01,-8.362591329910205040e-01,6.895437625550913108e-01,1.594185779293970096e-01,-6.595905344899156697e-01,-3.103797457566520590e-01,0.000000000000000000e+00,6.845471059286887261e-01,4.787472642411447904e-02
2.453150629872368427e+00,-1.604894360488899885e-01,4.215453858661857844e-01,2.950117603715364467e+00,-2.013083116705913778e+00,-4.099009642098040973e-01,-8.362591329910205040e-01,6.895437625550913108e-01,2.094185779293969984e-01,-6.595905344899156697e-01,-3.103797457566520590e-01,0.000000000000000000e+00,6.845471059286887261e-01,4.960769245542340222e-02
2.453300147048733670e+00,-2.230922217461033807e-01,4.207647214910728573e-01,3.013551364436314550e+00,-2.013331109777422689e+00,-4.098694430139410705e-01,-8.362591329910205040e-01,6.895437625550913108e-01,2.594185779293969873e-01,-6.595905344899156697e-01,-3.103797457566520590e-01,0.000000000000000000e+00,6.845471059286887261e-01,4.955130756697999350e-02
2.453117572270917091e+00,-2.745516236184628034e-01,3.970213856671808150e-01,3.088846577786547254e+00,-2.013025566280275402e+00,-4.098407382000882060e-01,-8.362591329910205040e-01,6.895437625550913108e-01,3.094185779293970318e-01,-6.595905344899156697e-01,-3.103797457566520590e-01,0.000000000000000000e+00,6.845471059286887261e-01,4.687574022140931357e-02
2.452497643845393593e+00,-3.153386494154893915e-01,3.523390052804714068e-01,3.174382482814088746e+00,-2.011993271169464137e+00,-4.098509539237528698e-01,-8.362591329910205040e-01,6.895437625550913108e-01,3.594185779293970207e-01,-6.595905344899156697e-01,-3.103797457566520590e-01,0.000000000000000000e+00,6.845471059286887261e-01,4.173270104607942899e-02
2.451245960960830583e+00,-3.477902283730940347e-01,2.925658344341364181e-01,3.266559570137130830e+00,-2.009917760030593747e+00,-4.099500578224671843e-01,-8.362591329910205040e-01,6.895437625550913108e-01,4.094185779293970096e-01,-6.595905344899156697e-01,-3.103797457566520590e-01,0.000000000000000000e+00,6.845471059286887261e-01,3.470215268780261347e-02
2.449131703288955464e+00,-3.774819190226767485e-01,2.302012993478291525e-01,3.358317379654667700e+00,-2.006435826273603062e+00,-4.102097594926255031e-01,-8.362591329910205040e-01,6.895437625550913108e-01,4.594185779293969984e-01,-6.595905344899156697e-01,-3.103797457566520590e-01,0.000000000000000000e+00,6.845471059286887261e-01,2.721814220975190407e-02
2.439341217270142970e+00,-4.814924033833110073e-01,1.834055245560538283e-01,3.642642415076093432e+00,-1.985954764433867981e+00,-3.557936858554774373e-01,-8.372643645407004120e-01,6.916799883372315438e-01,5.281071971878587012e-01,-6.971812263468518678e-01,-3.280685826505824187e-01,0.000000000000000000e+00,6.374239897486898565e-01,2.145160208862435802e-02
2.442205153859457578e+00,-4.444437189694454560e-01,1.337112891871916898e-01,3.519730910230226328e+00,-1.995234858307663117e+00,-4.114913863130542637e-01,-8.362591329910205040e-01,6.895437625550913108e-01,5.594185779293970873e-01,-6.595905344899158917e-01,-3.103797457566521700e-01,0.000000000000000000e+00,6.845471059286885041e-01,1.545621688289583809e-02
2.439462846887947567e+00,-3.928455902587504323e-01,5.515991803668924415e-02,3.410877190437830997e+00,-1.990837888757750029e+00,-4.680789252755067631e-01,-8.362591329910205040e-01,6.895437625550913108e-01,5.905814220706030460e-01,-6.193967401315993992e-01,-2.914659818052378615e-01,0.000000000000000000e+00,7.289686274214115524e-01,6.337310211341416234e-03
2.547611219764432722e+00,-1.084503517922841970e-01,3.874278020986530180e-01,3.253857456341831433e+00,-2.196749276803263484e+00,-7.734166219194080205e-02,-8.559161060780644537e-01,6.393237254218788745e-01,9.635254915624211214e-02,-7.694208842938131676e-01,-2.500000000000004441e-01,0.000000000000000000e+00,5.877852522924732481e-01,4.271924084961579299e-02
2.503710567177062529e+00,-1.580249411568742934e-01,5.300034141848067870e-01,2.982410481270949987e+00,-2.058630040354364699e+00,-3.395659005104573192e-01,-8.372643645407004120e-01,6.416799883372314994e-01,1.281071971878586790e-01,-6.971812263468518678e-01,-3.280685826505824187e-01,0.000000000000000000e+00,6.374239897486898565e-01,5.996577405303284147e-02
2.503093066540244660e+00,-1.898092894972583100e-01,6.204867974394070451e-01,2.782321047782474466e+00,-2.062907418710899776e+00,-4.059418935755623736e-01,-8.362591329910205040e-01,6.395437625550912664e-01,1.594185779293970096e-01,-6.595905344899156697e-01,-3.103797457566520590e-01,0.000000000000000000e+00,6.845471059286887261e-01,6.665039959630741917e-02
2.503188135609561105e+00,-2.675080161131969669e-01,6.478863445702197632e-01,2.832688746680720460e+00,-2.063062131312847658e+00,-4.059025551260303510e-01,-8.362591329910205040e-01,6.395437625550912664e-01,2.094185779293969984e-01,-6.595905344899156697e-01,-3.103797457566520590e-01,0.000000000000000000e+00,6.845471059286887261e-01,6.920140670147302553e-02
2.503127240420901956e+00,-3.352539362309364113e-01,6.536782313390349097e-01,2.894730180106270367e+00,-2.062957683729436997e+00,-4.058638083388800277e-01,-8.362591329910205040e-01,6.395437625550912664e-01,2.594185779293969873e-01,-6.595905344899156697e-01,-3.103797457566520590e-01,0.000000000000000000e+00,6.845471059286887261e-01,6.971373658379759197e-02
2.503236245991499853e+00,-3.883152250367404301e-01,6.291367946363503050e-01,2.972395821464414833e+00,-2.063139248577773532e+00,-4.058260510986401726e-01,-8.362591329910205040e-01,6.395437625550912664e-01,3.094185779293970318e-01,-6.595905344899156697e-01,-3.103797457566520590e-01,0.000000000000000000e+00,6.845471059286887261e-01,6.748915879311614963e-02
2.503403621282898506e+00,-4.260696250055626133e-01,5.741006135434926216e-01,3.065254490378984897e+00,-2.063420748282974504e+00,-4.057824258416385943e-01,-8.362591329910205040e-01,6.395437625550912664e-01,3.594185779293970207e-01,-6.595905344899156697e-01,-3.103797457566520590e-01,0.000000000000000000e+00,6.845471059286887261e-01,6.233059023767095058e-02
2.503438993360429965e+00,-4.468447794823896535e-01,4.861783419065027756e-01,3.174009719275914687e+00,-2.063484660508513091e+00,-4.057525764117146938e-01,-8.362591329910205040e-01,6.395437625550912664e-01,4.094185779293970096e-01,-6.595905344899156697e-01,-3.103797457566520590e-01,0.000000000000000000e+00,6.845471059286887261e-01,5.364328098100492465e-02
2.502693154400599251e+00,-4.559180513132867762e-01,3.773487007076211652e-01,3.291836971348693908e+00,-2.062245262215455899e+00,-4.058358516478836053e-01,-8.362591329910205040e-01,6.395437625550912664e-01,4.594185779293969984e-01,-6.595905344899156697e-01,-3.103797457566520590e-01,0.000000000000000000e+00,6.845471059286887261e-01,4.218880223575635635e-02
2.500551411854472050e+00,-4.651884241267830733e-01,2.731845294653120759e-01,3.404828089234034572e+00,-2.058691173199330482e+00,-4.061799630642318748e-01,-8.362591329910205040e-01,6.395437625550912664e-01,5.094185779293970429e-01,-6.595905344899158917e-01,-3.103797457566521700e-01,0.000000000000000000e+00,6.845471059286885041e-01,3.064166069177295601e-02
2.496991009751434287e+00,-4.835570446224233820e-01,1.928537101166280798e-01,3.502483692788518788e+00,-2.052841878395299968e+00,-4.068896439690182221e-01,-8.362591329910205040e-01,6.395437625550912664e-01,5.594185779293970873e-01,-6.595905344899158917e-01,-3.103797457566521700e-01,0.000000000000000000e+00,6.845471059286885041e-01,2.146911492664937277e-02
2.492349247049251204e+00,-5.116372668383000200e-01,1.381417246620124661e-01,3.583471553523391862e+00,-2.045333869563071616e+00,-4.080064498732499101e-01,-8.362591329910205040e-01,6.395437625550912664e-01,6.094185779293971317e-01,-6.595905344899158917e-01,-3.103797457566521700e-01,0.000000000000000000e+00,6.845471059286885041e-01,1.514935597898416607e-02
2.489612174906859376e+00,-4.560937698441029919e-01,5.332855413841011000e-02,3.473378169303387164e+00,-2.040902011244785985e+00,-4.723411799963573299e-01,-8.362591329910205040e-01,6.395437625550912664e-01,6.405814220706029793e-01,-6.193967401315993992e-01,-2.914659818052378615e-01,0.000000000000000000e+00,7.289686274214115524e-01,5.819756025600681879e-03
2.555943072440788999e+00,-3.344796887728465062e-01,7.634757923629953424e-01,2.932679119772031218e+00,-2.109113519907732659e+00,-3.262135572860832555e-01,-8.372643645407004120e-01,5.916799883372316771e-01,1.781071971878586957e-01,-6.971812263468518678e-01,-3.280685826505824187e-01,0.000000000000000000e+00,6.374239897486898565e-01,7.711936622925578966e-02
2.555521349735437653e+00,-3.501508724565212671e-01,8.235958918426227182e-01,2.742052708281496720e+00,-2.114515122550332027e+00,-4.013996303186672110e-01,-8.362591329910205040e-01,5.895437625550914440e-01,2.094185779293969984e-01,-6.595905344899156697e-01,-3.103797457566520590e-01,0.000000000000000000e+00,6.845471059286887261e-01,7.901679065038830219e-02
2.555324677947505840e+00,-4.204095649500373955e-01,8.307378266172512626e-01,2.805162805768472989e+00,-2.114187925980691496e+00,-4.014144309190372795e-01,-8.362591329910205040e-01,5.895437625550914440e-01,2.594185779293969873e-01,-6.595905344899156697e-01,-3.103797457566520590e-01,0.000000000000000000e+00,6.845471059286887261e-01,7.948575181403183532e-02
2.555226451547447653e+00,-4.797758872296327692e-01,8.154319454155221081e-01,2.879801893763839438e+00,-2.114025630298550951e+00,-4.014367987937765836e-01,-8.362591329910205040e-01,5.895437625550914440e-01,3.094185779293970318e-01,-6.595905344899156697e-01,-3.103797457566520590e-01,0.000000000000000000e+00,6.845471059286887261e-01,7.834055737194035862e-02
2.555361425536017972e+00,-5.258211199667212066e-01,7.738201847410896006e-01,2.967440498794323034e+00,-2.114250902122421838e+00,-4.014365890741271592e-01,-8.362591329910205040e-01,5.895437625550914440e-01,3.594185779293970207e-01,-6.595905344899156697e-01,-3.103797457566520590e-01,0.000000000000000000e+00,6.845471059286887261e-01,7.523868722199890391e-02
2.555890637475953575e+00,-5.540670063948636148e-01,6.977152926062195615e-01,3.071861418265282584e+00,-2.115133148071614233e+00,-4.013652356984565017e-01,-8.362591329910205040e-01,5.895437625550914440e-01,4.094185779293970096e-01,-6.595905344899156697e-01,-3.103797457566520590e-01,0.000000000000000000e+00,6.845471059286887261e-01,6.929351224592278369e-02
2.556668212101772752e+00,-5.595450666101655646e-01,5.778672936099971125e-01,3.197363973709339113e+00,-2.116437626495883961e+00,-4.012235807830216716e-01,-8.362591329910205040e-01,5.895437625550914440e-01,4.594185779293969984e-01,-6.595905344899156697e-01,-3.103797457566520590e-01,0.000000000000000000e+00,6.845471059286887261e-01,5.908267700488990803e-02
2.556582372716885043e+00,-5.472922354079710061e-01,4.257861928500392135e-01,3.337186447806562928e+00,-2.116306193318592932e+00,-4.012331697424464383e-01,-8.362591329910205040e-01,5.895437625550914440e-01,5.094185779293970429e-01,-6.595905344899158917e-01,-3.103797457566521700e-01,0.000000000000000000e+00,6.845471059286885041e-01,4.467359419324799796e-02
2.554352538510201498e+00,-5.386419312988534047e-01,2.865475604736409387e-01,3.467104016190249993e+00,-2.112592837802892642e+00,-4.017223723181690409e-01,-8.362591329910205040e-01,5.895437625550914440e-01,5.594185779293970873e-01,-6.595905344899158917e-01,-3.103797457566521700e-01,0.000000000000000000e+00,6.845471059286885041e-01,3.032960466220758003e-02
2.550127429690593139e+00,-5.478153698698902119e-01,1.901378675014488984e-01,3.571118179359458189e+00,-2.105623154846306466e+00,-4.027908022066178373e-01,-8.362591329910205040e-01,5.895437625550914440e-01,6.094185779293971317e-01,-6.595905344899158917e-01,-3.103797457566521700e-01,0.000000000000000000e+00,6.845471059286885041e-01,1.996982392676791007e-02
2.544651445883774787e+00,-5.720704653674159035e-01,1.311727641700955183e-01,3.651814941960140892e+00,-2.096747365753170111e+00,-4.044015864120423798e-01,-8.362591329910205040e-01,5.895437625550914440e-01,6.594185779293970651e-01,-6.595905344899158917e-01,-3.103797457566521700e-01,0.000000000000000000e+00,6.845471059286885041e-01,1.354574164176898694e-02
2.541742291335439941e+00,-5.158292302245728322e-01,4.643357131301466961e-02,3.537030038568802492e+00,-2.092000752744831438e+00,-4.770776012532441102e-01,-8.362591329910205040e-01,5.895437625550914440e-01,6.905814220706030238e-01,-6.193967401315993992e-01,-2.914659818052378615e-01,0.000000000000000000e+00,7.289686274214115524e-01,4.774277275410471720e-03
2.608080238235744197e+00,-6.094433763095350454e-01,9.079752214736441784e-01,3.070599453029827952e+00,-2.157024142205003603e+00,-3.124589976406327296e-01,-8.372643645407004120e-01,5.416799883372316327e-01,3.281071971878587457e-01,-6.971812263468518678e-01,-3.280685826505824187e-01,0.000000000000000000e+00,6.374239897486898565e-01,8.157816801803345619e-02
2.611278486093115525e+00,-5.925637209897858249e-01,9.056378065482532103e-01,2.904967737443580944e+00,-2.169343643541497446e+00,-3.965042505719544308e-01,-8.362591329910205040e-01,5.395437625550913996e-01,3.594185779293970207e-01,-6.595905344899156697e-01,-3.103797457566520590e-01,0.000000000000000000e+00,6.845471059286887261e-01,7.939434018071099552e-02
2.611416410346885986e+00,-6.313550908225854519e-01,8.481840304127338248e-01,3.001152888490804749e+00,-2.169572766581331802e+00,-3.965279431374351127e-01,-8.362591329910205040e-01,5.395437625550913996e-01,4.094185779293970096e-01,-6.595905344899156697e-01,-3.103797457566520590e-01,0.000000000000000000e+00,6.845471059286887261e-01,7.571664566549153597e-02
2.612144494148270102e+00,-6.504627225690366998e-01,7.535455924319302001e-01,3.115036313533758427e+00,-2.170782156364015503e+00,-3.964013333651527082e-01,-8.362591329910205040e-01,5.395437625550913996e-01,4.594185779293969984e-01,-6.595905344899156697e-01,-3.103797457566520590e-01,0.000000000000000000e+00,6.845471059286887261e-01,6.922446456351369348e-02
2.613418839730686560e+00,-6.413072683920069128e-01,6.048747397218323663e-01,3.254944989902898822e+00,-2.172918417883831221e+00,-3.960957700585749364e-01,-8.362591329910205040e-01,5.395437625550913996e-01,5.094185779293970429e-01,-6.595905344899158917e-01,-3.103797457566521700e-01,0.000000000000000000e+00,6.845471059286885041e-01,5.777597208643395210e-02
2.613496619146917332e+00,-6.111186802124933815e-01,4.182356394757543172e-01,3.411422557573668524e+00,-2.173067613089274097e+00,-3.960776020555449306e-01,-8.362591329910205040e-01,5.395437625550913996e-01,5.594185779293970873e-01,-6.595905344899158917e-01,-3.103797457566521700e-01,0.000000000000000000e+00,6.845471059286885041e-01,4.128922432188784214e-02
2.610569994023349327e+00,-5.934141208740736362e-01,2.638137047667231672e-01,3.546988595786917831e+00,-2.168176276457356444e+00,-3.969142899569457761e-01,-8.362591329910205040e-01,5.395437625550913996e-01,6.094185779293971317e-01,-6.595905344899158917e-01,-3.103797457566521700e-01,0.000000000000000000e+00,6.845471059286885041e-01,2.625037667122533461e-02
2.594722683179616407e+00,-6.680919456138267876e-01,1.724768038448978302e-01,3.853489032453655927e+00,-2.135873911759823329e+00,-3.210647678245847070e-01,-8.372643645407004120e-01,5.416799883372316327e-01,6.781071971878587235e-01,-6.971812263468518678e-01,-3.280685826505824187e-01,0.000000000000000000e+00,6.374239897486898565e-01,1.690140002608657432e-02
2.599018078328676484e+00,-6.260865602710901090e-01,1.158495811818607141e-01,3.721780624483473687e+00,-2.149310167301170527e+00,-4.008570484712711268e-01,-8.362591329910205040e-01,5.395437625550913996e-01,7.094185779293971095e-01,-6.595905344899158917e-01,-3.103797457566521700e-01,0.000000000000000000e+00,6.845471059286885041e-01,1.118100190503924785e-02
2.592060160985949935e+00,-4.884997151936141813e-01,1.155331502693500434e-03,3.406454377571567438e+00,-2.131301962624456259e+00,-5.611097621728283746e-01,-8.372643645407004120e-01,5.416799883372316327e-01,7.218928028121412988e-01,-5.767584698154372136e-01,-2.714019347817792638e-01,0.000000000000000000e+00,7.705132427757891422e-01,1.140515030989145480e-04
2.670766653596147400e+00,-7.169809064494898632e-01,8.802870267087171685e-01,3.057680898710433137e+00,-2.228107766372148912e+00,-3.910343604094357328e-01,-8.362591329910205040e-01,4.895437625550913552e-01,4.594185779293969984e-01,-6.595905344899156697e-01,-3.103797457566520590e-01,0.000000000000000000e+00,6.845471059286887261e-01,7.270511978446567158e-02
2.671428827745138790e+00,-7.276217201513417443e-01,7.703869560021047169e-01,3.178360113689495225e+00,-2.229203181473732087e+00,-3.909033039142810195e-01,-8.362591329910205040e-01,4.895437625550913552e-01,5.094185779293970429e-01,-6.595905344899158917e-01,-3.103797457566521700e-01,0.000000000000000000e+00,6.845471059286885041e-01,6.579531257896806262e-02
2.673497308821000118e+00,-6.962175733500348684e-01,5.786665622939559661e-01,3.339505081061838521e+00,-2.232673056470109607e+00,-3.902584245860138412e-01,-8.362591329910205040e-01,4.895437625550913552e-01,5.594185779293970873e-01,-6.595905344899158917e-01,-3.103797457566521700e-01,0.000000000000000000e+00,6.845471059286885041e-01,5.199540143848488394e-02
2.673004846165067949e+00,-6.516298999461135333e-01,3.663640309897009395e-01,3.506978752983037850e+00,-2.231864101656118926e+00,-3.904411492095551939e-01,-8.362591329910205040e-01,4.895437625550913552e-01,6.094185779293971317e-01,-6.595905344899158917e-01,-3.103797457566521700e-01,0.000000000000000000e+00,6.845471059286885041e-01,3.401534928034789101e-02
2.668749819316449834e+00,-6.367556537469883926e-01,2.226777849334662385e-01,3.633727990255168905e+00,-2.224731060221281531e+00,-3.919700352811698596e-01,-8.362591329910205040e-01,4.895437625550913552e-01,6.594185779293970651e-01,-6.595905344899158917e-01,-3.103797457566521700e-01,0.000000000000000000e+00,6.845471059286885041e-01,2.068608746743609214e-02
2.662468628372414603e+00,-6.519007561155066854e-01,1.482007573789673460e-01,3.719857842549925131e+00,-2.214380752813391418e+00,-3.944624126544887255e-01,-8.362591329910205040e-01,4.895437625550913552e-01,7.094185779293971095e-01,-6.595905344899158917e-01,-3.103797457566521700e-01,0.000000000000000000e+00,6.845471059286885041e-01,1.355098612149203616e-02
2.659393321750318950e+00,-5.937088133196422035e-01,6.261133525022241630e-02,3.592023417350684422e+00,-2.209275304113385019e+00,-4.883495931370085974e-01,-8.362591329910205040e-01,4.895437625550913552e-01,7.405814220706029571e-01,-6.193967401315993992e-01,-2.914659818052378615e-01,0.000000000000000000e+00,7.289686274214115524e-01,5.710613936628855004e-03
2.737281752682356295e+00,-7.091049552339558915e-01,4.705098867965890608e-01,3.465079810862420118e+00,-2.296500286090299880e+00,-3.833211853633518018e-01,-8.362591329910205040e-01,4.395437625550913108e-01,6.094185779293971317e-01,-6.595905344899158917e-01,-3.103797457566521700e-01,0.000000000000000000e+00,6.845471059286885041e-01,4.022118785484398579e-02
2.734500002541847330e+00,-6.702151112170002811e-01,2.756114601752979731e-01,3.619595858825857437e+00,-2.291789176485958368e+00,-3.844887188995237404e-01,-8.362591329910205040e-01,4.395437625550913108e-01,6.594185779293970651e-01,-6.595905344899158917e-01,-3.103797457566521700e-01,0.000000000000000000e+00,6.845471059286885041e-01,2.395027296945065678e-02
2.728551305098438018e+00,-6.718536210873987669e-01,1.719706026019791334e-01,3.721425849834889110e+00,-2.281811320433910772e+00,-3.871194710108911141e-01,-8.362591329910205040e-01,4.395437625550913108e-01,7.094185779293971095e-01,-6.595905344899158917e-01,-3.103797457566521700e-01,0.000000000000000000e+00,6.845471059286885041e-01,1.478957335528527720e-02
2.725638905256758004e+00,-6.035469421250039268e-01,6.734295421912535329e-02,3.593389288496965150e+00,-2.276940028563014362e+00,-4.949499592761361644e-01,-8.362591329910205040e-01,4.395437625550913108e-01,7.405814220706029571e-01,-6.193967401315993992e-01,-2.914659818052378615e-01,0.000000000000000000e+00,7.289686274214115524e-01,5.787334811501516907e-03
2.712778413084309559e+00,-5.405376307291875904e-01,-3.009659999509144840e-02,3.469477863114029503e+00,-2.247382834258881523e+00,-5.954719888490169755e-01,-8.372643645407004120e-01,4.416799883372315993e-01,7.718928028121413432e-01,-5.767584698154372136e-01,-2.714019347817793748e-01,0.000000000000000000e+00,7.705132427757891422e-01,2.620036749524777379e-03
2.789568609273232802e+00,-7.077288308935100192e-01,1.322029247765153792e-01,3.798283781881021781e+00,-2.338952437576493182e+00,-3.826804127009788004e-01,-8.362591329910205040e-01,3.895437625550912664e-01,7.594185779293970429e-01,-6.595905344899158917e-01,-3.103797457566521700e-01,0.000000000000000000e+00,6.845471059286885041e-01,1.042240446486250929e-02
2.780143225777156779e+00,-5.435795660675355467e-01,-3.511056046456999952e-02,3.463334620137433539e+00,-2.313593949437822150e+00,-6.173280341773402791e-01,-8.372643645407004120e-01,3.916799883372315549e-01,7.718928028121413432e-01,-5.767584698154372136e-01,-2.714019347817793748e-01,0.000000000000000000e+00,7.705132427757891422e-01,2.871079555054957197e-03
2.321239596714528286e+00,-3.280615049650116577e-02,2.204855511574828897e-01,3.298572336476843780e+00,-1.976392055475219678e+00,-1.708404209012917563e-01,-8.059161060780644092e-01,8.393237254218790522e-01,9.635254915624211214e-02,-7.694208842938131676e-01,-2.500000000000004441e-01,0.000000000000000000e+00,5.877852522924732481e-01,2.824612413978916381e-02
2.321705259310211211e+00,-9.017563670534348153e-02,2.196453343260150737e-01,3.355868636777829206e+00,-1.977257038049772708e+00,-1.710599469300753128e-01,-8.059161060780644092e-01,8.393237254218790522e-01,1.463525491562421288e-01,-7.694208842938132786e-01,-2.500000000000005551e-01,0.000000000000000000e+00,5.877852522924730261e-01,2.819706731835357194e-02
2.321603899634721913e+00,-1.467644916144878187e-01,2.169637641883745971e-01,3.414131293955074753e+00,-1.977186442268916711e+00,-1.714929670021425046e-01,-8.059161060780644092e-01,8.393237254218790522e-01,1.963525491562421454e-01,-7.694208842938132786e-01,-2.500000000000005551e-01,0.000000000000000000e+00,5.877852522924730261e-01,2.783863766063904635e-02
2.272191590734309319e+00,-1.284168412909539869e-01,2.010966763108861799e-01,3.264478963281063795e+00,-1.824923045593391580e+00,-3.894116440316588434e-01,-7.872643645407003676e-01,8.416799883372316771e-01,2.281071971878586846e-01,-6.971812263468518678e-01,-3.280685826505824187e-01,0.000000000000000000e+00,6.374239897486898565e-01,2.679425782399377093e-02
2.271589157793649782e+00,-1.843648431477103444e-01,1.934967722270845292e-01,3.327549811513791589e+00,-1.824030188232369731e+00,-3.896451401580911522e-01,-7.872643645407003676e-01,8.416799883372316771e-01,2.781071971878587012e-01,-6.971812263468518678e-01,-3.280685826505824187e-01,0.000000000000000000e+00,6.374239897486898565e-01,2.571582793979246620e-02
2.270360213548549666e+00,-2.388632189608758949e-01,1.842747238246554564e-01,3.390599399656109902e+00,-1.822204103934893071e+00,-3.900438042479946743e-01,-7.872643645407003676e-01,8.416799883372316771e-01,3.281071971878587457e-01,-6.971812263468518678e-01,-3.280685826505824187e-01,0.000000000000000000e+00,6.374239897486898565e-01,2.435346062047825944e-02
2.268544375317265160e+00,-2.903917055592217800e-01,1.711358971886546565e-01,3.454271166822020067e+00,-1.819522094322363337e+00,-3.906305872316919725e-01,-7.872643645407003676e-01,8.416799883372316771e-01,3.781071971878587346e-01,-6.971812263468518678e-01,-3.280685826505824187e-01,0.000000000000000000e+00,6.374239897486898565e-01,2.242952515360703905e-02
2.266160872607786203e+00,-3.389509539999271404e-01,1.548540635995384329e-01,3.517677533601984319e+00,-1.816034250040809317e+00,-3.914260746695317761e-01,-7.872643645407003676e-01,8.416799883372316771e-01,4.281071971878587235e-01,-6.971812263468518678e-01,-3.280685826505824187e-01,0.000000000000000000e+00,6.374239897486898565e-01,2.007302163205414852e-02
2.267403246323610233e+00,-3.063757877233002080e-01,1.110503677154952157e-01,3.401649563112175034e+00,-1.820783383062119398e+00,-4.232409852176621801e-01,-7.862591329910204596e-01,8.395437625550914440e-01,4.594185779293969984e-01,-6.595905344899156697e-01,-3.103797457566520590e-01,0.000000000000000000e+00,6.845471059286887261e-01,1.424370541528829741e-02
2.366800304635963581e+00,-5.744288220038237802e-02,2.771340379540103704e-01,3.273605318767659700e+00,-2.023276639658895260e+00,-1.537808625587110123e-01,-8.059161060780644092e-01,7.893237254218790078e-01,9.635254915624211214e-02,-7.694208842938131676e-01,-2.500000000000004441e-01,0.000000000000000000e+00,5.877852522924732481e-01,3.448993676789813279e-02
2.317207647180255847e+00,-5.247527355079305289e-02,2.998357891340704962e-01,3.091929363985626900e+00,-1.872033004825965019e+00,-3.803731446923407367e-01,-7.872643645407003676e-01,7.916799883372316327e-01,1.281071971878586790e-01,-6.971812263468518678e-01,-3.280685826505824187e-01,0.000000000000000000e+00,6.374239897486898565e-01,3.872703589506267668e-02
2.317760752302154614e+00,-1.196452008653611093e-01,3.104535609465554624e-01,3.148481242939329405e+00,-1.872893313843050134e+00,-3.802690316117545710e-01,-7.872643645407003676e-01,7.916799883372316327e-01,1.781071971878586957e-01,-6.971812263468518678e-01,-3.280685826505824187e-01,0.000000000000000000e+00,6.374239897486898565e-01,4.015903030682310693e-02
2.318769673363778594e+00,-1.104915761666927648e-01,3.153585008304507498e-01,3.003166355752343364e+00,-1.877930806987636592e+00,-4.195350625657637833e-01,-7.862591329910204596e-01,7.895437625550913996e-01,2.094185779293969984e-01,-6.595905344899156697e-01,-3.103797457566520590e-01,0.000000000000000000e+00,6.845471059286887261e-01,4.003623504134777578e-02
2.318916842302761072e+00,-1.714268265672318770e-01,3.135496861579864514e-01,3.065817083861650971e+00,-1.878161820746769628e+00,-4.195537756356509940e-01,-7.862591329910204596e-01,7.895437625550913996e-01,2.594185779293969873e-01,-6.595905344899156697e-01,-3.103797457566520590e-01,0.000000000000000000e+00,6.845471059286887261e-01,3.984056542836016818e-02
2.318543909553084870e+00,-2.248595200875673217e-01,2.963347095485514560e-01,3.136458569821889419e+00,-1.877579885124786463e+00,-4.195790202163857674e-01,-7.862591329910204596e-01,7.895437625550913996e-01,3.094185779293970318e-01,-6.595905344899156697e-01,-3.103797457566520590e-01,0.000000000000000000e+00,6.845471059286887261e-01,3.765605581082569209e-02
2.317625631030056699e+00,-2.702494557014687993e-01,2.635993066402330665e-01,3.214551755822307566e+00,-1.876150825914803200e+00,-4.196466722924078740e-01,-7.862591329910204596e-01,7.895437625550913996e-01,3.594185779293970207e-01,-6.595905344899156697e-01,-3.103797457566520590e-01,0.000000000000000000e+00,6.845471059286887261e-01,3.345974951054587337e-02
2.316053809821762677e+00,-3.098956977714782401e-01,2.210856821374179437e-01,3.296542245709570995e+00,-1.873717718637547103e+00,-4.197967718298981077e-01,-7.862591329910204596e-01,7.895437625550913996e-01,4.094185779293970096e-01,-6.595905344899156697e-01,-3.103797457566520590e-01,0.000000000000000000e+00,6.845471059286887261e-01,2.795956210921884261e-02
2.308709306140074524e+00,-4.215357592218220151e-01,1.874773900338905230e-01,3.569942207696977565e+00,-1.859183007294256118e+00,-3.829462281125936007e-01,-7.872643645407003676e-01,7.916799883372316327e-01,4.781071971878587124e-01,-6.971812263468518678e-01,-3.280685826505824187e-01,0.000000000000000000e+00,6.374239897486898565e-01,2.347016090763494670e-02
2.305059899698263859e+00,-4.616182567413704141e-01,1.578995366415943680e-01,3.637265747297208307e+00,-1.853826000769407401e+00,-3.842789034877399090e-01,-7.872643645407003676e-01,7.916799883372316327e-01,5.281071971878587012e-01,-6.971812263468518678e-01,-3.280685826505824187e-01,0.000000000000000000e+00,6.374239897486898565e-01,1.946093535690653770e-02
2.308209017404402097e+00,-3.365964186410145831e-01,6.366128989539149297e-02,3.350013977249338470e+00,-1.861758011046006578e+00,-4.585648444572431592e-01,-7.862591329910204596e-01,7.895437625550913996e-01,5.405814220706030016e-01,-6.193967401315993992e-01,-2.914659818052378615e-01,0.000000000000000000e+00,7.289686274214115524e-01,7.840331494230672743e-03
2.445111998325169456e+00,-1.073815443266842307e-01,3.498953836279646845e-01,3.442667230177795190e+00,-2.174466126389230869e+00,1.451276325325059902e-01,-8.245678476154285619e-01,7.416799883372315882e-01,6.386689373476089893e-02,-8.293725566548315609e-01,-1.582112766220056255e-01,0.000000000000000000e+00,5.358267949789965456e-01,4.018988388201789885e-02
2.414964553537956249e+00,-9.450473154490725280e-02,3.595519974729589063e-01,3.236992958648221119e+00,-2.072333314712338836e+00,-1.348587787599721810e-01,-8.059161060780644092e-01,7.393237254218789634e-01,9.635254915624211214e-02,-7.694208842938131676e-01,-2.500000000000004441e-01,0.000000000000000000e+00,5.877852522924732481e-01,4.300538843351024709e-02
2.364529582511793571e+00,-1.321855466091367559e-01,4.738864616479671055e-01,3.000149104133132738e+00,-1.920964942877651183e+00,-3.706934888753220525e-01,-7.872643645407003676e-01,7.416799883372315882e-01,1.281071971878586790e-01,-6.971812263468518678e-01,-3.280685826505824187e-01,0.000000000000000000e+00,6.374239897486898565e-01,5.788243439187432116e-02
2.363834344142577315e+00,-1.572903840717669033e-01,5.499775433229687760e-01,2.815979618925462447e+00,-1.923768625243335695e+00,-4.164881378967146830e-01,-7.862591329910204596e-01,7.395437625550913552e-01,1.594185779293970096e-01,-6.595905344899156697e-01,-3.103797457566520590e-01,0.000000000000000000e+00,6.845471059286887261e-01,6.443658137781894946e-02
2.364051871226545032e+00,-2.336463549891745206e-01,5.760940215940616449e-01,2.866243586406804766e+00,-1.924109577642875379e+00,-4.164654059592959312e-01,-7.862591329910204596e-01,7.395437625550913552e-01,2.094185779293969984e-01,-6.595905344899156697e-01,-3.103797457566520590e-01,0.000000000000000000e+00,6.845471059286887261e-01,6.721698747629646642e-02
2.364114718391130410e+00,-2.990979578012375462e-01,5.786500921065552694e-01,2.929205910771759847e+00,-1.924207004156515577e+00,-4.164375753883389208e-01,-7.862591329910204596e-01,7.395437625550913552e-01,2.594185779293969873e-01,-6.595905344899156697e-01,-3.103797457566520590e-01,0.000000000000000000e+00,6.845471059286887261e-01,6.749841400722318696e-02
2.364086595593804407e+00,-3.521523509988849221e-01,5.556473456706855218e-01,3.005331622581495665e+00,-1.924161882463203632e+00,-4.164149529041055176e-01,-7.862591329910204596e-01,7.395437625550913552e-01,3.094185779293970318e-01,-6.595905344899156697e-01,-3.103797457566520590e-01,0.000000000000000000e+00,6.845471059286887261e-01,6.509873383223623022e-02
2.364051866797579837e+00,-3.892984518876449473e-01,5.008681497093564472e-01,3.097308981298339869e+00,-1.924107420555435599e+00,-4.163987258803767966e-01,-7.862591329910204596e-01,7.395437625550913552e-01,3.594185779293970207e-01,-6.595905344899156697e-01,-3.103797457566520590e-01,0.000000000000000000e+00,6.845471059286887261e-01,5.925708918067170566e-02
2.363688671340843594e+00,-4.116906226785211342e-01,4.177761612692643123e-01,3.202802268813924158e+00,-1.923537247820717777e+00,-4.164184941314786337e-01,-7.862591329910204596e-01,7.395437625550913552e-01,4.094185779293970096e-01,-6.595905344899156697e-01,-3.103797457566520590e-01,0.000000000000000000e+00,6.845471059286887261e-01,4.999798982399532299e-02
2.362444669036417366e+00,-4.261125593992615701e-01,3.214618010145149363e-01,3.313382388617306606e+00,-1.921588085817719671e+00,-4.165511036525358368e-01,-7.862591329910204596e-01,7.395437625550913552e-01,4.594185779293969984e-01,-6.595905344899156697e-01,-3.103797457566520590e-01,0.000000000000000000e+00,6.845471059286887261e-01,3.873320383227470132e-02
2.359949209976729634e+00,-4.427881658356963013e-01,2.340232304311624656e-01,3.416969978289191356e+00,-1.917704286544050563e+00,-4.168882537224520846e-01,-7.862591329910204596e-01,7.395437625550913552e-01,5.094185779293970429e-01,-6.595905344899158917e-01,-3.103797457566521700e-01,0.000000000000000000e+00,6.845471059286885041e-01,2.812665540143396634e-02
2.349260770204188553e+00,-5.369663627977701026e-01,1.743805912195117991e-01,3.698530464585304767e+00,-1.897706329922248303e+00,-3.754719421111073485e-01,-7.872643645407003676e-01,7.416799883372315882e-01,5.781071971878587457e-01,-6.971812263468518678e-01,-3.280685826505824187e-01,0.000000000000000000e+00,6.374239897486898565e-01,2.055822667323024822e-02
2.351704621721764976e+00,-4.995390349220467652e-01,1.228674583239741380e-01,3.581974820860899023e+00,-1.905123736761890285e+00,-4.183651467094720022e-01,-7.862591329910204596e-01,7.395437625550913552e-01,6.094185779293971317e-01,-6.595905344899158917e-01,-3.103797457566521700e-01,0.000000000000000000e+00,6.845471059286885041e-01,1.434913238015695508e-02
2.349215709876142810e+00,-4.496714867990180831e-01,4.858128272317045748e-02,3.475489751641370084e+00,-1.901290663999638086e+00,-4.619572506358947117e-01,-7.862591329910204596e-01,7.395437625550913552e-01,6.405814220706029793e-01,-6.193967401315993992e-01,-2.914659818052378615e-01,0.000000000000000000e+00,7.289686274214115524e-01,5.639412173272154334e-03
2.493843719666351433e+00,-1.394797637502530052e-01,4.181762370636011306e-01,3.426685158230231565e+00,-2.219621507508413139e+00,1.777026128233814839e-01,-8.245678476154285619e-01,6.916799883372315438e-01,6.386689373476089893e-02,-8.293725566548315609e-01,-1.582112766220056255e-01,0.000000000000000000e+00,5.358267949789965456e-01,4.588524165223418355e-02
2.465494967615418975e+00,-1.445583161470325173e-01,4.687641019861009117e-01,3.188623646397328759e+00,-2.122888928097705463e+00,-1.138166767257937639e-01,-8.059161060780644092e-01,6.893237254218789190e-01,9.635254915624211214e-02,-7.694208842938131676e-01,-2.500000000000004441e-01,0.000000000000000000e+00,5.877852522924732481e-01,5.308918388132335964e-02
2.411842937547684418e+00,-2.425018193816436407e-01,7.116625439836936629e-01,2.876745391607078428e+00,-1.967663912712928953e+00,-3.603612254466261877e-01,-7.872643645407003676e-01,6.916799883372315438e-01,1.281071971878586790e-01,-6.971812263468518678e-01,-3.280685826505824187e-01,0.000000000000000000e+00,6.374239897486898565e-01,7.852259015872457837e-02
2.411043424202222951e+00,-3.304096999877221275e-01,7.553029385466547563e-01,2.921421574240806507e+00,-1.966365640445520535e+00,-3.603506436051165940e-01,-7.872643645407003676e-01,6.916799883372315438e-01,1.781071971878586957e-01,-6.971812263468518678e-01,-3.280685826505824187e-01,0.000000000000000000e+00,6.374239897486898565e-01,8.214729688158285692e-02
2.410145528147671801e+00,-3.437418879043332431e-01,8.098905599198729099e-01,2.744056138164559400e+00,-1.969432263396433402e+00,-4.130042266372180304e-01,-7.862591329910204596e-01,6.895437625550913108e-01,2.094185779293969984e-01,-6.595905344899156697e-01,-3.103797457566520590e-01,0.000000000000000000e+00,6.845471059286887261e-01,8.419221414128666425e-02
2.409933693312096725e+00,-4.139890002697437787e-01,8.175189682691212933e-01,2.806661582100562935e+00,-1.969100231669902668e+00,-4.130221128093324312e-01,-7.862591329910204596e-01,6.895437625550913108e-01,2.594185779293969873e-01,-6.595905344899156697e-01,-3.103797457566520590e-01,0.000000000000000000e+00,6.845471059286887261e-01,8.473445826862122110e-02
2.409802404117189489e+00,-4.733887982503198200e-01,8.027972019990993191e-01,2.880741425303401382e+00,-1.968895302979491113e+00,-4.130460445802418001e-01,-7.862591329910204596e-01,6.895437625550913108e-01,3.094185779293970318e-01,-6.595905344899156697e-01,-3.103797457566520590e-01,0.000000000000000000e+00,6.845471059286887261e-01,8.351517564146533623e-02
2.409873409719912374e+00,-5.196442862773804627e-01,7.621242665216513279e-01,2.967632773798465351e+00,-1.969007266918280763e+00,-4.130552345588622276e-01,-7.862591329910204596e-01,6.895437625550913108e-01,3.594185779293970207e-01,-6.595905344899156697e-01,-3.103797457566520590e-01,0.000000000000000000e+00,6.845471059286887261e-01,8.018817515223100600e-02
2.410287037918683151e+00,-5.485696385829421651e-01,6.878997655798482214e-01,3.070812080595761717e+00,-1.969656232477448699e+00,-4.130166464471405896e-01,-7.862591329910204596e-01,6.895437625550913108e-01,4.094185779293970096e-01,-6.595905344899156697e-01,-3.103797457566520590e-01,0.000000000000000000e+00,6.845471059286887261e-01,7.385516043352945148e-02
2.410954891883176909e+00,-5.547850091959121155e-01,5.699874873541020959e-01,3.195064501398924062e+00,-1.970707253947202142e+00,-4.129252063666196682e-01,-7.862591329910204596e-01,6.895437625550913108e-01,4.594185779293969984e-01,-6.595905344899156697e-01,-3.103797457566520590e-01,0.000000000000000000e+00,6.845471059286887261e-01,6.293961091701845423e-02
2.410833895520489989e+00,-5.425320187050762799e-01,4.182782040027739900e-01,3.334494146345747811e+00,-1.970521745968618621e+00,-4.129440456720830377e-01,-7.862591329910204596e-01,6.895437625550913108e-01,5.094185779293970429e-01,-6.595905344899158917e-01,-3.103797457566521700e-01,0.000000000000000000e+00,6.845471059286885041e-01,4.736362912698973554e-02
2.408609627574251899e+00,-5.337679625741791334e-01,2.792504642421627103e-01,3.464110614480443662e+00,-1.967040198979191246e+00,-4.133361761045451499e-01,-7.862591329910204596e-01,6.895437625550913108e-01,5.594185779293970873e-01,-6.595905344899158917e-01,-3.103797457566521700e-01,0.000000000000000000e+00,6.845471059286885041e-01,3.185879635185737829e-02
2.404419616769584156e+00,-5.432885801460337616e-01,1.841005028083528561e-01,3.567281189085018678e+00,-1.960548915473308229e+00,-4.141714896553415071e-01,-7.862591329910204596e-01,6.895437625550913108e-01,6.094185779293971317e-01,-6.595905344899158917e-01,-3.103797457566521700e-01,0.000000000000000000e+00,6.845471059286885041e-01,2.080369506849992500e-02
2.399015356093902707e+00,-5.680084260088976711e-01,1.266744065442965417e-01,3.647031151119467740e+00,-1.952312835656899503e+00,-4.154006585623798431e-01,-7.862591329910204596e-01,6.895437625550913108e-01,6.594185779293970651e-01,-6.595905344899158917e-01,-3.103797457566521700e-01,0.000000000000000000e+00,6.845471059286885041e-01,1.404727686022324770e-02
2.396542882193141821e+00,-5.148043189374239548e-01,4.719199935565515647e-02,3.539857573822627224e+00,-1.948459872409319615e+00,-4.657333767986581718e-01,-7.862591329910204596e-01,6.895437625550913108e-01,6.905814220706030238e-01,-6.193967401315993992e-01,-2.914659818052378615e-01,0.000000000000000000e+00,7.289686274214115524e-01,5.208059479806637256e-03
2.517423417217413473e+00,-2.170503313582905491e-01,6.244260671101136140e-01,3.118359047614174706e+00,-2.172952772683382161e+00,-9.073057266264747400e-02,-8.059161060780644092e-01,6.393237254218788745e-01,9.635254915624211214e-02,-7.694208842938131676e-01,-2.500000000000004441e-01,0.000000000000000000e+00,5.877852522924732481e-01,6.521221030351778691e-02
2.460690616620663462e+00,-3.386882392816203402e-01,9.206422252811631290e-01,2.768785484957509535e+00,-2.014411902371475716e+00,-3.492363900146951416e-01,-7.872643645407003676e-01,6.416799883372314994e-01,1.281071971878586790e-01,-6.971812263468518678e-01,-3.280685826505824187e-01,0.000000000000000000e+00,6.374239897486898565e-01,8.972317531785474476e-02
2.459877930250689460e+00,-4.237294171478645510e-01,9.535276502025752388e-01,2.821088666337761008e+00,-2.013117312826865568e+00,-3.493249554405834512e-01,-7.872643645407003676e-01,6.416799883372314994e-01,1.781071971878586957e-01,-6.971812263468518678e-01,-3.280685826505824187e-01,0.000000000000000000e+00,6.374239897486898565e-01,9.165026622974575821e-02
2.459001196943418233e+00,-5.000158705015935734e-01,9.674138596328885065e-01,2.883470750403671623e+00,-2.011739983355984585e+00,-3.494989232806017254e-01,-7.872643645407003676e-01,6.416799883372314994e-01,2.281071971878586846e-01,-6.971812263468518678e-01,-3.280685826505824187e-01,0.000000000000000000e+00,6.374239897486898565e-01,9.226372334909474504e-02
2.458061164246769792e+00,-5.674559878543384839e-01,9.634899462757385846e-01,2.954653838166341195e+00,-2.010280063594229283e+00,-3.497561491865186500e-01,-7.872643645407003676e-01,6.416799883372314994e-01,2.781071971878587012e-01,-6.971812263468518678e-01,-3.280685826505824187e-01,0.000000000000000000e+00,6.374239897486898565e-01,9.171854000373927396e-02
2.457164662359870633e+00,-6.248075051048352924e-01,9.404848701322356952e-01,3.034706815027392590e+00,-2.008900686590251894e+00,-3.500579306827409920e-01,-7.872643645407003676e-01,6.416799883372314994e-01,3.281071971878587457e-01,-6.971812263468518678e-01,-3.280685826505824187e-01,0.000000000000000000e+00,6.374239897486898565e-01,8.995244985581879460e-02
2.460011922272578477e+00,-6.055339760934782545e-01,9.313236213720103018e-01,2.885780847811712846e+00,-2.018458421523454671e+00,-4.092977219549052137e-01,-7.862591329910204596e-01,6.395437625550912664e-01,3.594185779293970207e-01,-6.595905344899156697e-01,-3.103797457566520590e-01,0.000000000000000000e+00,6.845471059286887261e-01,8.770709839366486182e-02
2.459966173045161852e+00,-6.468954093823294782e-01,8.785634129033366158e-01,2.979790325936654050e+00,-2.018388100949537467e+00,-4.093487039899131319e-01,-7.862591329910204596e-01,6.395437625550912664e-01,4.094185779293970096e-01,-6.595905344899156697e-01,-3.103797457566520590e-01,0.000000000000000000e+00,6.845471059286887261e-01,8.412881742279576525e-02
2.460290274673264665e+00,-6.719553836468725727e-01,7.957261552053871423e-01,3.087677974509806855e+00,-2.018893537356009293e+00,-4.093308011948024183e-01,-7.862591329910204596e-01,6.395437625550912664e-01,4.594185779293969984e-01,-6.595905344899156697e-01,-3.103797457566520590e-01,0.000000000000000000e+00,6.845471059286887261e-01,7.815166452416394405e-02
2.461369718609483837e+00,-6.705468602821199608e-01,6.625161495452849270e-01,3.219754871840591726e+00,-2.020583072125057722e+00,-4.091403411722703831e-01,-7.862591329910204596e-01,6.395437625550912664e-01,5.094185779293970429e-01,-6.595905344899158917e-01,-3.103797457566521700e-01,0.000000000000000000e+00,6.845471059286885041e-01,6.754940562835134998e-02
2.462192403762384352e+00,-6.386663760700999060e-01,4.716431648108916352e-01,3.379013690284410565e+00,-2.021883280944302808e+00,-4.089724658537477464e-01,-7.862591329910204596e-01,6.395437625550912664e-01,5.594185779293970873e-01,-6.595905344899158917e-01,-3.103797457566521700e-01,0.000000000000000000e+00,6.845471059286885041e-01,5.005757111710471691e-02
2.460078582960023574e+00,-6.094419114696890682e-01,2.929164485398014772e-01,3.527712401362424810e+00,-2.018569478036301490e+00,-4.094571967440477356e-01,-7.862591329910204596e-01,6.395437625550912664e-01,6.094185779293971317e-01,-6.595905344899158917e-01,-3.103797457566521700e-01,0.000000000000000000e+00,6.845471059286885041e-01,3.156646404227752417e-02
2.455169936880522652e+00,-6.092462220569340170e-01,1.812661412491619051e-01,3.637057125673525793e+00,-2.010944652027308877e+00,-4.106681509046968825e-01,-7.862591329910204596e-01,6.395437625550912664e-01,6.594185779293970651e-01,-6.595905344899158917e-01,-3.103797457566521700e-01,0.000000000000000000e+00,6.845471059286885041e-01,1.934379522885137578e-02
2.448848603684793179e+00,-6.302859395682685051e-01,1.204544728420187533e-01,3.715706680711606147e+00,-2.001301523482510447e+00,-4.123970111059652721e-01,-7.862591329910204596e-01,6.395437625550912664e-01,7.094185779293971095e-01,-6.595905344899158917e-01,-3.103797457566521700e-01,0.000000000000000000e+00,6.845471059286885041e-01,1.258765692486777180e-02
2.446237373451960018e+00,-5.767440149366134250e-01,4.156412303920628548e-02,3.604815947584391278e+00,-1.997188864775340411e+00,-4.699830245946913232e-01,-7.862591329910204596e-01,6.395437625550912664e-01,7.405814220706029571e-01,-6.193967401315993992e-01,-2.914659818052378615e-01,0.000000000000000000e+00,7.289686274214115524e-01,4.325292045974812177e-03
2.513347159830903177e+00,-4.883946933364951004e-01,1.092195799180492033e+00,2.752731719575234770e+00,-2.064754449371335454e+00,-3.367413692315727181e-01,-7.872643645407003676e-01,5.916799883372316771e-01,1.781071971878586957e-01,-6.971812263468518678e-01,-3.280685826505824187e-01,0.000000000000000000e+00,6.374239897486898565e-01,9.365925073885407459e-02
2.512532776563382697e+00,-5.651392004088937604e-01,1.102166736340959963e+00,2.819362775869281190e+00,-2.063490624217420688e+00,-3.369656258689730510e-01,-7.872643645407003676e-01,5.916799883372316771e-01,2.281071971878586846e-01,-6.971812263468518678e-01,-3.280685826505824187e-01,0.000000000000000000e+00,6.374239897486898565e-01,9.390503499027649803e-02
2.511646915200816732e+00,-6.338440329311957333e-01,1.096014817915451411e+00,2.893932648047297995e+00,-2.062130394164146896e+00,-3.372733268133762952e-01,-7.872643645407003676e-01,5.916799883372316771e-01,2.781071971878587012e-01,-6.971812263468518678e-01,-3.280685826505824187e-01,0.000000000000000000e+00,6.374239897486898565e-01,9.335961742480065884e-02
2.510735235922849196e+00,-6.936843193714694600e-01,1.073503062462394242e+00,2.975866682990208734e+00,-2.060742727149555531e+00,-3.376483407805602743e-01,-7.872643645407003676e-01,5.916799883372316771e-01,3.281071971878587457e-01,-6.971812263468518678e-01,-3.280685826505824187e-01,0.000000000000000000e+00,6.374239897486898565e-01,9.199889772141700561e-02
2.509923384790793133e+00,-7.431523936497315130e-01,1.032821389364396936e+00,3.065529487811773368e+00,-2.059516171745470192e+00,-3.380356875704507713e-01,-7.872643645407003676e-01,5.916799883372316771e-01,3.781071971878587346e-01,-6.971812263468518678e-01,-3.280685826505824187e-01,0.000000000000000000e+00,6.374239897486898565e-01,8.966279633505366831e-02
2.514685346536682076e+00,-7.143144550698843354e-01,1.005443713077160073e+00,2.922217423657573754e+00,-2.072710258011294826e+00,-4.050480294029080719e-01,-7.862591329910204596e-01,5.895437625550914440e-01,4.094185779293970096e-01,-6.595905344899156697e-01,-3.103797457566520590e-01,0.000000000000000000e+00,6.845471059286887261e-01,8.679458384285333727e-02
2.514556816578486398e+00,-7.490081528865236704e-01,9.388133319724518699e-01,3.023372183088291365e+00,-2.072510552770802761e+00,-4.051372361101199249e-01,-7.862591329910204596e-01,5.895437625550914440e-01,4.594185779293969984e-01,-6.595905344899156697e-01,-3.103797457566520590e-01,0.000000000000000000e+00,6.845471059286887261e-01,8.289619366828060443e-02
2.514845222261898439e+00,-7.668010333361647834e-01,8.421845691430093206e-01,3.137771290323308371e+00,-2.072957294227908864e+00,-4.051274654124311647e-01,-7.862591329910204596e-01,5.895437625550914440e-01,5.094185779293970429e-01,-6.595905344899158917e-01,-3.103797457566521700e-01,0.000000000000000000e+00,6.845471059286885041e-01,7.671427282431567130e-02
2.516222117625592780e+00,-7.543133463506871417e-01,6.883329023595721186e-01,3.279605485232952145e+00,-2.075107584016866902e+00,-4.048085663259985423e-01,-7.862591329910204596e-01,5.895437625550914440e-01,5.594185779293970873e-01,-6.595905344899158917e-01,-3.103797457566521700e-01,0.000000000000000000e+00,6.845471059286885041e-01,6.560691077862652876e-02
2.517403667267023692e+00,-7.039523950416126663e-01,4.624430668358085472e-01,3.455619524684870214e+00,-2.076977044439801467e+00,-4.044987542345316323e-01,-7.862591329910204596e-01,5.895437625550914440e-01,6.094185779293971317e-01,-6.595905344899158917e-01,-3.103797457566521700e-01,0.000000000000000000e+00,6.845471059286885041e-01,4.627395218584347270e-02
2.514530796677775459e+00,-6.651324113272973904e-01,2.681352729517278988e-01,3.609789255976963762e+00,-2.072466033536389141e+00,-4.053193750659179750e-01,-7.862591329910204596e-01,5.895437625550914440e-01,6.594185779293970651e-01,-6.595905344899158917e-01,-3.103797457566521700e-01,0.000000000000000000e+00,6.845471059286885041e-01,2.720684704102898852e-02
2.508531693750907010e+00,-6.648098624308538263e-01,1.611181760896166770e-01,3.713461125296499965e+00,-2.063151975497928170e+00,-4.071289667488440789e-01,-7.862591329910204596e-01,5.895437625550914440e-01,7.094185779293971095e-01,-6.595905344899158917e-01,-3.103797457566521700e-01,0.000000000000000000e+00,6.845471059286885041e-01,1.612399056480035356e-02
2.506338302000064466e+00,-5.978126808470594078e-01,5.632704458463788644e-02,3.609944248957099866e+00,-2.059681154076433707e+00,-4.744070970316001112e-01,-7.862591329910204596e-01,5.895437625550914440e-01,7.405814220706029571e-01,-6.193967401315993992e-01,-2.914659818052378615e-01,0.000000000000000000e+00,7.289686274214115524e-01,5.629918657253522689e-03
2.496618622194766157e+00,-5.558067840243116065e-01,4.203880846184225237e-03,3.480960918683511540e+00,-2.039153726773486497e+00,-5.381770541747097347e-01,-7.872643645407003676e-01,5.916799883372316771e-01,7.718928028121413432e-01,-5.767584698154372136e-01,-2.714019347817792638e-01,0.000000000000000000e+00,7.705132427757891422e-01,4.211010192028675461e-04
2.568765053294933765e+00,-7.469065403173369422e-01,1.174471141129967755e+00,2.935031165770627393e+00,-2.117102871883816739e+00,-3.233662050447004277e-01,-7.872643645407003676e-01,5.416799883372316327e-01,3.281071971878587457e-01,-6.971812263468518678e-01,-3.280685826505824187e-01,0.000000000000000000e+00,6.374239897486898565e-01,9.067370332871853289e-02
2.567948257767490805e+00,-7.989002871523404048e-01,1.134877860861898569e+00,3.026059895882017514e+00,-2.115878752366731064e+00,-3.238171897706368929e-01,-7.872643645407003676e-01,5.416799883372316327e-01,3.781071971878587346e-01,-6.971812263468518678e-01,-3.280685826505824187e-01,0.000000000000000000e+00,6.374239897486898565e-01,8.889444375304811352e-02
2.567183775201016260e+00,-8.403104589084980924e-01,1.078268065877036053e+00,3.123453990622831800e+00,-2.114738588053049817e+00,-3.242909461210885524e-01,-7.872643645407003676e-01,5.416799883372316327e-01,4.281071971878587235e-01,-6.971812263468518678e-01,-3.280685826505824187e-01,0.000000000000000000e+00,6.374239897486898565e-01,8.621118921686812819e-02
2.573559234107587024e+00,-8.056230565906250529e-01,1.040535805355831789e+00,2.980701811199923057e+00,-2.131201553757867906e+00,-4.002096563876697544e-01,-7.862591329910204596e-01,5.395437625550913996e-01,4.594185779293969984e-01,-6.595905344899156697e-01,-3.103797457566520590e-01,0.000000000000000000e+00,6.845471059286887261e-01,8.314832084699841364e-02
2.573420920435564696e+00,-8.316441036915378504e-01,9.579064725020116633e-01,3.089148556884795394e+00,-2.130984624604749023e+00,-4.003257570268295984e-01,-7.862591329910204596e-01,5.395437625550913996e-01,5.094185779293970429e-01,-6.595905344899158917e-01,-3.103797457566521700e-01,0.000000000000000000e+00,6.845471059286885041e-01,7.880009921998533395e-02
2.573885241340982510e+00,-8.380634088930902781e-01,8.408049172110801939e-01,3.212735341767635866e+00,-2.131701643793719736e+00,-4.002568608202156097e-01,-7.862591329910204596e-01,5.395437625550913996e-01,5.594185779293970873e-01,-6.595905344899158917e-01,-3.103797457566521700e-01,0.000000000000000000e+00,6.845471059286885041e-01,7.186982686735798875e-02
2.575888379454657873e+00,-8.051927309139679245e-01,6.486322058807058033e-01,3.372931241283071202e+00,-2.134838538577125355e+00,-3.996453940891617207e-01,-7.862591329910204596e-01,5.395437625550913996e-01,6.094185779293971317e-01,-6.595905344899158917e-01,-3.103797457566521700e-01,0.000000000000000000e+00,6.845471059286885041e-01,5.861773601387320481e-02
2.576361234486860496e+00,-7.378823325280645662e-01,3.926400925906352035e-01,3.561833124701406117e+00,-2.135602684403292262e+00,-3.995001511286812024e-01,-7.862591329910204596e-01,5.395437625550913996e-01,6.594185779293970651e-01,-6.595905344899158917e-01,-3.103797457566521700e-01,0.000000000000000000e+00,6.845471059286885041e-01,3.719757936741800719e-02
2.571668756437949899e+00,-7.056609195843696059e-01,2.176732652538090618e-01,3.702091290073062257e+00,-2.128222369044200146e+00,-4.011199884338280119e-01,-7.862591329910204596e-01,5.395437625550913996e-01,7.094185779293971095e-01,-6.595905344899158917e-01,-3.103797457566521700e-01,0.000000000000000000e+00,6.845471059286885041e-01,2.067007273983651958e-02
2.564395323592330467e+00,-7.131761114138431834e-01,1.327162616785936000e-01,3.790338186593293912e+00,-2.116971246344439450e+00,-4.037716450861343342e-01,-7.862591329910204596e-01,5.395437625550913996e-01,7.594185779293970429e-01,-6.595905344899158917e-01,-3.103797457566521700e-01,0.000000000000000000e+00,6.845471059286885041e-01,1.235875915529599002e-02
2.561660311730591388e+00,-6.525225369771363582e-01,4.182975094793302262e-02,3.675331355185472049e+00,-2.112605187458875378e+00,-4.798961687789190522e-01,-7.862591329910204596e-01,5.395437625550913996e-01,7.905814220706030016e-01,-6.193967401315993992e-01,-2.914659818052378615e-01,0.000000000000000000e+00,7.289686274214115524e-01,3.886680075976248726e-03
2.636296625145635897e+00,-8.522855389079990740e-01,1.123472267820839532e+00,2.947424425929769942e+00,-2.193443671295551400e+00,-3.946222992394594620e-01,-7.862591329910204596e-01,4.895437625550913552e-01,4.594185779293969984e-01,-6.595905344899156697e-01,-3.103797457566520590e-01,0.000000000000000000e+00,6.845471059286887261e-01,8.115885914536398460e-02
2.638407049584974740e+00,-7.950673058443827879e-01,1.039894004583965526e+00,2.819564039765245500e+00,-2.196746007783606291e+00,-4.849743729724139696e-01,-7.862591329910204596e-01,4.895437625550913552e-01,4.905814220706030127e-01,-6.193967401315995103e-01,-2.914659818052379170e-01,0.000000000000000000e+00,7.289686274214114414e-01,7.803069259614051068e-02
2.639455718072634127e+00,-8.145146405132674960e-01,9.421206222642849459e-01,2.936833021562224033e+00,-2.198399959149150540e+00,-4.850103235904495436e-01,-7.862591329910204596e-01,4.895437625550913552e-01,5.405814220706030016e-01,-6.193967401315993992e-01,-2.914659818052378615e-01,0.000000000000000000e+00,7.289686274214115524e-01,7.337635985205788469e-02
2.636235314228305260e+00,-8.939786061197310119e-01,8.124208983231074876e-01,3.299616412609247096e+00,-2.193326293938353988e+00,-3.949396261389245821e-01,-7.862591329910204596e-01,4.895437625550913552e-01,6.094185779293971317e-01,-6.595905344899158917e-01,-3.103797457566521700e-01,0.000000000000000000e+00,6.845471059286885041e-01,6.529282805692453173e-02
2.639383139173646420e+00,-8.281962820877113440e-01,5.572070850230655958e-01,3.490752953776351752e+00,-2.198271022349538306e+00,-3.937297640290363665e-01,-7.862591329910204596e-01,4.895437625550913552e-01,6.594185779293970651e-01,-6.595905344899158917e-01,-3.103797457566521700e-01,0.000000000000000000e+00,6.845471059286885041e-01,4.798986801799626917e-02
2.637699097619252697e+00,-7.572636520449422814e-01,3.001053319230493899e-01,3.675925942313197137e+00,-2.195617197798871434e+00,-3.944246823775399147e-01,-7.862591329910204596e-01,4.895437625550913552e-01,7.094185779293971095e-01,-6.595905344899158917e-01,-3.103797457566521700e-01,0.000000000000000000e+00,6.845471059286885041e-01,2.669597407191003080e-02
2.630968277537628630e+00,-7.443392777089362644e-01,1.716123829549626445e-01,3.787402547591946167e+00,-2.185051637654336965e+00,-3.972139539431329691e-01,-7.862591329910204596e-01,4.895437625550913552e-01,7.594185779293970429e-01,-6.595905344899158917e-01,-3.103797457566521700e-01,0.000000000000000000e+00,6.845471059286885041e-01,1.509731069982270767e-02
2.628691096217380618e+00,-6.762631440627019375e-01,6.759188835789446681e-02,3.670820435837850670e+00,-2.181372816366570433e+00,-4.856480826858932121e-01,-7.862591329910204596e-01,4.895437625550913552e-01,7.905814220706030016e-01,-6.193967401315993992e-01,-2.914659818052378615e-01,0.000000000000000000e+00,7.289686274214115524e-01,5.947543174596814017e-03
2.616891868030502444e+00,-6.135230986814941279e-01,-2.622625724892908156e-02,3.553156093258694526e+00,-2.155855892782778671e+00,-5.688570084155716300e-01,-7.872643645407003676e-01,4.916799883372316438e-01,8.218928028121413876e-01,-5.767584698154372136e-01,-2.714019347817793748e-01,0.000000000000000000e+00,7.705132427757891422e-01,2.328621423144900532e-03
2.707753280579346278e+00,-8.569425900631185700e-01,8.839495313329537307e-01,3.033461517495172011e+00,-2.267199383699877391e+00,-4.917078795922803502e-01,-7.862591329910204596e-01,4.395437625550913108e-01,5.905814220706030460e-01,-6.193967401315993992e-01,-2.914659818052378615e-01,0.000000000000000000e+00,7.289686274214115524e-01,6.542599767947536449e-02
2.705266842043523301e+00,-8.979389644876982768e-01,6.830223368996252153e-01,3.438101844518591133e+00,-2.263216324577888461e+00,-3.874870972279061410e-01,-7.862591329910204596e-01,4.395437625550913108e-01,6.594185779293970651e-01,-6.595905344899158917e-01,-3.103797457566521700e-01,0.000000000000000000e+00,6.845471059286885041e-01,5.309201774466429380e-02
2.706427947227714181e+00,-8.077835415024869903e-01,3.844655030346751934e-01,3.647222268600916806e+00,-2.265085611828755230e+00,-3.869543212280952549e-01,-7.862591329910204596e-01,4.395437625550913108e-01,7.094185779293971095e-01,-6.595905344899158917e-01,-3.103797457566521700e-01,0.000000000000000000e+00,6.845471059286885041e-01,3.166193289162836516e-02
2.700751777963332323e+00,-7.704147076698878438e-01,2.042792294432025924e-01,3.786337550067826019e+00,-2.256059725359036428e+00,-3.896663232467239557e-01,-7.862591329910204596e-01,4.395437625550913108e-01,7.594185779293970429e-01,-6.595905344899158917e-01,-3.103797457566521700e-01,0.000000000000000000e+00,6.845471059286885041e-01,1.684335617867281990e-02
2.692364549712493282e+00,-7.802694037180940567e-01,1.298482896999962055e-01,3.864769455788729324e+00,-2.242975115176355061e+00,-3.938357128112326411e-01,-7.862591329910204596e-01,4.395437625550913108e-01,8.094185779293970873e-01,-6.595905344899158917e-01,-3.103797457566521700e-01,0.000000000000000000e+00,6.845471059286885041e-01,1.048700981945294673e-02
2.688971923456466850e+00,-7.253610569109989470e-01,5.340643265473277168e-02,3.727958734114112715e+00,-2.237446587082873695e+00,-4.932984150210104612e-01,-7.862591329910204596e-01,4.395437625550913108e-01,8.405814220706030460e-01,-6.193967401315993992e-01,-2.914659818052378615e-01,0.000000000000000000e+00,7.289686274214115524e-01,4.307055708284258239e-03
2.773216270682046236e+00,-7.933763335108796610e-01,2.355022158371012919e-01,3.784444998188659426e+00,-2.329345697962292405e+00,-3.810232140363666309e-01,-7.862591329910204596e-01,3.895437625550912664e-01,7.594185779293970429e-01,-6.595905344899158917e-01,-3.103797457566521700e-01,0.000000000000000000e+00,6.845471059286885041e-01,1.803432861589121874e-02
2.764998538073490497e+00,-7.944651641374800288e-01,1.423352921503885649e-01,3.872589600849612790e+00,-2.316316006471834221e+00,-3.856889105692897224e-01,-7.862591329910204596e-01,3.895437625550912664e-01,8.094185779293970873e-01,-6.595905344899158917e-01,-3.103797457566521700e-01,0.000000000000000000e+00,6.845471059286885041e-01,1.071745424622618827e-02
2.761523607153523852e+00,-7.328093545679575938e-01,5.396662984804741908e-02,3.730380863491385313e+00,-2.310631351354687002e+00,-5.010368547630290603e-01,-7.862591329910204596e-01,3.895437625550912664e-01,8.405814220706030460e-01,-6.193967401315993992e-01,-2.914659818052378615e-01,0.000000000000000000e+00,7.289686274214115524e-01,4.061997667659889531e-03
2.820221945824496146e+00,-6.853390639591890876e-01,-1.698704602320436421e-02,3.574737316805256526e+00,-2.349347866522629058e+00,-6.333180756932179634e-01,-7.872643645407003676e-01,3.416799883372316771e-01,8.718928028121413210e-01,-5.767584698154372136e-01,-2.714019347817793748e-01,0.000000000000000000e+00,7.705132427757891422e-01,1.212189093370968744e-03
2.242970207526246984e+00,-3.435474881064626979e-02,2.256035921795092880e-01,3.284723871750494961e+00,-1.904110054576282351e+00,-1.988395260228452699e-01,-7.559161060780645869e-01,8.893237254218788745e-01,9.635254915624211214e-02,-7.694208842938135007e-01,-2.499999999999999445e-01,0.000000000000000000e+00,5.877852522924731371e-01,2.966706492116008564e-02
2.243443297846770879e+00,-9.221095070342948119e-02,2.250477004153843275e-01,3.342318341291748318e+00,-1.904926844773887185e+00,-1.989630459752493585e-01,-7.559161060780645869e-01,8.893237254218788745e-01,1.463525491562421288e-01,-7.694208842938135007e-01,-2.499999999999999445e-01,0.000000000000000000e+00,5.877852522924731371e-01,2.965923089382811045e-02
2.243338274190862958e+00,-1.494199281110227817e-01,2.229251454013540523e-01,3.400756198025031818e+00,-1.904832519309723082e+00,-1.992909305011087984e-01,-7.559161060780645869e-01,8.893237254218788745e-01,1.963525491562421454e-01,-7.694208842938135007e-01,-2.499999999999999445e-01,0.000000000000000000e+00,5.877852522924731371e-01,2.936357645202658517e-02
2.190296361940800018e+00,-1.321703974881206500e-01,2.090098074990489330e-01,3.256793164351616365e+00,-1.745226189313009435e+00,-4.055620171091819381e-01,-7.372643645407004342e-01,8.916799883372314994e-01,2.281071971878586846e-01,-6.971812263468518678e-01,-3.280685826505824187e-01,0.000000000000000000e+00,6.374239897486898565e-01,2.829774141704517396e-02
2.189705130802286792e+00,-1.882207967508641167e-01,2.012992864169874940e-01,3.320125971650191410e+00,-1.744394115699709369e+00,-4.057475757940753325e-01,-7.372643645407004342e-01,8.916799883372314994e-01,2.781071971878587012e-01,-6.971812263468518678e-01,-3.280685826505824187e-01,0.000000000000000000e+00,6.374239897486898565e-01,2.718303876624375212e-02
2.188501338466710688e+00,-2.424639228818535330e-01,1.912421831749529511e-01,3.383816718163545012e+00,-1.742698609913419849e+00,-4.060784919671978077e-01,-7.372643645407004342e-01,8.916799883372314994e-01,3.281071971878587457e-01,-6.971812263468518678e-01,-3.280685826505824187e-01,0.000000000000000000e+00,6.374239897486898565e-01,2.567909790477690413e-02
2.186720148510990835e+00,-2.935452603353685963e-01,1.768980759196875918e-01,3.448321314617741606e+00,-1.740203887847331599e+00,-4.065683576216974071e-01,-7.372643645407004342e-01,8.916799883372314994e-01,3.781071971878587346e-01,-6.971812263468518678e-01,-3.280685826505824187e-01,0.000000000000000000e+00,6.374239897486898565e-01,2.355337473418346941e-02
2.184377776168840768e+00,-3.415274305047154013e-01,1.591755042039838530e-01,3.512680591268189989e+00,-1.736950292756878067e+00,-4.072294560097360350e-01,-7.372643645407004342e-01,8.916799883372314994e-01,4.281071971878587235e-01,-6.971812263468518678e-01,-3.280685826505824187e-01,0.000000000000000000e+00,6.374239897486898565e-01,2.095732480731165095e-02
2.185139513388101751e+00,-3.088137946050241722e-01,1.148323542610113629e-01,3.399080399156077625e+00,-1.740067645804120433e+00,-4.286483310370051703e-01,-7.362591329910205262e-01,8.895437625550912664e-01,4.594185779293969984e-01,-6.595905344899156697e-01,-3.103797457566520590e-01,0.000000000000000000e+00,6.845471059286887261e-01,1.497563800331172881e-02
2.322493036363832530e+00,-8.243153145956998162e-02,2.999822174453411483e-01,3.428908688735066157e+00,-2.066508691206601522e+00,7.266258676240811010e-02,-7.745678476154286285e-01,8.416799883372316771e-01,6.386689373476089893e-02,-8.293725566548315609e-01,-1.582112766220056255e-01,0.000000000000000000e+00,5.358267949789965456e-01,3.701211952830900376e-02
2.285981338918386729e+00,-6.464506655663986023e-02,2.948133305859995668e-01,3.250973403925455862e+00,-1.948668364145553555e+00,-1.837139125235053572e-01,-7.559161060780645869e-01,8.393237254218790522e-01,9.635254915624211214e-02,-7.694208842938135007e-01,-2.499999999999999445e-01,0.000000000000000000e+00,5.877852522924731371e-01,3.775228748980109794e-02
2.231831886660090358e+00,-6.770280109703161187e-02,3.331579201148268110e-01,3.069292615043469841e+00,-1.788606737944597569e+00,-3.975490694709036821e-01,-7.372643645407004342e-01,8.416799883372316771e-01,1.281071971878586790e-01,-6.971812263468518678e-01,-3.280685826505824187e-01,0.000000000000000000e+00,6.374239897486898565e-01,4.369985193580930294e-02
2.232290716212512294e+00,-1.378251454101242779e-01,3.490289650723398251e-01,3.123615254165665878e+00,-1.789278938183442413e+00,-3.974470641907468793e-01,-7.372643645407004342e-01,8.416799883372316771e-01,1.781071971878586957e-01,-6.971812263468518678e-01,-3.280685826505824187e-01,0.000000000000000000e+00,6.374239897486898565e-01,4.580123497791428744e-02
2.232510634125773219e+00,-1.343948294043253722e-01,3.660007192456815606e-01,2.974716673244895304e+00,-1.792201997164169169e+00,-4.254342191813597074e-01,-7.362591329910205262e-01,8.395437625550914440e-01,2.094185779293969984e-01,-6.595905344899156697e-01,-3.103797457566520590e-01,0.000000000000000000e+00,6.845471059286887261e-01,4.706778772824874585e-02
2.232637382781502033e+00,-1.965017471999448984e-01,3.656758850090137125e-01,3.037107953562812934e+00,-1.792389570051391878e+00,-4.254348946845922796e-01,-7.362591329910205262e-01,8.395437625550914440e-01,2.594185779293969873e-01,-6.595905344899156697e-01,-3.103797457566520590e-01,0.000000000000000000e+00,6.845471059286887261e-01,4.705613479070351601e-02
2.232368845049307104e+00,-2.485980803066486777e-01,3.447421646017806984e-01,3.110157264076706785e+00,-1.791992642164990546e+00,-4.254474392485750878e-01,-7.362591329910205262e-01,8.395437625550914440e-01,3.094185779293970318e-01,-6.595905344899156697e-01,-3.103797457566520590e-01,0.000000000000000000e+00,6.845471059286887261e-01,4.441698461988066032e-02
2.231626630147668156e+00,-2.911295534683872033e-01,3.051564422732381821e-01,3.192271254518538104e+00,-1.790898587121306562e+00,-4.254949315565574874e-01,-7.362591329910205262e-01,8.395437625550914440e-01,3.594185779293970207e-01,-6.595905344899156697e-01,-3.103797457566520590e-01,0.000000000000000000e+00,6.845471059286887261e-01,3.934771371639891185e-02
2.230258103814848347e+00,-3.266230462265202195e-01,2.531565590744588312e-01,3.279643775061774846e+00,-1.788890696270484915e+00,-4.256076048335101225e-01,-7.362591329910205262e-01,8.395437625550914440e-01,4.094185779293970096e-01,-6.595905344899156697e-01,-3.103797457566520590e-01,0.000000000000000000e+00,6.845471059286887261e-01,3.258774700417638170e-02
2.223664467426111457e+00,-4.310544902559816927e-01,2.033500038626873396e-01,3.559695302989469123e+00,-1.776875857046926965e+00,-3.996508628373882099e-01,-7.372643645407004342e-01,8.416799883372316771e-01,4.781071971878587124e-01,-6.971812263468518678e-01,-3.280685826505824187e-01,0.000000000000000000e+00,6.374239897486898565e-01,2.591611582555660917e-02
2.220082499567464396e+00,-4.685950082770751202e-01,1.679697110688976036e-01,3.630449493130068817e+00,-1.771866634092380544e+00,-4.007504759145706363e-01,-7.372643645407004342e-01,8.416799883372316771e-01,5.281071971878587012e-01,-6.971812263468518678e-01,-3.280685826505824187e-01,0.000000000000000000e+00,6.374239897486898565e-01,2.107750538710985444e-02
2.221431008014674635e+00,-4.330354088642008881e-01,1.187835376041670166e-01,3.517950020363123986e+00,-1.776185404969053083e+00,-4.266764363571588503e-01,-7.362591329910205262e-01,8.395437625550914440e-01,5.594185779293970873e-01,-6.595905344899158917e-01,-3.103797457566521700e-01,0.000000000000000000e+00,6.845471059286885041e-01,1.478157805205625695e-02
