OSUrobotics/apple-harvest/harvest_control/resource/voxel_ik_data.csv
j1,j2,j3,j4,j5,j6,end_effector_x,end_effector_y,end_effector_z,quat_x,quat_y,quat_z,quat_w,manipulability
1.283241947230022717e-01,-2.995603701937101349e+00,-1.710018900549154786e-01,-1.627815837426177970e+00,-1.770531734299102822e-01,1.482363120055834704e+00,-9.657979856674331343e-01,3.560307379214092127e-01,2.652703644666140059e-01,-6.330222215594890622e-01,-1.116188970489496585e-01,0.000000000000000000e+00,7.660444431189781245e-01,4.554010356369113735e-03
1.305944600629287411e-01,-2.890339841320590963e+00,-1.353587618931327008e-01,-1.772425367467636237e+00,-1.775150065633177843e-01,1.485773614789041019e+00,-9.657979856674331343e-01,3.560307379214092127e-01,3.652703644666139837e-01,-6.330222215594890622e-01,-1.116188970489496585e-01,0.000000000000000000e+00,7.660444431189781245e-01,3.575579677383161018e-03
-2.329628806569724597e-01,-3.063286966730462080e+00,-1.124370250544999283e-01,-2.624839698837304613e+00,-4.409649511660889143e-01,2.521522716442798462e+00,-8.657979856674331565e-01,6.560307379214092016e-01,1.652703644666139449e-01,-6.330222215594890622e-01,-1.116188970489496723e-01,0.000000000000000000e+00,7.660444431189781245e-01,6.876262595797176524e-03
-2.264235130632608894e-01,-2.940133730630626996e+00,-1.288886381640387546e-01,-2.710647825691516744e+00,-4.353736673107171939e-01,2.500421885554296786e+00,-8.657979856674331565e-01,6.560307379214092016e-01,2.652703644666140059e-01,-6.330222215594890622e-01,-1.116188970489496723e-01,0.000000000000000000e+00,7.660444431189781245e-01,7.727225917746235670e-03
-1.321204572815156963e-01,-3.100993503868377577e+00,-2.854807634273780897e-02,-2.565491665659288767e+00,-3.435242954269965288e-01,2.405749303568175623e+00,-8.657979856674331565e-01,5.560307379214091128e-01,1.652703644666139449e-01,-6.330222215594890622e-01,-1.116188970489496168e-01,0.000000000000000000e+00,7.660444431189781245e-01,1.396827743370703760e-03
-1.242199242838817747e-01,-2.966393905390709573e+00,-5.781274467887818902e-02,-2.641394739475161568e+00,-3.367786079033761593e-01,2.375610221341155182e+00,-8.657979856674331565e-01,5.560307379214091128e-01,2.652703644666140059e-01,-6.330222215594890622e-01,-1.116188970489496168e-01,0.000000000000000000e+00,7.660444431189781245e-01,2.753779968249468919e-03
-1.051448619625788422e-01,-2.833875019900110814e+00,-1.014711012042719129e-01,-2.655077746586699039e+00,-3.207294485630324266e-01,2.299062550016223838e+00,-8.657979856674331565e-01,5.560307379214091128e-01,3.652703644666139837e-01,-6.330222215594890622e-01,-1.116188970489496168e-01,0.000000000000000000e+00,7.660444431189781245e-01,4.536094298534612893e-03
9.606407051838473932e-02,-2.644772547334536927e+00,-2.235155941493219001e-01,-1.490699459848032538e+00,1.908795412115096013e-01,1.034308782665953164e+00,-8.657979856674331565e-01,3.560307379214092127e-01,4.347296355333861162e-01,-7.544065067354890353e-01,-1.330222215594890345e-01,0.000000000000000000e+00,6.427876096865392519e-01,5.919422803133164712e-03
1.052598984955303435e-01,-2.566432860034703278e+00,-1.475356397150885956e-01,-1.637713644761241261e+00,1.871710562567201475e-01,1.029245084226164009e+00,-8.657979856674331565e-01,3.560307379214092127e-01,5.347296355333860385e-01,-7.544065067354890353e-01,-1.330222215594890345e-01,0.000000000000000000e+00,6.427876096865393629e-01,3.677118205075614529e-03
1.145407497123130391e-01,-2.513390499562178970e+00,-4.900607481424641004e-02,-1.761943641513401548e+00,1.805909111698877079e-01,1.004544763168194743e+00,-8.657979856674331565e-01,3.560307379214092127e-01,6.347296355333861273e-01,-7.544065067354890353e-01,-1.330222215594890345e-01,0.000000000000000000e+00,6.427876096865393629e-01,1.120615976019191185e-03
-4.017195490921831591e-01,-2.995846480155352598e+00,-2.633524025198604179e-01,-3.306203237550052965e+00,-6.096954643935710294e-01,3.201524445509093653e+00,-7.657979856674331787e-01,7.560307379214090684e-01,3.472963553338608705e-02,-7.544065067354890353e-01,-1.330222215594889790e-01,0.000000000000000000e+00,6.427876096865392519e-01,1.941858627355618622e-02
-4.048867544654182193e-01,-3.047446386158734644e+00,-9.460188550007654629e-02,-2.825184858109925923e+00,-5.992693602511001139e-01,-3.578797366241092348e+00,-7.657979856674331787e-01,7.560307379214090684e-01,1.652703644666139449e-01,-6.330222215594890622e-01,-1.116188970489496168e-01,0.000000000000000000e+00,7.660444431189781245e-01,7.511109114506378526e-03
-2.916761299173343813e-01,-3.001686423396590975e+00,-2.528528134795720028e-01,-3.382569210290279571e+00,-4.975498371836084011e-01,3.279898290586004794e+00,-7.657979856674331787e-01,6.560307379214092016e-01,3.472963553338608705e-02,-7.544065067354890353e-01,-1.330222215594890345e-01,0.000000000000000000e+00,6.427876096865392519e-01,1.542985736389540855e-02
-2.882531081951528185e-01,-2.881425176502530494e+00,-2.485730508094156910e-01,-3.512570002911765243e+00,-4.957702191251623924e-01,-2.995558168345019645e+00,-7.657979856674331787e-01,6.560307379214092016e-01,1.347296355333860995e-01,-7.544065067354890353e-01,-1.330222215594890345e-01,0.000000000000000000e+00,6.427876096865392519e-01,1.496470635086974074e-02
-2.866579875190562454e-01,-2.780544570918420888e+00,-2.144295925461994767e-01,-3.636345294734383948e+00,-4.972101672440555897e-01,-3.005104866625929017e+00,-7.657979856674331787e-01,6.560307379214092016e-01,2.347296355333861051e-01,-7.544065067354890353e-01,-1.330222215594890345e-01,0.000000000000000000e+00,6.427876096865392519e-01,1.270350266518129566e-02
-2.879187734819899092e-01,-2.804502228128402663e+00,-7.241924231594197570e-02,-3.017556211214924566e+00,-4.829846282767939480e-01,-3.663457917505126726e+00,-7.657979856674331787e-01,6.560307379214092016e-01,3.652703644666139837e-01,-6.330222215594890622e-01,-1.116188970489496723e-01,0.000000000000000000e+00,7.660444431189781245e-01,4.575748980135014091e-03
-2.629343778783444496e-01,-2.677726943601804521e+00,-1.189953488214438304e-01,-3.027925565199561575e+00,-4.617168312790779217e-01,2.547864763402520438e+00,-7.657979856674331787e-01,6.560307379214092016e-01,4.652703644666139615e-01,-6.330222215594890622e-01,-1.116188970489496723e-01,0.000000000000000000e+00,7.660444431189781245e-01,6.989335610151939555e-03
-1.789858032742449589e-01,-3.124380576708246871e+00,-2.278357800937527017e-02,-3.569884515752954179e+00,-3.859063424027944778e-01,3.367537651889817241e+00,-7.657979856674331787e-01,5.560307379214091128e-01,3.472963553338608705e-02,-7.544065067354890353e-01,-1.330222215594889790e-01,0.000000000000000000e+00,6.427876096865392519e-01,1.107004896631340546e-03
-1.736793442490422446e-01,-3.055554135105318814e+00,1.022064598591898160e-01,-3.783189159335318852e+00,-3.840271042025799053e-01,-2.893927198494724795e+00,-7.657979856674331787e-01,5.560307379214091128e-01,1.347296355333860995e-01,-7.544065067354890353e-01,-1.330222215594889790e-01,0.000000000000000000e+00,6.427876096865392519e-01,4.869955145682735437e-03
-1.707570150170413525e-01,-2.938466733800132680e+00,1.152910535079087334e-01,-3.906574418342698696e+00,-3.854339020392962833e-01,-2.899209838703527442e+00,-7.657979856674331787e-01,5.560307379214091128e-01,2.347296355333861051e-01,-7.544065067354890353e-01,-1.330222215594889790e-01,0.000000000000000000e+00,6.427876096865392519e-01,5.370605709281450063e-03
-1.679532652921257307e-01,-2.792605848253946199e+00,5.235554747283512750e-02,-3.967557347004021295e+00,-3.874018925510863687e-01,-2.918919260210932176e+00,-7.657979856674331787e-01,5.560307379214091128e-01,3.347296355333861384e-01,-7.544065067354890353e-01,-1.330222215594889790e-01,0.000000000000000000e+00,6.427876096865392519e-01,2.368276012250245845e-03
-1.676324480602348344e-01,-2.717704969780144086e+00,4.496561540061526363e-02,-3.131874247246160703e+00,-3.719354523704853643e-01,-3.765069574582772916e+00,-7.657979856674331787e-01,5.560307379214091128e-01,4.652703644666139615e-01,-6.330222215594890622e-01,-1.116188970489496168e-01,0.000000000000000000e+00,7.660444431189781245e-01,2.131345991384050141e-03
-1.208600731678746432e-01,-2.574749143700371334e+00,-5.925015769493262308e-02,-2.997085528141669286e+00,-3.316687225226834790e-01,2.340548087637701613e+00,-7.657979856674331787e-01,5.560307379214091128e-01,5.652703644666140503e-01,-6.330222215594890622e-01,-1.116188970489496168e-01,0.000000000000000000e+00,7.660444431189781245e-01,2.447141397696257770e-03
1.888178694704795157e-02,-2.541496535252427247e+00,-1.293787253847913599e+00,-1.453284317781329049e+00,-2.276482391115451642e-01,1.985674577059983514e+00,-7.657979856674331787e-01,4.560307379214090795e-01,1.652703644666139449e-01,-6.330222215594890622e-01,-1.116188970489496446e-01,0.000000000000000000e+00,7.660444431189781245e-01,2.661841980770655175e-02
2.893475371637491481e-02,-2.408132806137576409e+00,-1.265939364182796512e+00,-1.548952196190709341e+00,-2.186907254344213347e-01,1.919089850462132096e+00,-7.657979856674331787e-01,4.560307379214090795e-01,2.652703644666140059e-01,-6.330222215594890622e-01,-1.116188970489496585e-01,0.000000000000000000e+00,7.660444431189781245e-01,2.553710502734050578e-02
-6.187912632390078771e-02,-2.597207482227132047e+00,-5.716884284220321577e-01,-1.215098373693609624e+00,-2.008950661610167943e-01,1.406238812889173850e+00,-8.342020143325669101e-01,4.560307379214090795e-01,4.652703644666139615e-01,-6.330222215594890622e-01,1.116188970489496585e-01,0.000000000000000000e+00,7.660444431189781245e-01,1.529028858084336036e-02
5.753648470449664737e-02,-3.218089460850367178e+00,9.890141362162103988e-02,-7.943702491082899053e-01,-2.892900884669524220e-01,9.267891555683960281e-01,-8.342020143325669101e-01,3.560307379214092127e-01,2.652703644666140059e-01,-6.330222215594890622e-01,1.116188970489496585e-01,0.000000000000000000e+00,7.660444431189781245e-01,4.155030691045343005e-03
9.352242710326781616e-02,-3.230599992700342149e+00,6.037259832512810176e-01,-1.184756985512569027e+00,-3.093009172405959961e-01,8.164968114720783099e-01,-8.342020143325669101e-01,3.560307379214092127e-01,4.652703644666139615e-01,-6.330222215594890622e-01,1.116188970489496585e-01,0.000000000000000000e+00,7.660444431189781245e-01,2.379846989320334727e-02
6.713083158187761745e-02,-2.763717922798264670e+00,5.245696876628997973e-01,-1.796950455288963022e+00,2.028899874668813053e-01,7.105773545135187774e-01,-7.657979856674331787e-01,3.560307379214092127e-01,6.347296355333861273e-01,-7.544065067354890353e-01,-1.330222215594890345e-01,0.000000000000000000e+00,6.427876096865393629e-01,1.203704376135661218e-02
9.443645735160009769e-02,-2.440932196304814727e+00,9.712506902371216555e-02,-1.822618037957940862e+00,1.889537065558938578e-01,8.440976435055635996e-01,-7.657979856674331787e-01,3.560307379214092127e-01,7.347296355333861051e-01,-7.544065067354890353e-01,-1.330222215594890345e-01,0.000000000000000000e+00,6.427876096865393629e-01,2.075833035695017707e-03
1.987569015960241881e-01,-2.899195274552080814e+00,1.308337912651658663e-01,-9.083835222633078743e-01,-3.996409470158936994e-01,6.727888088246056775e-01,-8.342020143325669101e-01,2.560307379214090684e-01,5.652703644666140503e-01,-6.330222215594890622e-01,1.116188970489496585e-01,0.000000000000000000e+00,7.660444431189781245e-01,7.007120735196800503e-03
3.196034047871589290e-01,-2.426188631489553327e+00,-1.720177986798493430e-01,-1.179610101793633126e+00,-2.199284226646210649e-01,4.494458263485651139e-01,-7.657979856674331787e-01,2.560307379214090684e-01,7.652703644666140059e-01,-6.330222215594890622e-01,-1.116188970489496585e-01,0.000000000000000000e+00,7.660444431189781245e-01,4.452910133790716381e-03
-3.921120325810730223e-01,-3.175278708456696464e+00,-1.533078427237731800e-01,-2.868960658111325834e-01,2.794243315634455938e-01,6.290483462253790847e-01,-7.342020143325668213e-01,7.560307379214090684e-01,1.347296355333860995e-01,-7.544065067354890353e-01,1.330222215594889790e-01,0.000000000000000000e+00,6.427876096865392519e-01,6.003236915928559896e-03
-3.932454666147797151e-01,-3.062696642142057168e+00,-1.594132947147184620e-01,-3.538294682667232349e-01,2.765003280245620920e-01,5.897700301718458160e-01,-7.342020143325668213e-01,7.560307379214090684e-01,2.347296355333861051e-01,-7.544065067354890353e-01,1.330222215594889790e-01,0.000000000000000000e+00,6.427876096865392519e-01,6.183414987486104963e-03
-1.958204177702675963e-01,-2.546772875912580059e+00,-1.000664420310286129e+00,-8.207504527666177330e-01,1.716551416273089659e-01,1.399538352284461107e+00,-7.342020143325668213e-01,5.560307379214091128e-01,2.347296355333861051e-01,-7.544065067354890353e-01,1.330222215594889790e-01,0.000000000000000000e+00,6.427876096865392519e-01,1.931598533309108676e-02
-1.359621115440517169e-01,-2.583958240302723031e+00,-1.084271593690151914e+00,-8.411939142658219071e-01,-1.776436657769438765e-01,1.538755877296183572e+00,-7.342020143325668213e-01,5.560307379214091128e-01,2.652703644666140059e-01,-6.330222215594890622e-01,1.116188970489496168e-01,0.000000000000000000e+00,7.660444431189781245e-01,2.075271729153109826e-02
-1.457989877452222915e-01,-2.460768904629995646e+00,-1.026442914997020672e+00,-1.109117004046243249e+00,-1.769320998851290072e-01,1.626640519892573966e+00,-7.342020143325668213e-01,5.560307379214091128e-01,3.652703644666139837e-01,-6.330222215594890622e-01,1.116188970489496168e-01,0.000000000000000000e+00,7.660444431189781245e-01,2.002773945714514392e-02
-1.505453294817335474e-01,-2.383597998360272641e+00,-8.990806276113202378e-01,-1.360730560176995896e+00,-1.770703562120896357e-01,1.674252240831801242e+00,-7.342020143325668213e-01,5.560307379214091128e-01,4.652703644666139615e-01,-6.330222215594890622e-01,1.116188970489496168e-01,0.000000000000000000e+00,7.660444431189781245e-01,1.829639913646055258e-02
-1.504797061360184651e-01,-2.355538987571630827e+00,-7.024747787633963680e-01,-1.597077815413632917e+00,-1.782465301591595608e-01,1.686080170896139929e+00,-7.342020143325668213e-01,5.560307379214091128e-01,5.652703644666140503e-01,-6.330222215594890622e-01,1.116188970489496168e-01,0.000000000000000000e+00,7.660444431189781245e-01,1.509249501733363023e-02
-1.433416264592385914e-01,-2.380159354428151186e+00,-4.343037762711564054e-01,-1.804274648431225536e+00,-1.814193168195312178e-01,1.649200357708948905e+00,-7.342020143325668213e-01,5.560307379214091128e-01,6.652703644666140281e-01,-6.330222215594890622e-01,1.116188970489496168e-01,0.000000000000000000e+00,7.660444431189781245e-01,9.845443858651421395e-03
3.149513096415360036e-02,-2.351692877081347444e+00,-1.715252412312710417e+00,-1.198076609721486330e+00,-2.219456061239281908e-01,1.961449008937007576e+00,-6.657979856674330899e-01,4.560307379214090795e-01,1.652703644666139449e-01,-6.330222215594890622e-01,-1.116188970489496446e-01,0.000000000000000000e+00,7.660444431189781245e-01,2.250381433740771334e-02
4.591037180108403781e-02,-2.183778027717397485e+00,-1.704062117244752983e+00,-1.294728452328894663e+00,-2.116645398787697918e-01,1.877747618330959600e+00,-6.657979856674330899e-01,4.560307379214090795e-01,2.652703644666140059e-01,-6.330222215594890622e-01,-1.116188970489496585e-01,0.000000000000000000e+00,7.660444431189781245e-01,2.155921480516687777e-02
-7.621139804448255617e-02,-2.351670999301541887e+00,-1.005424420445605538e+00,-1.046232071038667222e+00,-1.965002808821255942e-01,1.427210388228451032e+00,-7.342020143325668213e-01,4.560307379214090795e-01,4.652703644666139615e-01,-6.330222215594890622e-01,1.116188970489496585e-01,0.000000000000000000e+00,7.660444431189781245e-01,2.135012862326966104e-02
-6.939710714825299276e-02,-2.314229011164540495e+00,-8.338607195583925824e-01,-1.212380661068284571e+00,-2.006080706845609352e-01,1.383808932803669789e+00,-7.342020143325668213e-01,4.560307379214090795e-01,5.652703644666140503e-01,-6.330222215594890622e-01,1.116188970489496585e-01,0.000000000000000000e+00,7.660444431189781245e-01,1.901588479484252539e-02
-6.038652650070586853e-02,-2.324755002809758775e+00,-5.888010410067773259e-01,-1.399400861642546623e+00,-2.061592400018466553e-01,1.335472975476846846e+00,-7.342020143325668213e-01,4.560307379214090795e-01,6.652703644666140281e-01,-6.330222215594890622e-01,1.116188970489496585e-01,0.000000000000000000e+00,7.660444431189781245e-01,1.448714406117859732e-02
-4.445205807766205997e-02,-2.388771048085937210e+00,-2.643121175433862935e-01,-1.590776361945711814e+00,-2.163409404768919242e-01,1.264453157880920608e+00,-7.342020143325668213e-01,4.560307379214090795e-01,7.652703644666140059e-01,-6.330222215594890622e-01,1.116188970489496585e-01,0.000000000000000000e+00,7.660444431189781245e-01,6.965132798800031944e-03
1.480604816417517566e-01,-3.251006007357446048e+00,5.555733143389112172e-01,-5.615224249830491621e-02,-3.495166581001313832e-01,-1.877393406681913401e-01,-7.342020143325668213e-01,3.560307379214092127e-01,3.347296355333861384e-01,-7.544065067354890353e-01,1.330222215594890345e-01,0.000000000000000000e+00,6.427876096865392519e-01,2.220879139138976638e-02
2.112730396133186417e-01,-3.144436658493132253e+00,8.456004364450857569e-01,3.818719337068582353e-01,-1.748603488803212869e-01,-1.395553697749535305e+00,-6.657979856674330899e-01,3.560307379214092127e-01,4.347296355333861162e-01,-7.544065067354890353e-01,-1.330222215594890345e-01,0.000000000000000000e+00,6.427876096865392519e-01,1.283571386391697648e-02
2.005925102086658085e-01,-2.782690154119777493e+00,3.436862654682453222e-01,5.857439862220213955e-01,-1.753326124608325653e-01,-1.459877021576651446e+00,-6.657979856674330899e-01,3.560307379214092127e-01,5.347296355333860385e-01,-7.544065067354890353e-01,-1.330222215594890345e-01,0.000000000000000000e+00,6.427876096865393629e-01,5.885681118364827734e-03
3.814874791184416636e-01,-2.913246948201217990e+00,7.680292055452317967e-01,-4.534292000588219240e-01,-2.580367420467383210e-01,-6.996505533650213549e-01,-6.657979856674330899e-01,2.560307379214090684e-01,6.347296355333861273e-01,-7.544065067354890353e-01,-1.330222215594890345e-01,0.000000000000000000e+00,6.427876096865393629e-01,1.699127607101338228e-02
2.420055920626328350e-01,-2.822288044658784134e+00,2.671408432630304475e-01,-9.902982358246522621e-01,-4.482195847710787051e-01,5.402780766847744554e-01,-7.342020143325668213e-01,2.560307379214090684e-01,6.652703644666140281e-01,-6.330222215594890622e-01,1.116188970489496585e-01,0.000000000000000000e+00,7.660444431189781245e-01,1.466198714332640589e-02
2.439176564334054331e-01,-2.651068608769484580e+00,1.343542843252119590e-01,-1.067925413506106924e+00,-4.442203195651650560e-01,5.761735558073414198e-01,-7.342020143325668213e-01,2.560307379214090684e-01,7.652703644666140059e-01,-6.330222215594890622e-01,1.116188970489496585e-01,0.000000000000000000e+00,7.660444431189781245e-01,7.055517935057613668e-03
3.559144162225013064e-01,-2.251389809297715150e+00,-1.746682258506746244e-01,-1.308301852765000106e+00,-2.480545823393043303e-01,4.033325293626163210e-01,-6.657979856674330899e-01,2.560307379214090684e-01,8.652703644666139837e-01,-6.330222215594890622e-01,-1.116188970489496585e-01,0.000000000000000000e+00,7.660444431189781245e-01,4.401129879113368192e-03
4.678829716590797716e-01,-2.296180926434794323e+00,-1.404474625141270416e-01,-1.205530948470560304e+00,-3.415383313599406612e-01,3.011081099466155764e-01,-6.657979856674330899e-01,1.560307379214090906e-01,8.652703644666139837e-01,-6.330222215594890622e-01,-1.116188970489496585e-01,0.000000000000000000e+00,7.660444431189781245e-01,4.909463640361972844e-03
-4.433823166116697689e-01,-3.118849495734985044e+00,-9.691158078430078815e-02,-2.061192216336907301e-01,2.894097087937024804e-01,4.337185538411189589e-01,-6.342020143325668435e-01,7.560307379214090684e-01,2.347296355333861051e-01,-7.544065067354890353e-01,1.330222215594889790e-01,0.000000000000000000e+00,6.427876096865392519e-01,3.880401440055530546e-03
-3.045271859036248752e-01,-3.240496808700164877e+00,6.560069680088608246e-01,-6.788139711897157591e-01,1.377445616055234245e-01,2.857342652702997143e-01,-6.342020143325668435e-01,6.560307379214092016e-01,4.347296355333861162e-01,-7.544065067354890353e-01,1.330222215594890345e-01,0.000000000000000000e+00,6.427876096865392519e-01,1.071315172648159772e-02
-3.908481620686985458e-01,-3.187585673226713823e+00,1.176231775237744248e+00,-1.439962823365439792e+00,5.860355444244035317e-01,8.501691587285525875e-02,-5.657979856674331121e-01,6.560307379214092016e-01,5.347296355333860385e-01,-7.544065067354890353e-01,-1.330222215594890622e-01,0.000000000000000000e+00,6.427876096865393629e-01,5.292432785127915845e-02
-1.814140713825785067e-01,-3.228009168734887524e+00,1.160970775627548246e+00,-2.530545257392849745e+00,1.725716565910266065e-01,1.629876917449542439e+00,-6.342020143325668435e-01,5.560307379214091128e-01,4.347296355333861162e-01,-7.544065067354890353e-01,1.330222215594889790e-01,0.000000000000000000e+00,6.427876096865392519e-01,1.861380747531423893e-02
-1.779833115285703593e-01,-3.018398465719672963e+00,9.741850781267090698e-01,-2.559782027322289100e+00,1.702612322736472283e-01,1.636837432098700695e+00,-6.342020143325668435e-01,5.560307379214091128e-01,5.347296355333860385e-01,-7.544065067354889242e-01,1.330222215594889235e-01,0.000000000000000000e+00,6.427876096865394739e-01,1.634446188176542913e-02
-1.630023053863698390e-01,-3.177732770771654724e+00,1.142513932720625514e+00,-2.654048247286330486e+00,-1.779402977341959236e-01,1.720259602476503114e+00,-6.342020143325668435e-01,5.560307379214091128e-01,5.652703644666140503e-01,-6.330222215594890622e-01,1.116188970489496168e-01,0.000000000000000000e+00,7.660444431189781245e-01,1.878506096046940813e-02
-1.631643049617185204e-01,-2.955087379026233307e+00,9.198947738884650782e-01,-2.670419507479719456e+00,-1.799901249809087167e-01,1.736680317675917351e+00,-6.342020143325668435e-01,5.560307379214091128e-01,6.652703644666140281e-01,-6.330222215594890622e-01,1.116188970489496168e-01,0.000000000000000000e+00,7.660444431189781245e-01,1.644728181393333849e-02
-1.606940886736780150e-01,-2.711274099815983440e+00,6.174439924410449754e-01,-2.614492265613966193e+00,-1.834374780981700981e-01,1.739478982993438727e+00,-6.342020143325668435e-01,5.560307379214091128e-01,7.652703644666140059e-01,-6.330222215594890622e-01,1.116188970489496168e-01,0.000000000000000000e+00,7.660444431189781245e-01,1.200028146314991231e-02
-8.909152335938884393e-02,-3.247641610590491723e+00,1.282521102894920384e+00,-2.502136549993773329e+00,-1.924386076200491624e-01,1.491368894433076076e+00,-6.342020143325668435e-01,4.560307379214090795e-01,5.652703644666140503e-01,-6.330222215594890622e-01,1.116188970489496585e-01,0.000000000000000000e+00,7.660444431189781245e-01,2.047395249342866611e-02
-8.430111445930711656e-02,-3.033535106129808590e+00,1.074777306582129999e+00,-2.481687865441223995e+00,-1.957069579170207518e-01,1.464154806567070422e+00,-6.342020143325668435e-01,4.560307379214090795e-01,6.652703644666140281e-01,-6.330222215594890622e-01,1.116188970489496585e-01,0.000000000000000000e+00,7.660444431189781245e-01,1.900863143960394852e-02
-7.942908712682336669e-02,-2.801076116120982284e+00,7.971839568403831233e-01,-2.416542717068375978e+00,-1.994793212745033517e-01,1.443722294648845939e+00,-6.342020143325668435e-01,4.560307379214090795e-01,7.652703644666140059e-01,-6.330222215594890622e-01,1.116188970489496585e-01,0.000000000000000000e+00,7.660444431189781245e-01,1.560831509882408021e-02
6.457808549487764616e-02,-3.103144470053722515e+00,6.061254447305594040e-01,1.145365337114125776e-01,-2.911910638822756137e-01,-5.653697432377130516e-01,-6.342020143325668435e-01,3.560307379214092127e-01,4.347296355333861162e-01,-7.544065067354890353e-01,1.330222215594890345e-01,0.000000000000000000e+00,6.427876096865392519e-01,1.823452582627709678e-02
2.197146514648028737e-01,-3.066273157767306579e+00,1.083990037536543660e+00,1.019351260320117414e-01,-1.774537629507325909e-01,-1.432105190665163619e+00,-5.657979856674331121e-01,3.560307379214092127e-01,5.347296355333860385e-01,-7.544065067354890353e-01,-1.330222215594890345e-01,0.000000000000000000e+00,6.427876096865393629e-01,1.261512435961617204e-02
2.135872738096223633e-01,-2.775931220547048106e+00,7.053322926819727279e-01,2.265223804040972511e-01,-1.767791467192092181e-01,-1.468703067623512215e+00,-5.657979856674331121e-01,3.560307379214092127e-01,6.347296355333861273e-01,-7.544065067354890353e-01,-1.330222215594890345e-01,0.000000000000000000e+00,6.427876096865393629e-01,9.278027666017962458e-03
2.338863599491588507e-01,-2.448160377385572239e+00,1.988591385394896383e-01,2.784970693976007161e-01,-1.791009714584007873e-01,-1.340469318181052305e+00,-5.657979856674331121e-01,3.560307379214092127e-01,7.347296355333861051e-01,-7.544065067354890353e-01,-1.330222215594890345e-01,0.000000000000000000e+00,6.427876096865393629e-01,2.818831892796096975e-03
4.358806085963651267e-01,-3.042083626682468456e+00,1.224867581294573293e+00,-8.112745867105758402e-01,-3.036081119069021783e-01,-6.661611502612195812e-01,-5.657979856674331121e-01,2.560307379214090684e-01,6.347296355333861273e-01,-7.544065067354890353e-01,-1.330222215594890345e-01,0.000000000000000000e+00,6.427876096865393629e-01,2.199616387865292733e-02
2.710909627971153646e-01,-3.021685366786044380e+00,8.043509508297161936e-01,-1.286205067210109299e+00,-4.797683538226760191e-01,4.987252160320745364e-01,-6.342020143325668435e-01,2.560307379214090684e-01,6.652703644666140281e-01,-6.330222215594890622e-01,1.116188970489496585e-01,0.000000000000000000e+00,7.660444431189781245e-01,3.841760917225916366e-02
2.728726796615487671e-01,-2.823724718367294440e+00,6.272562162510373351e-01,-1.333031518739381749e+00,-4.774289491562819232e-01,5.218290422042229926e-01,-6.342020143325668435e-01,2.560307379214090684e-01,7.652703644666140059e-01,-6.330222215594890622e-01,1.116188970489496585e-01,0.000000000000000000e+00,7.660444431189781245e-01,3.015310211677934074e-02
2.775294998043392192e-01,-2.565754064587311145e+00,2.936644095884595740e-01,-1.276673529329666934e+00,-4.783171995181817460e-01,5.380530274827103332e-01,-6.342020143325668435e-01,2.560307379214090684e-01,8.652703644666139837e-01,-6.330222215594890622e-01,1.116188970489496585e-01,0.000000000000000000e+00,7.660444431189781245e-01,1.440550137460514836e-02
4.112907374848143727e-01,-2.085722919188974789e+00,-1.543732217976424015e-01,-1.451670849596118584e+00,-2.921506773007306323e-01,3.555100630012672513e-01,-5.657979856674331121e-01,2.560307379214090684e-01,9.652703644666139615e-01,-6.330222215594890622e-01,-1.116188970489496585e-01,0.000000000000000000e+00,7.660444431189781245e-01,3.724319841291304656e-03
4.140287140864248316e-01,-2.476681297812580063e+00,7.009302517608687055e-02,-1.067675250940596898e+00,-6.049876389588252357e-01,4.497678939466879244e-01,-6.342020143325668435e-01,1.560307379214090906e-01,8.652703644666139837e-01,-6.330222215594890622e-01,1.116188970489496585e-01,0.000000000000000000e+00,7.660444431189781245e-01,4.366038930818544675e-03
5.498771872000957073e-01,-2.133371199142559238e+00,-1.314949560613325463e-01,-1.308970878356557233e+00,-4.128360387862797243e-01,2.248414901690296563e-01,-5.657979856674331121e-01,1.560307379214090906e-01,9.652703644666139615e-01,-6.330222215594890622e-01,-1.116188970489496585e-01,0.000000000000000000e+00,7.660444431189781245e-01,4.551339951105001780e-03
-4.589381967765252535e-01,-3.266079317095134105e+00,1.484208773940164150e+00,-1.643428461153661368e+00,6.522805749220925708e-01,5.247528416771848198e-02,-4.657979856674331343e-01,6.560307379214092016e-01,5.347296355333860385e-01,-7.544065067354890353e-01,-1.330222215594890622e-01,0.000000000000000000e+00,6.427876096865393629e-01,5.358057302146035372e-02
-2.367302510284149675e-01,-3.155129343414170506e+00,1.309021318323089433e+00,-2.402116749115348782e+00,1.831712751467527711e-01,1.275753453726778508e+00,-5.342020143325668657e-01,5.560307379214091128e-01,5.347296355333860385e-01,-7.544065067354889242e-01,1.330222215594889235e-01,0.000000000000000000e+00,6.427876096865394739e-01,1.820122412942935808e-02
-1.265158598880630203e-01,-3.309586059040055428e+00,1.457250279591147057e+00,-2.459780638310859135e+00,-1.790624598813606860e-01,1.340575281617250036e+00,-5.342020143325668657e-01,5.560307379214091128e-01,5.652703644666140503e-01,-6.330222215594890622e-01,1.116188970489496168e-01,0.000000000000000000e+00,7.660444431189781245e-01,1.827927084706902280e-02
-1.322103120588959402e-01,-3.076503522788463840e+00,1.252032461635834704e+00,-2.542460379407899929e+00,-1.788608235510579236e-01,1.395695864567188194e+00,-5.342020143325668657e-01,5.560307379214091128e-01,6.652703644666140281e-01,-6.330222215594890622e-01,1.116188970489496168e-01,0.000000000000000000e+00,7.660444431189781245e-01,1.735424266887715047e-02
-1.372661681031394354e-01,-2.833850217420557538e+00,9.805569087841444764e-01,-2.571213959978174035e+00,-1.798757157135207618e-01,1.453544949893829319e+00,-5.342020143325668657e-01,5.560307379214091128e-01,7.652703644666140059e-01,-6.330222215594890622e-01,1.116188970489496168e-01,0.000000000000000000e+00,7.660444431189781245e-01,1.511013971201420267e-02
-1.013430157007363802e-01,-3.294533089654907432e+00,1.561151822505183917e+00,-2.751545163541964101e+00,-1.886613128026118080e-01,1.510550116484414396e+00,-5.342020143325668657e-01,4.560307379214090795e-01,5.652703644666140503e-01,-6.330222215594890622e-01,1.116188970489496585e-01,0.000000000000000000e+00,7.660444431189781245e-01,1.814979643640491844e-02
-9.394081616178351357e-02,-3.078942050324947388e+00,1.354786008726654778e+00,-2.713145665581527588e+00,-1.924561099825764232e-01,1.462357855393570105e+00,-5.342020143325668657e-01,4.560307379214090795e-01,6.652703644666140281e-01,-6.330222215594890622e-01,1.116188970489496585e-01,0.000000000000000000e+00,7.660444431189781245e-01,1.806150663364061368e-02
-8.879398704798142916e-02,-2.851255139427915530e+00,1.086979101999584918e+00,-2.645054375877450070e+00,-1.956424863448476270e-01,1.433966119468213840e+00,-5.342020143325668657e-01,4.560307379214090795e-01,7.652703644666140059e-01,-6.330222215594890622e-01,1.116188970489496585e-01,0.000000000000000000e+00,7.660444431189781245e-01,1.657167472895275037e-02
-8.200793840859700590e-02,-2.601645811905783923e+00,7.381525458129771788e-01,-2.516428651747582013e+00,-2.003512237181405975e-01,1.403968233862927129e+00,-5.342020143325668657e-01,4.560307379214090795e-01,8.652703644666139837e-01,-6.330222215594890622e-01,1.116188970489496585e-01,0.000000000000000000e+00,7.660444431189781245e-01,1.276574060845509472e-02
2.500697311596301597e-01,-3.159755449996743515e+00,1.460135921192744490e+00,-3.035368460263155876e-01,-1.883031883949598251e-01,-1.306624820575762014e+00,-4.657979856674331343e-01,3.560307379214092127e-01,5.347296355333860385e-01,-7.544065067354890353e-01,-1.330222215594890345e-01,0.000000000000000000e+00,6.427876096865393629e-01,1.191749032806863583e-02
1.141481153289989336e-01,-3.255256460395635099e+00,1.449595379508759496e+00,-1.506808300151477042e-01,1.773915383033689286e-01,-1.351052226566707093e+00,-4.657979856674331343e-01,3.560307379214092127e-01,5.652703644666140503e-01,-6.330222215594890622e-01,-1.116188970489496585e-01,0.000000000000000000e+00,7.660444431189781245e-01,1.228082822432614504e-02
2.565444903605113569e-01,-2.682813585028496206e+00,8.853586590375337462e-01,-2.397121732301281671e-01,-1.883129405497985798e-01,-1.272622121992467603e+00,-4.657979856674331343e-01,3.560307379214092127e-01,7.347296355333861051e-01,-7.544065067354890353e-01,-1.330222215594890345e-01,0.000000000000000000e+00,6.427876096865393629e-01,9.170381566251774655e-03
2.787466536065957290e-01,-2.381194401743952138e+00,4.167002292248383477e-01,-1.902326920316249892e-01,-1.966356603603598707e-01,-1.153225344088780302e+00,-4.657979856674331343e-01,3.560307379214092127e-01,8.347296355333860829e-01,-7.544065067354890353e-01,-1.330222215594890345e-01,0.000000000000000000e+00,6.427876096865393629e-01,4.938684813793783705e-03
2.932439981081139124e-01,-2.757699892861365409e+00,4.887364750383208500e-01,-4.759469166060381617e-01,-5.083212053081093140e-01,-1.773987544715518172e-01,-5.342020143325668657e-01,2.560307379214090684e-01,6.347296355333861273e-01,-7.544065067354890353e-01,1.330222215594890345e-01,0.000000000000000000e+00,6.427876096865393629e-01,2.312470314733401644e-02
3.165726999410661824e-01,-3.158833569279603903e+00,1.248665111510301795e+00,-1.568678246098179851e+00,-5.214665157269997575e-01,4.698900555424558867e-01,-5.342020143325668657e-01,2.560307379214090684e-01,6.652703644666140281e-01,-6.330222215594890622e-01,1.116188970489496585e-01,0.000000000000000000e+00,7.660444431189781245e-01,4.633034177784828289e-02
3.172708152768343726e-01,-2.937097018070883969e+00,1.033266516140792346e+00,-1.587286158611301623e+00,-5.203131222401177203e-01,4.806841888515239192e-01,-5.342020143325668657e-01,2.560307379214090684e-01,7.652703644666140059e-01,-6.330222215594890622e-01,1.116188970489496585e-01,0.000000000000000000e+00,7.660444431189781245e-01,4.116023179875067523e-02
3.185385218801802254e-01,-2.674018655481389395e+00,6.902567227674767381e-01,-1.514880883282766266e+00,-5.204218027405183022e-01,4.870480629468436073e-01,-5.342020143325668657e-01,2.560307379214090684e-01,8.652703644666139837e-01,-6.330222215594890622e-01,1.116188970489496585e-01,0.000000000000000000e+00,7.660444431189781245e-01,3.015354740547335557e-02
3.250549258217173554e-01,-2.378724324349184016e+00,2.503745450064747691e-01,-1.387686106545845899e+00,-5.236916142837590993e-01,5.009097411872297512e-01,-5.342020143325668657e-01,2.560307379214090684e-01,9.652703644666139615e-01,-6.330222215594890622e-01,1.116188970489496585e-01,0.000000000000000000e+00,7.660444431189781245e-01,1.137806420388250833e-02
5.037062064633419656e-01,-1.933512473775281570e+00,-1.253102889307610990e-01,-1.565493557689907833e+00,-3.709018045751606985e-01,2.783397235708021666e-01,-4.657979856674331343e-01,2.560307379214090684e-01,1.065270364466613939e+00,-6.330222215594888402e-01,-1.116188970489496307e-01,0.000000000000000000e+00,7.660444431189782355e-01,2.875580200315437391e-03
6.943460416477086339e-01,-2.167060937163729051e+00,1.036350893685953345e-01,-7.632051697916650834e-01,-5.368524025335180694e-01,-4.463932094585350008e-01,-4.657979856674331343e-01,1.560307379214090906e-01,9.347296355333860607e-01,-7.544065067354890353e-01,-1.330222215594890345e-01,0.000000000000000000e+00,6.427876096865393629e-01,3.464746723534572418e-03
4.845398791785520687e-01,-2.254059958542300457e+00,-5.761941496818672598e-02,-1.130932894897720198e+00,-6.736274319667681088e-01,4.109993098555704827e-01,-5.342020143325668657e-01,1.560307379214090906e-01,9.652703644666139615e-01,-6.330222215594890622e-01,1.116188970489496585e-01,0.000000000000000000e+00,7.660444431189781245e-01,3.366818813879779264e-03
6.788579055202560442e-01,-1.995387502917347788e+00,-8.772171765855496517e-02,-1.421054317175257209e+00,-5.300558728139392883e-01,1.408191888960799165e-01,-4.657979856674331343e-01,1.560307379214090906e-01,1.065270364466613939e+00,-6.330222215594888402e-01,-1.116188970489496307e-01,0.000000000000000000e+00,7.660444431189782355e-01,2.971667349502959011e-03
-5.550519702384303367e-01,-3.292483385675760044e+00,1.699185603191390781e+00,-1.802747864568352565e+00,7.451017073044093886e-01,1.384282776716594214e-02,-3.657979856674330454e-01,6.560307379214092016e-01,5.347296355333860385e-01,-7.544065067354890353e-01,-1.330222215594890622e-01,0.000000000000000000e+00,6.427876096865393629e-01,5.088109023438971978e-02
-3.635397836760589918e-01,-3.296658404043126378e+00,1.876780756677016715e+00,-2.030131554312845310e+00,5.610122675254883839e-01,8.773989285100346203e-02,-3.657979856674330454e-01,5.560307379214091128e-01,5.347296355333860385e-01,-7.544065067354889242e-01,-1.330222215594889235e-01,0.000000000000000000e+00,6.427876096865394739e-01,3.307485156737718923e-02
-3.545756340630298320e-01,-3.045050382109446563e+00,1.653318969956548479e+00,-2.071615137590845812e+00,5.538617663351780296e-01,1.008139857387447963e-01,-3.657979856674330454e-01,5.560307379214091128e-01,6.347296355333861273e-01,-7.544065067354889242e-01,-1.330222215594889235e-01,0.000000000000000000e+00,6.427876096865394739e-01,3.360651883439814275e-02
-3.443134518733335647e-01,-2.811789465338158767e+00,1.382476701630817928e+00,-2.042959296526737578e+00,5.444112160983571869e-01,1.103487645592408500e-01,-3.657979856674330454e-01,5.560307379214091128e-01,7.347296355333861051e-01,-7.544065067354889242e-01,-1.330222215594889235e-01,0.000000000000000000e+00,6.427876096865394739e-01,3.214800762502838249e-02
-3.319479032936422103e-01,-2.578050875387752239e+00,1.058226069467607777e+00,-1.958925004036764728e+00,5.325600114450945721e-01,1.181583852499792225e-01,-3.657979856674330454e-01,5.560307379214091128e-01,8.347296355333860829e-01,-7.544065067354889242e-01,-1.330222215594889235e-01,0.000000000000000000e+00,6.427876096865394739e-01,2.745210300547834201e-02
4.104965958782413882e-02,-3.067817241949311047e+00,2.036580105422016729e+00,-3.067817162747235038e+00,2.164771802466129713e-01,7.711914707910794142e-01,-3.657979856674330454e-01,4.560307379214090795e-01,5.347296355333860385e-01,-7.544065067354890353e-01,-1.330222215594890345e-01,0.000000000000000000e+00,6.427876096865393629e-01,9.726652191453974763e-03
6.270087531036429296e-02,-2.830992993778130185e+00,1.768473218827471882e+00,-3.125792937961779927e+00,2.031109497122223218e-01,8.624090565574122902e-01,-3.657979856674330454e-01,4.560307379214090795e-01,6.347296355333861273e-01,-7.544065067354890353e-01,-1.330222215594890345e-01,0.000000000000000000e+00,6.427876096865393629e-01,9.900881077213038312e-03
-6.195017441554666326e-02,-3.133455552963734903e+00,1.621000081313128449e+00,-2.685161556276772110e+00,-2.081578019231840604e-01,1.220217363613269157e+00,-4.342020143325667769e-01,4.560307379214090795e-01,6.652703644666140281e-01,-6.330222215594890622e-01,1.116188970489496585e-01,0.000000000000000000e+00,7.660444431189781245e-01,1.682050136508703164e-02
-6.717248106884321501e-02,-2.895604871080342591e+00,1.355819761496740661e+00,-2.688502972566951588e+00,-2.058686165465459517e-01,1.251370904005864482e+00,-4.342020143325667769e-01,4.560307379214090795e-01,7.652703644666140059e-01,-6.330222215594890622e-01,1.116188970489496585e-01,0.000000000000000000e+00,7.660444431189781245e-01,1.625542827260315765e-02
-7.034190324607300648e-02,-2.647242136226485076e+00,1.018222815805239989e+00,-2.622761682678660833e+00,-2.050531834557654531e-01,1.275125232433450329e+00,-4.342020143325667769e-01,4.560307379214090795e-01,8.652703644666139837e-01,-6.330222215594890622e-01,1.116188970489496585e-01,0.000000000000000000e+00,7.660444431189781245e-01,1.404759884034648826e-02
-6.413994685868042167e-02,-2.370801631644583018e+00,5.802660175280055510e-01,-2.446731638285663646e+00,-2.102480057096830224e-01,1.259994560848586742e+00,-4.342020143325667769e-01,4.560307379214090795e-01,9.652703644666139615e-01,-6.330222215594890622e-01,1.116188970489496585e-01,0.000000000000000000e+00,7.660444431189781245e-01,9.135631344757279976e-03
2.762114766313393810e-01,-3.172230119095945877e+00,1.734635205261854107e+00,-6.525998814722702157e-01,-2.017179813319017467e-01,-1.217105389064846444e+00,-3.657979856674330454e-01,3.560307379214092127e-01,5.347296355333860385e-01,-7.544065067354890353e-01,-1.330222215594890345e-01,0.000000000000000000e+00,6.427876096865393629e-01,9.416119601616222690e-03
2.852631738131773398e-01,-2.950125948951188182e+00,1.504036213139902545e+00,-6.856305318483841837e-01,-2.055571391250233526e-01,-1.174987408168477465e+00,-3.657979856674330454e-01,3.560307379214092127e-01,6.347296355333861273e-01,-7.544065067354890353e-01,-1.330222215594890345e-01,0.000000000000000000e+00,6.427876096865393629e-01,9.629127293027199205e-03
7.700897801411901722e-02,-2.691722324841720582e+00,7.088045264574670545e-01,-4.535041350073399924e-01,-3.032706886025810511e-01,-5.101649519865343319e-01,-4.342020143325667769e-01,3.560307379214092127e-01,7.347296355333861051e-01,-7.544065067354890353e-01,1.330222215594890345e-01,0.000000000000000000e+00,6.427876096865393629e-01,1.538067733261057855e-02
1.184923450953467433e-01,-2.472912304965076746e+00,4.291553791739473045e-01,-5.097619980020805519e-01,-3.302449161982101700e-01,-3.913080096117879658e-01,-4.342020143325667769e-01,3.560307379214092127e-01,8.347296355333860829e-01,-7.544065067354890353e-01,1.330222215594890345e-01,0.000000000000000000e+00,6.427876096865393629e-01,1.026332912039056369e-02
3.634674290413418274e-01,-2.216102462475250334e+00,4.534003677214021866e-01,-6.683272642221212978e-01,-2.482601262200984926e-01,-8.703179639080353969e-01,-3.657979856674330454e-01,3.560307379214092127e-01,9.347296355333860607e-01,-7.544065067354890353e-01,-1.330222215594890345e-01,0.000000000000000000e+00,6.427876096865393629e-01,4.754529471937799130e-03
4.404968230553941710e-01,-1.775833972422320661e+00,-1.575153529864359025e-01,-1.711779882562366462e+00,-3.132597347035259161e-01,3.063203009760248618e-01,-3.657979856674330454e-01,3.560307379214092127e-01,1.065270364466613939e+00,-6.330222215594888402e-01,-1.116188970489496307e-01,0.000000000000000000e+00,7.660444431189782355e-01,2.205114627868722931e-03
6.065757546657577493e-01,-1.428038296063677492e+00,-1.649950689471853860e+00,3.353358068963188110e-01,-4.669417898000345901e-01,-5.346605490434046537e-01,-3.657979856674330454e-01,2.560307379214090684e-01,6.347296355333861273e-01,-7.544065067354890353e-01,-1.330222215594890345e-01,0.000000000000000000e+00,6.427876096865393629e-01,2.182263338481777240e-02
3.834290640754939306e-01,-1.702619959040485353e+00,-1.612601895195846069e+00,-1.452842390968149822e-01,-5.823746874497144344e-01,4.433987181928393806e-01,-4.342020143325667769e-01,2.560307379214090684e-01,6.652703644666140281e-01,-6.330222215594890622e-01,1.116188970489496585e-01,0.000000000000000000e+00,7.660444431189781245e-01,4.333332678712586983e-02
3.856775530284210496e-01,-1.685046362687500965e+00,-1.381155066642435036e+00,-3.942338936725955367e-01,-5.839969106384093056e-01,4.429520679722582788e-01,-4.342020143325667769e-01,2.560307379214090684e-01,7.652703644666140059e-01,-6.330222215594890622e-01,1.116188970489496585e-01,0.000000000000000000e+00,7.660444431189781245e-01,4.246050709209511775e-02
3.874639669701610001e-01,-1.726782766180076534e+00,-1.080683519558099936e+00,-6.539303121617511261e-01,-5.852020375392306129e-01,4.434761248999899430e-01,-4.342020143325667769e-01,2.560307379214090684e-01,8.652703644666139837e-01,-6.330222215594890622e-01,1.116188970489496585e-01,0.000000000000000000e+00,7.660444431189781245e-01,3.798009295959829668e-02
3.919298897621183442e-01,-1.829554319288080100e+00,-6.952011557303373612e-01,-9.405711660396750551e-01,-5.883613915950902662e-01,4.459951166913763698e-01,-4.342020143325667769e-01,2.560307379214090684e-01,9.652703644666139615e-01,-6.330222215594890622e-01,1.116188970489496585e-01,0.000000000000000000e+00,7.660444431189781245e-01,2.726290409727222946e-02
6.208616552165565627e-01,-1.810738421676188814e+00,-1.623432291066620181e-01,-1.537241548802343205e+00,-4.771063059153908825e-01,1.558343519771579200e-01,-3.657979856674330454e-01,2.560307379214090684e-01,1.065270364466613939e+00,-6.330222215594888402e-01,-1.116188970489496307e-01,0.000000000000000000e+00,7.660444431189782355e-01,3.592420139113719057e-03
8.437123472076143438e-01,-1.994803112722840277e+00,-3.999405093247698773e-02,-8.260752057720348596e-01,-6.897270005372889701e-01,-3.934282582878073087e-01,-3.657979856674330454e-01,1.560307379214090906e-01,9.347296355333860607e-01,-7.544065067354890353e-01,-1.330222215594890345e-01,0.000000000000000000e+00,6.427876096865393629e-01,1.367319684159249305e-03
5.624021958445255542e-01,-2.099781313429817775e+00,-1.968204183785426387e-01,-1.096039576167231910e+00,-7.547653855622842300e-01,3.594055418567449478e-01,-4.342020143325667769e-01,1.560307379214090906e-01,9.652703644666139615e-01,-6.330222215594890622e-01,1.116188970489496585e-01,0.000000000000000000e+00,7.660444431189781245e-01,1.114920973833550058e-02
8.449698872736182143e-01,-1.900297343999431954e+00,-8.747576976300747154e-02,-1.425060737579305847e+00,-6.899423584599846393e-01,3.698300469766519633e-02,-3.657979856674330454e-01,1.560307379214090906e-01,1.065270364466613939e+00,-6.330222215594888402e-01,-1.116188970489496307e-01,0.000000000000000000e+00,7.660444431189782355e-01,2.992942509267062720e-03
-8.523890797197475333e-01,-2.397508031922642946e+00,-1.919153707849927892e+00,9.726648010838450098e-01,1.033661908286853448e+00,-7.037759987973384035e-02,-2.657979856674330676e-01,7.560307379214090684e-01,1.347296355333860995e-01,-7.544065067354890353e-01,-1.330222215594889790e-01,0.000000000000000000e+00,6.427876096865392519e-01,6.510276956429641992e-02
-8.518732191461872993e-01,-2.176127741965358631e+00,-1.938545776886172467e+00,7.714526659666680608e-01,1.033264893694211040e+00,-7.071866408768617829e-02,-2.657979856674330676e-01,7.560307379214090684e-01,2.347296355333861051e-01,-7.544065067354890353e-01,-1.330222215594889790e-01,0.000000000000000000e+00,6.427876096865392519e-01,6.442715183450099803e-02
-6.813638263873887935e-01,-2.339253636908011469e+00,-2.194867436714823317e+00,1.168598750069409942e+00,8.662775433914602363e-01,-2.861304838729371997e-02,-2.657979856674330676e-01,6.560307379214092016e-01,1.347296355333860995e-01,-7.544065067354890353e-01,-1.330222215594890345e-01,0.000000000000000000e+00,6.427876096865392519e-01,3.987548797965472652e-02
-6.834034220393173653e-01,-2.072867298817339776e+00,-2.217139287584917628e+00,9.284490361422356175e-01,8.683366252086791581e-01,-3.163250745956350946e-02,-2.657979856674330676e-01,6.560307379214092016e-01,2.347296355333861051e-01,-7.544065067354890353e-01,-1.330222215594890345e-01,0.000000000000000000e+00,6.427876096865392519e-01,3.928838906501491007e-02
-6.766541040548789132e-01,-2.260192004767552998e+00,-2.077549627505717478e+00,1.418559703598250454e+00,8.594664478804987517e-01,-3.202229644398393860e-01,-2.657979856674330676e-01,6.560307379214092016e-01,2.652703644666140059e-01,-6.330222215594890622e-01,-1.116188970489496723e-01,0.000000000000000000e+00,7.660444431189781245e-01,4.322205448426172381e-02
-6.890172592818650799e-01,-1.650928312119538832e+00,-2.042152101918958795e+00,3.317606540671442783e-01,8.742768629687596160e-01,-3.283684562951583868e-02,-2.657979856674330676e-01,6.560307379214092016e-01,4.347296355333861162e-01,-7.544065067354890353e-01,-1.330222215594890345e-01,0.000000000000000000e+00,6.427876096865392519e-01,4.437122270797543011e-02
-6.876480268638062165e-01,-1.542108640618106818e+00,-1.866054244274858442e+00,4.444124209064546221e-02,8.732916638836845102e-01,-3.102836211322149498e-02,-2.657979856674330676e-01,6.560307379214092016e-01,5.347296355333860385e-01,-7.544065067354890353e-01,-1.330222215594890622e-01,0.000000000000000000e+00,6.427876096865393629e-01,4.739921656158804786e-02
-3.489712514912702845e-01,-2.313882680788553081e+00,-2.155451125107603616e+00,6.402316883966976402e-01,2.445642057689715043e-01,8.473152181016814222e-01,-3.342020143325667991e-01,5.560307379214091128e-01,1.347296355333860995e-01,-7.544065067354890353e-01,1.330222215594889790e-01,0.000000000000000000e+00,6.427876096865392519e-01,1.498098169629171091e-02
-3.385473506272405619e-01,-2.028902405650596208e+00,-2.170708577840337661e+00,3.192100124943571537e-01,2.372218282411608092e-01,8.995060369037167769e-01,-3.342020143325667991e-01,5.560307379214091128e-01,2.347296355333861051e-01,-7.544065067354890353e-01,1.330222215594889790e-01,0.000000000000000000e+00,6.427876096865392519e-01,1.446462983608660935e-02
-3.392719217271157328e-01,-1.806394228941838209e+00,-2.102562630746288797e+00,2.848541148261676120e-02,2.378778161417195725e-01,8.994563058943506606e-01,-3.342020143325667991e-01,5.560307379214091128e-01,3.347296355333861384e-01,-7.544065067354890353e-01,1.330222215594889790e-01,0.000000000000000000e+00,6.427876096865392519e-01,1.518223349113884471e-02
-3.391049414674846552e-01,-1.649128797502471988e+00,-1.972463623086771145e+00,-2.608748788490966586e-01,2.381099798535618595e-01,9.014011905219829757e-01,-3.342020143325667991e-01,5.560307379214091128e-01,4.347296355333861162e-01,-7.544065067354890353e-01,1.330222215594889790e-01,0.000000000000000000e+00,6.427876096865392519e-01,1.621956278622987621e-02
-3.421848798663866265e-01,-1.566417356143849693e+00,-1.791906777776780979e+00,-5.078827200814813869e-01,2.403587266955572732e-01,8.849863928312060590e-01,-3.342020143325667991e-01,5.560307379214091128e-01,5.347296355333860385e-01,-7.544065067354889242e-01,1.330222215594889235e-01,0.000000000000000000e+00,6.427876096865394739e-01,1.730590843986989230e-02
-3.367357247289387567e-01,-1.536027018736974670e+00,-1.562957300318060794e+00,-7.859163619135411949e-01,2.367539611222960194e-01,9.042805403478515469e-01,-3.342020143325667991e-01,5.560307379214091128e-01,6.347296355333861273e-01,-7.544065067354889242e-01,1.330222215594889235e-01,0.000000000000000000e+00,6.427876096865394739e-01,1.737031994731208506e-02
-3.292062132199409796e-01,-1.561012733217761461e+00,-1.284754900365383756e+00,-1.061078683380255239e+00,2.313298747520040888e-01,9.272632176636362855e-01,-3.342020143325667991e-01,5.560307379214091128e-01,7.347296355333861051e-01,-7.544065067354889242e-01,1.330222215594889235e-01,0.000000000000000000e+00,6.427876096865394739e-01,1.612685181249235225e-02
-3.226382938205749062e-01,-1.636304470770812314e+00,-9.584948403104254222e-01,-1.316378399007930078e+00,2.255403664233336103e-01,9.330637739960594423e-01,-3.342020143325667991e-01,5.560307379214091128e-01,8.347296355333860829e-01,-7.544065067354889242e-01,1.330222215594889235e-01,0.000000000000000000e+00,6.427876096865394739e-01,1.317870770624977352e-02
-9.849472088609921572e-02,-2.194155070354024684e+00,-2.362167550113996484e+00,-5.220514568020956370e-01,1.896151565363260183e-01,2.117680312719074642e+00,-3.342020143325667991e-01,4.560307379214090795e-01,3.472963553338608705e-02,-7.544065067354890353e-01,1.330222215594890345e-01,0.000000000000000000e+00,6.427876096865392519e-01,8.881450459947556539e-03
-1.361284719609432703e-01,-1.945591029988160692e+00,-2.373125261598017843e+00,-5.315264221994951965e-01,1.775143281515783877e-01,1.886638596645964006e+00,-3.342020143325667991e-01,4.560307379214090795e-01,1.347296355333860995e-01,-7.544065067354890353e-01,1.330222215594890345e-01,0.000000000000000000e+00,6.427876096865392519e-01,8.281075178547404880e-03
-1.619269001837667366e-01,-1.712061090014865838e+00,-2.318109262358300615e+00,-6.509705263961387267e-01,1.738636652560278939e-01,1.715352720853738244e+00,-3.342020143325667991e-01,4.560307379214090795e-01,2.347296355333861051e-01,-7.544065067354890353e-01,1.330222215594890345e-01,0.000000000000000000e+00,6.427876096865392519e-01,8.602945781711736004e-03
-1.535308072255865408e-01,-1.857655022125297872e+00,-2.374468332791692227e+00,-4.681776375188398953e-01,-1.734484875678282412e-01,1.729542095226833220e+00,-3.342020143325667991e-01,4.560307379214090795e-01,2.652703644666140059e-01,-6.330222215594890622e-01,1.116188970489496585e-01,0.000000000000000000e+00,7.660444431189781245e-01,8.009278992416588028e-03
-1.224257290022642830e-01,-1.642427826570186378e+00,-2.318197888378595195e+00,-5.458476923526788260e-01,-1.801510459753367654e-01,1.533134834840404803e+00,-3.342020143325667991e-01,4.560307379214090795e-01,3.652703644666139837e-01,-6.330222215594890622e-01,1.116188970489496585e-01,0.000000000000000000e+00,7.660444431189781245e-01,8.670497450032508754e-03
-9.984096908417725014e-02,-1.494533645555618406e+00,-2.195258827802170298e+00,-6.790889573235260324e-01,-1.890834270425260366e-01,1.394211168978359172e+00,-3.342020143325667991e-01,4.560307379214090795e-01,4.652703644666139615e-01,-6.330222215594890622e-01,1.116188970489496585e-01,0.000000000000000000e+00,7.660444431189781245e-01,1.006862174767579610e-02
-8.559192601967763325e-02,-1.406421331995854063e+00,-2.018620810627602680e+00,-8.602138700120873782e-01,-1.958107803910914546e-01,1.309810326181108708e+00,-3.342020143325667991e-01,4.560307379214090795e-01,5.652703644666140503e-01,-6.330222215594890622e-01,1.116188970489496585e-01,0.000000000000000000e+00,7.660444431189781245e-01,1.162363032585828938e-02
-7.645437207493673004e-02,-1.376489259211251648e+00,-1.796157508566203820e+00,-1.061459947493449851e+00,-2.002553355334055207e-01,1.258080400719945091e+00,-3.342020143325667991e-01,4.560307379214090795e-01,6.652703644666140281e-01,-6.330222215594890622e-01,1.116188970489496585e-01,0.000000000000000000e+00,7.660444431189781245e-01,1.287324811277433360e-02
-6.902445306463642072e-02,-1.402209062959426156e+00,-1.526256176196682413e+00,-1.265842240798359164e+00,-2.038766346998624746e-01,1.217729161334544452e+00,-3.342020143325667991e-01,4.560307379214090795e-01,7.652703644666140059e-01,-6.330222215594890622e-01,1.116188970489496585e-01,0.000000000000000000e+00,7.660444431189781245e-01,1.343512775297846414e-02
-6.009634926458282123e-02,-1.485218106703410923e+00,-1.191787153068277538e+00,-1.471360838033903606e+00,-2.083567052077464621e-01,1.171070550268028088e+00,-3.342020143325667991e-01,4.560307379214090795e-01,8.652703644666139837e-01,-6.330222215594890622e-01,1.116188970489496585e-01,0.000000000000000000e+00,7.660444431189781245e-01,1.276268136346316376e-02
-4.309536020832255981e-02,-1.642119546759343685e+00,-7.466692883590233532e-01,-1.682311329671413613e+00,-2.179810305667100045e-01,1.092469267417393697e+00,-3.342020143325667991e-01,4.560307379214090795e-01,9.652703644666139615e-01,-6.330222215594890622e-01,1.116188970489496585e-01,0.000000000000000000e+00,7.660444431189781245e-01,9.702386229287223232e-03
3.357401935716265197e-03,-1.868602234539352702e+00,-1.890535158011577843e-01,-1.869207717654050027e+00,-2.507285085492463317e-01,9.440046555925593053e-01,-3.342020143325667991e-01,4.560307379214090795e-01,1.065270364466613939e+00,-6.330222215594888402e-01,1.116188970489496307e-01,0.000000000000000000e+00,7.660444431189782355e-01,2.942584593339897005e-03
1.984826795596316418e-01,-8.701854999072148322e-01,-2.491796967781092054e+00,-1.237778126813412261e+00,-1.782077344653691664e-01,1.282039648758330097e+00,-2.657979856674330676e-01,3.560307379214092127e-01,4.652703644666139615e-01,-6.330222215594890622e-01,-1.116188970489496585e-01,0.000000000000000000e+00,7.660444431189781245e-01,3.714619862055398153e-03
2.224943222786765207e-01,-8.277186432845229369e-01,-2.270087275674292915e+00,-1.374709078955747232e+00,-1.818627096543476152e-01,1.152155154101468737e+00,-2.657979856674330676e-01,3.560307379214092127e-01,5.652703644666140503e-01,-6.330222215594890622e-01,-1.116188970489496585e-01,0.000000000000000000e+00,7.660444431189781245e-01,4.640161719859470929e-03
2.412594508327555731e-01,-8.639193899121417886e-01,-2.019891885029550860e+00,-1.491651669709899375e+00,-1.868927482921333705e-01,1.053102416943471731e+00,-2.657979856674330676e-01,3.560307379214092127e-01,6.652703644666140281e-01,-6.330222215594890622e-01,-1.116188970489496585e-01,0.000000000000000000e+00,7.660444431189781245e-01,5.504769198752445560e-03
2.593282597032836589e-01,-9.510169814690108137e-01,-1.734524325336480155e+00,-1.596751915418201051e+00,-1.930306535639325916e-01,9.580653546707275092e-01,-2.657979856674330676e-01,3.560307379214092127e-01,7.652703644666140059e-01,-6.330222215594890622e-01,-1.116188970489496585e-01,0.000000000000000000e+00,7.660444431189781245e-01,6.179229886448864457e-03
2.830445004362425188e-01,-1.090356448681782275e+00,-1.383362442317274121e+00,-1.687584272380354911e+00,-2.021859769675213858e-01,8.345268920768748044e-01,-2.657979856674330676e-01,3.560307379214092127e-01,8.652703644666139837e-01,-6.330222215594890622e-01,-1.116188970489496585e-01,0.000000000000000000e+00,7.660444431189781245e-01,6.460399631284653374e-03
1.017458107845085891e-01,-1.620451504726402092e+00,-8.161796739556316238e-01,-1.342681403302941501e+00,-3.258437834656535137e-01,7.879426493939325482e-01,-3.342020143325667991e-01,3.560307379214092127e-01,9.652703644666139615e-01,-6.330222215594890622e-01,1.116188970489496585e-01,0.000000000000000000e+00,7.660444431189781245e-01,1.473268598266290648e-02
1.973202657556318573e-01,-1.819154111985447297e+00,-3.191245223639543327e-01,-1.483352776040626431e+00,-4.091665538966633986e-01,6.209692377962592325e-01,-3.342020143325667991e-01,3.560307379214092127e-01,1.065270364466613939e+00,-6.330222215594888402e-01,1.116188970489496307e-01,0.000000000000000000e+00,7.660444431189782355e-01,7.514279052414658128e-03
5.149887648903426207e-01,-2.847846809214339636e+00,1.356619778064945603e+00,-1.394097320211818536e+00,-7.023996726433832105e-01,-2.173258486450060575e-02,-3.342020143325667991e-01,2.560307379214090684e-01,7.347296355333861051e-01,-7.544065067354890353e-01,1.330222215594890345e-01,0.000000000000000000e+00,6.427876096865393629e-01,3.684102862297768816e-02
4.930191070263285069e-01,-2.977937803088941848e+00,1.610233804285040371e+00,-2.047741295283173724e+00,-6.866947703464536534e-01,3.879945124155501635e-01,-3.342020143325667991e-01,2.560307379214090684e-01,7.652703644666140059e-01,-6.330222215594890622e-01,1.116188970489496585e-01,0.000000000000000000e+00,7.660444431189781245e-01,3.876468394594924372e-02
4.926474629239078751e-01,-2.740711938793802371e+00,1.298098542971425129e+00,-1.971747276171646357e+00,-6.864337896362371350e-01,3.871999444294381698e-01,-3.342020143325667991e-01,2.560307379214090684e-01,8.652703644666139837e-01,-6.330222215594890622e-01,1.116188970489496585e-01,0.000000000000000000e+00,7.660444431189781245e-01,3.743431385117684113e-02
4.932908445940966113e-01,-2.477483715051161717e+00,8.924453489478736401e-01,-1.830015896004153042e+00,-6.869084833810230606e-01,3.876476094817446483e-01,-3.342020143325667991e-01,2.560307379214090684e-01,9.652703644666139615e-01,-6.330222215594890622e-01,1.116188970489496585e-01,0.000000000000000000e+00,7.660444431189781245e-01,3.021082615626024051e-02
5.011382113331291910e-01,-2.159631905173833744e+00,3.492714692022019785e-01,-1.613914265738163989e+00,-6.932151641511435924e-01,3.934083775460130439e-01,-3.342020143325667991e-01,2.560307379214090684e-01,1.065270364466613939e+00,-6.330222215594888402e-01,1.116188970489496307e-01,0.000000000000000000e+00,7.660444431189782355e-01,1.300432685357521406e-02
1.118872622846194265e+00,-2.182913215585585043e+00,5.891235643189285387e-01,-1.328061206900492008e+00,-9.579870870087687784e-01,-3.027918890752436254e-01,-2.657979856674330676e-01,1.560307379214090906e-01,9.347296355333860607e-01,-7.544065067354890353e-01,-1.330222215594890345e-01,0.000000000000000000e+00,6.427876096865393629e-01,1.752412672098980356e-02
6.923833622287198786e-01,-2.382595498909594323e+00,6.065420121206729354e-01,-1.578246520209674264e+00,-8.821521695235633453e-01,3.113247463946946514e-01,-3.342020143325667991e-01,1.560307379214090906e-01,9.652703644666139615e-01,-6.330222215594890622e-01,1.116188970489496585e-01,0.000000000000000000e+00,7.660444431189781245e-01,3.001597271313486900e-02
7.172944278800320594e-01,-2.150925187242981096e+00,2.583928444050135886e-01,-1.481619581595060575e+00,-9.019412965663942128e-01,3.194631066775910910e-01,-3.342020143325667991e-01,1.560307379214090906e-01,1.065270364466613939e+00,-6.330222215594888402e-01,1.116188970489496307e-01,0.000000000000000000e+00,7.660444431189782355e-01,1.268992641841096974e-02
1.884725110318694830e+00,-7.185748280640633645e-01,1.817683654837700225e+00,-4.042511620428367536e+00,-2.050730285684751575e+00,2.668974989304562229e-01,-2.342020143325668213e-01,7.560307379214090684e-01,1.347296355333860995e-01,-7.544065067354890353e-01,1.330222215594889790e-01,0.000000000000000000e+00,6.427876096865392519e-01,7.418895979627643245e-02
1.882906128459277406e+00,-9.246277309650425824e-01,1.836629773639098184e+00,-3.856411271699515364e+00,-2.048416961008109549e+00,2.660817580650016168e-01,-2.342020143325668213e-01,7.560307379214090684e-01,2.347296355333861051e-01,-7.544065067354890353e-01,1.330222215594889790e-01,0.000000000000000000e+00,6.427876096865392519e-01,7.358721283081659514e-02
1.952149317723774757e+00,-7.935550133270212747e-01,2.071934540663429303e+00,-4.216230079096087380e+00,-2.115957145888869739e+00,2.812230161766070546e-01,-2.342020143325668213e-01,6.560307379214092016e-01,1.347296355333860995e-01,-7.544065067354890353e-01,1.330222215594890345e-01,0.000000000000000000e+00,6.427876096865392519e-01,5.388325518720780277e-02
1.949565023393397212e+00,-1.035897795557948919e+00,2.093156372403740750e+00,-3.997481014760507989e+00,-2.112946207930441300e+00,2.794837973994545588e-01,-2.342020143325668213e-01,6.560307379214092016e-01,2.347296355333861051e-01,-7.544065067354890353e-01,1.330222215594890345e-01,0.000000000000000000e+00,6.427876096865392519e-01,5.308546912479323449e-02
1.919989864805429214e+00,-8.460793506202474168e-01,2.008566034826047897e+00,-4.499619876277003883e+00,-2.078100805414613728e+00,7.774978652341413277e-02,-2.342020143325668213e-01,6.560307379214092016e-01,2.652703644666140059e-01,-6.330222215594890622e-01,1.116188970489496723e-01,0.000000000000000000e+00,7.660444431189781245e-01,5.512307260607948040e-02
1.948949785828088865e+00,-1.408258151085450827e+00,1.934028659746299894e+00,-3.466800894360071439e+00,-2.112176282148457762e+00,2.789515937983974569e-01,-2.342020143325668213e-01,6.560307379214092016e-01,4.347296355333861162e-01,-7.544065067354890353e-01,1.330222215594890345e-01,0.000000000000000000e+00,6.427876096865392519e-01,5.708796294857598069e-02
1.947681465785433330e+00,-1.506031811737459591e+00,1.768971955776024396e+00,-3.203949274610806697e+00,-2.110566544195808802e+00,2.787700847363480672e-01,-2.342020143325668213e-01,6.560307379214092016e-01,5.347296355333860385e-01,-7.544065067354890353e-01,1.330222215594890622e-01,0.000000000000000000e+00,6.427876096865393629e-01,5.968367235040378249e-02
2.036051624973948204e+00,-8.161416181696055094e-01,2.299872527990407978e+00,-4.415559428791552499e+00,-2.194836964708758664e+00,2.986195748821513507e-01,-2.342020143325668213e-01,5.560307379214091128e-01,1.347296355333860995e-01,-7.544065067354890353e-01,1.330222215594889790e-01,0.000000000000000000e+00,6.427876096865392519e-01,3.489250992732296358e-02
2.031564309426652670e+00,-1.098709434213346992e+00,2.328940382427588940e+00,-4.168466273075304152e+00,-2.190192329134363902e+00,2.940063649465998186e-01,-2.342020143325668213e-01,5.560307379214091128e-01,2.347296355333861051e-01,-7.544065067354890353e-01,1.330222215594889790e-01,0.000000000000000000e+00,6.427876096865392519e-01,3.392248578093365330e-02
2.037666519539022669e+00,-1.364437673839707710e+00,2.271238071472077902e+00,-3.845560077221076956e+00,-2.197442361901191354e+00,2.946372687998282669e-01,-2.342020143325668213e-01,5.560307379214091128e-01,3.347296355333861384e-01,-7.544065067354890353e-01,1.330222215594889790e-01,0.000000000000000000e+00,6.427876096865392519e-01,3.598736035540181510e-02
2.043371418909599946e+00,-1.570013114322643011e+00,2.139167323846536295e+00,-3.503475960197623529e+00,-2.203678152396857381e+00,2.982488923968722450e-01,-2.342020143325668213e-01,5.560307379214091128e-01,4.347296355333861162e-01,-7.544065067354890353e-01,1.330222215594889790e-01,0.000000000000000000e+00,6.427876096865392519e-01,3.975117183807030941e-02
2.042601649869193903e+00,-1.687937391992498481e+00,1.955742046530634770e+00,-3.198966585936090290e+00,-2.202398882882116826e+00,3.000754193630699729e-01,-2.342020143325668213e-01,5.560307379214091128e-01,5.347296355333860385e-01,-7.544065067354889242e-01,1.330222215594889235e-01,0.000000000000000000e+00,6.427876096865394739e-01,4.352275134113250954e-02
2.039340874836025552e+00,-1.727785524847895937e+00,1.732188567857211314e+00,-2.935394698367867594e+00,-2.198501092800539070e+00,2.996742810123674272e-01,-2.342020143325668213e-01,5.560307379214091128e-01,6.347296355333861273e-01,-7.544065067354889242e-01,1.330222215594889235e-01,0.000000000000000000e+00,6.427876096865394739e-01,4.610958901209086941e-02
2.035599390202518677e+00,-1.708750700077020346e+00,1.471335948844258334e+00,-2.695923753504378517e+00,-2.194237189169782276e+00,2.976864055894865024e-01,-2.342020143325668213e-01,5.560307379214091128e-01,7.347296355333861051e-01,-7.544065067354889242e-01,1.330222215594889235e-01,0.000000000000000000e+00,6.427876096865394739e-01,4.619586633619704452e-02
1.922712137078794514e+00,-1.703402382309012308e+00,1.628693549395584972e+00,-3.260865978192729386e+00,-2.067889296842659430e+00,7.876227839078163429e-02,-2.342020143325668213e-01,5.560307379214091128e-01,7.652703644666140059e-01,-6.330222215594890622e-01,1.116188970489496168e-01,0.000000000000000000e+00,7.660444431189781245e-01,4.611422743902126448e-02
9.091782228434296398e-01,-2.595087310888404719e+00,2.586881933725198479e+00,-2.879743031286114086e+00,-7.398365150218854103e-01,-3.620074225036237769e-01,-1.657979856674330621e-01,4.560307379214090795e-01,4.347296355333861162e-01,-7.544065067354890353e-01,-1.330222215594891455e-01,0.000000000000000000e+00,6.427876096865392519e-01,3.193461648071433193e-03
1.177977514507290296e-01,-3.321722657556177349e+00,2.264035091910329811e+00,-2.579679402422262680e+00,-3.366957363834499617e-01,6.436369263576526834e-01,-2.342020143325668213e-01,4.560307379214090795e-01,5.652703644666140503e-01,-6.330222215594890622e-01,1.116188970489496585e-01,0.000000000000000000e+00,7.660444431189781245e-01,1.156887079778784640e-02
4.070228489318240134e-02,-3.066796062596015560e+00,2.016990589379758614e+00,-2.734176889530741228e+00,-2.752526803138941047e-01,7.983752744651173572e-01,-2.342020143325668213e-01,4.560307379214090795e-01,6.652703644666140281e-01,-6.330222215594890622e-01,1.116188970489496585e-01,0.000000000000000000e+00,7.660444431189781245e-01,1.178883568931357075e-02
1.517739046666746576e-02,-2.836809839844226300e+00,1.745838927517822103e+00,-2.767973896372114329e+00,-2.563043890656904189e-01,8.754827624938686936e-01,-2.342020143325668213e-01,4.560307379214090795e-01,7.652703644666140059e-01,-6.330222215594890622e-01,1.116188970489496585e-01,0.000000000000000000e+00,7.660444431189781245e-01,1.206891126101560310e-02
6.424979319779666005e-04,-2.613662714469267900e+00,1.421160063010206143e+00,-2.712310054680354465e+00,-2.459585023342539256e-01,9.226241241970132290e-01,-2.342020143325668213e-01,4.560307379214090795e-01,8.652703644666139837e-01,-6.330222215594890622e-01,1.116188970489496585e-01,0.000000000000000000e+00,7.660444431189781245e-01,1.169180496692761792e-02
-8.118485290538587917e-03,-2.368320409087711464e+00,1.012180222770063365e+00,-2.579394192340596970e+00,-2.400270410057347703e-01,9.540518388536813887e-01,-2.342020143325668213e-01,4.560307379214090795e-01,9.652703644666139615e-01,-6.330222215594890622e-01,1.116188970489496585e-01,0.000000000000000000e+00,7.660444431189781245e-01,9.805321048043548829e-03
3.271048694598489327e-03,-2.077695081821935297e+00,4.833211717616063829e-01,-2.323810218529154259e+00,-2.498451445613690258e-01,9.352560479159571782e-01,-2.342020143325668213e-01,4.560307379214090795e-01,1.065270364466613939e+00,-6.330222215594888402e-01,1.116188970489496307e-01,0.000000000000000000e+00,7.660444431189782355e-01,5.468236791918301351e-03
4.582413632061523301e-01,-3.079330273035328691e+00,2.728920986392342929e+00,-3.327048030185350669e+00,-3.412589103882958663e-01,3.402787220870124307e-01,-1.657979856674330621e-01,3.560307379214092127e-01,4.652703644666139615e-01,-6.330222215594889512e-01,-1.116188970489497417e-01,0.000000000000000000e+00,7.660444431189780135e-01,2.393946756504612087e-03
1.537808217933274713e-01,-3.293973933774121399e+00,2.305629056387009879e+00,-2.714372928544444896e+00,-3.686225314133974584e-01,7.048914203573607429e-01,-2.342020143325668213e-01,3.560307379214092127e-01,5.652703644666140503e-01,-6.330222215594890622e-01,1.116188970489496585e-01,0.000000000000000000e+00,7.660444431189781245e-01,1.147611800938973074e-02
4.213173439731513481e-01,-2.793705242274619138e+00,1.594953228179508242e+00,-1.662144716635038932e+00,-6.095678610138054454e-01,-5.567000121762362419e-02,-2.342020143325668213e-01,3.560307379214092127e-01,7.347296355333861051e-01,-7.544065067354890353e-01,1.330222215594890345e-01,0.000000000000000000e+00,6.427876096865393629e-01,2.186802250938190209e-02
3.877058995667161390e-01,-2.870099879528995146e+00,1.800335118579402982e+00,-2.379598374982348830e+00,-5.848398602608051444e-01,4.322567158174688839e-01,-2.342020143325668213e-01,3.560307379214092127e-01,7.652703644666140059e-01,-6.330222215594890622e-01,1.116188970489496585e-01,0.000000000000000000e+00,7.660444431189781245e-01,2.251914109384409862e-02
3.864401853510647245e-01,-2.652023161710866273e+00,1.480629516414781133e+00,-2.275675202406229225e+00,-5.836506120560078781e-01,4.305309569746795240e-01,-2.342020143325668213e-01,3.560307379214092127e-01,8.652703644666139837e-01,-6.330222215594890622e-01,1.116188970489496585e-01,0.000000000000000000e+00,7.660444431189781245e-01,2.310732676785326109e-02
3.851904574712958218e-01,-2.409897592016306156e+00,1.077721493199674807e+00,-2.113480463690462940e+00,-5.823732910122851880e-01,4.295977512319082425e-01,-2.342020143325668213e-01,3.560307379214092127e-01,9.652703644666139615e-01,-6.330222215594890622e-01,1.116188970489496585e-01,0.000000000000000000e+00,7.660444431189781245e-01,2.046192622245330758e-02
3.873433979635329538e-01,-2.108122159344136826e+00,5.327860834972120152e-01,-1.876631816450455847e+00,-5.842161311750431185e-01,4.346187334807303793e-01,-2.342020143325668213e-01,3.560307379214092127e-01,1.065270364466613939e+00,-6.330222215594888402e-01,1.116188970489496307e-01,0.000000000000000000e+00,7.660444431189782355e-01,1.166138316532678437e-02
6.166019417047275963e-01,-2.995848244571662988e+00,1.760098973577632453e+00,-1.659573136925658332e+00,-8.079562333098233573e-01,1.928558889167658261e-03,-2.342020143325668213e-01,2.560307379214090684e-01,6.347296355333861273e-01,-7.544065067354890353e-01,1.330222215594890345e-01,0.000000000000000000e+00,6.427876096865393629e-01,3.160677642965481482e-02
7.448185132432828537e-01,-2.784156331853987698e+00,1.584135586240063232e+00,-1.733308877366863232e+00,-9.244652726602571313e-01,4.945957695420076516e-02,-2.342020143325668213e-01,2.560307379214090684e-01,7.347296355333861051e-01,-7.544065067354890353e-01,1.330222215594890345e-01,0.000000000000000000e+00,6.427876096865393629e-01,3.130805915008896129e-02
7.638380786788694365e-01,-2.879130939808621115e+00,1.821363080371218190e+00,-2.298515717967969163e+00,-9.448417940406199644e-01,2.998279080269516950e-01,-2.342020143325668213e-01,2.560307379214090684e-01,7.652703644666140059e-01,-6.330222215594890622e-01,1.116188970489496585e-01,0.000000000000000000e+00,7.660444431189781245e-01,3.130622003337937831e-02
7.609595698458242463e-01,-2.665779802135899601e+00,1.507352513452753895e+00,-2.196569769298864383e+00,-9.425016948611524281e-01,2.995335850544560974e-01,-2.342020143325668213e-01,2.560307379214090684e-01,8.652703644666139837e-01,-6.330222215594890622e-01,1.116188970489496585e-01,0.000000000000000000e+00,7.660444431189781245e-01,3.253394983532560680e-02
7.607294857439435010e-01,-2.428517877478907128e+00,1.112917513170148309e+00,-2.037518313391691205e+00,-9.424998439760724489e-01,2.984482709168408965e-01,-2.342020143325668213e-01,2.560307379214090684e-01,9.652703644666139615e-01,-6.330222215594890622e-01,1.116188970489496585e-01,0.000000000000000000e+00,7.660444431189781245e-01,2.943821313282048852e-02
7.691500880729783551e-01,-2.129701815802465426e+00,5.744547720808547142e-01,-1.799142369330776647e+00,-9.502213540962510807e-01,2.977671595951900119e-01,-2.342020143325668213e-01,2.560307379214090684e-01,1.065270364466613939e+00,-6.330222215594888402e-01,1.116188970489496307e-01,0.000000000000000000e+00,7.660444431189782355e-01,1.770368042265713440e-02
9.057168813301705868e-01,-2.228409113064083513e+00,5.191408567640032334e-01,-1.236257805775526020e+00,-1.087971992405541322e+00,8.254149248808781425e-02,-2.342020143325668213e-01,1.560307379214090906e-01,9.347296355333860607e-01,-7.544065067354890353e-01,1.330222215594890345e-01,0.000000000000000000e+00,6.427876096865393629e-01,2.155215761846342518e-02
9.770145145414589338e-01,-2.455401171164713237e+00,1.041378415116399836e+00,-1.915343018901915384e+00,-1.155302682928285529e+00,2.498505214408746344e-01,-2.342020143325668213e-01,1.560307379214090906e-01,9.652703644666139615e-01,-6.330222215594890622e-01,1.116188970489496585e-01,0.000000000000000000e+00,7.660444431189781245e-01,3.766132625124844063e-02
9.992919214003086470e-01,-2.151818324960346196e+00,5.134758615231727052e-01,-1.693476859887957042e+00,-1.175685172022465474e+00,2.468823995073768929e-01,-2.342020143325668213e-01,1.560307379214090906e-01,1.065270364466613939e+00,-6.330222215594888402e-01,1.116188970489496307e-01,0.000000000000000000e+00,7.660444431189782355e-01,2.104567565966817058e-02
1.686177833538993198e+00,-7.639818579627405404e-01,1.958049284987059657e+00,-4.153106405576248328e+00,-1.855696889693404295e+00,2.263133703293066790e-01,-1.342020143325668435e-01,7.560307379214090684e-01,1.347296355333860995e-01,-7.544065067354890353e-01,1.330222215594889790e-01,0.000000000000000000e+00,6.427876096865392519e-01,6.947010532620498391e-02
1.684288314560241639e+00,-9.888234509194409050e-01,1.977458498938726938e+00,-3.948800726059981336e+00,-1.853430241430885417e+00,2.256436057949375018e-01,-1.342020143325668435e-01,7.560307379214090684e-01,2.347296355333861051e-01,-7.544065067354890353e-01,1.330222215594889790e-01,0.000000000000000000e+00,6.427876096865392519e-01,6.864963456317557666e-02
1.705742086603063035e+00,-8.191454811365698196e-01,2.232718801494093963e+00,-4.374648051002821170e+00,-1.873200305345326999e+00,2.289880219217925728e-01,-1.342020143325668435e-01,6.560307379214092016e-01,1.347296355333860995e-01,-7.544065067354890353e-01,1.330222215594890345e-01,0.000000000000000000e+00,6.427876096865392519e-01,4.635999762742000485e-02
1.702959919578125980e+00,-1.091643799716711438e+00,2.257838307734805205e+00,-4.130512584016878819e+00,-1.870116469902622036e+00,2.275040384103025892e-01,-1.342020143325668435e-01,6.560307379214092016e-01,2.347296355333861051e-01,-7.544065067354890353e-01,1.330222215594890345e-01,0.000000000000000000e+00,6.427876096865392519e-01,4.527751694080014988e-02
1.705604029133424238e+00,-1.338783897617105145e+00,2.203985458033346667e+00,-3.830247655236638682e+00,-1.873195335653583760e+00,2.277219737648202291e-01,-1.342020143325668435e-01,6.560307379214092016e-01,3.347296355333861384e-01,-7.544065067354890353e-01,1.330222215594890345e-01,0.000000000000000000e+00,6.427876096865392519e-01,4.737254286540947684e-02
1.707876526618014035e+00,-1.526530589107386149e+00,2.079965343335115069e+00,-3.516783929535925779e+00,-1.875739676748414464e+00,2.286424009282607139e-01,-1.342020143325668435e-01,6.560307379214092016e-01,4.347296355333861162e-01,-7.544065067354890353e-01,1.330222215594890345e-01,0.000000000000000000e+00,6.427876096865392519e-01,5.134242362753811684e-02
1.706661808935089120e+00,-1.636002949758745384e+00,1.902672146473727510e+00,-3.228678767780351677e+00,-1.874270744962744928e+00,2.288684752415925394e-01,-1.342020143325668435e-01,6.560307379214092016e-01,5.347296355333860385e-01,-7.544065067354890353e-01,1.330222215594890622e-01,0.000000000000000000e+00,6.427876096865393629e-01,5.536172215582604167e-02
1.664359140901176870e+00,-7.479100264399093367e-01,2.524402325276526859e+00,-4.747271232471392821e+00,-1.823469544695020206e+00,2.191470198014152104e-01,-1.342020143325668435e-01,5.560307379214091128e-01,1.347296355333860995e-01,-7.544065067354890353e-01,1.330222215594889790e-01,0.000000000000000000e+00,6.427876096865392519e-01,2.319987480421593570e-02
1.103169791147218026e+00,-1.078558880512068496e+00,2.692554028288550949e+00,-4.561216259685323848e+00,-9.446891841974218718e-01,-2.899242356442472413e-01,-6.579798566743308430e-02,5.560307379214091128e-01,2.347296355333861051e-01,-7.544065067354890353e-01,-1.330222215594890900e-01,0.000000000000000000e+00,6.427876096865392519e-01,1.191047926973097006e-02
1.699098337030605421e+00,-1.736764102736394033e+00,2.327047796596386497e+00,-3.562536261559478667e+00,-1.861378748740506017e+00,2.241827261826391804e-01,-1.342020143325668435e-01,5.560307379214091128e-01,4.347296355333861162e-01,-7.544065067354890353e-01,1.330222215594889790e-01,0.000000000000000000e+00,6.427876096865392519e-01,3.161664365292210510e-02
1.695364677619150218e+00,-1.887511340243145819e+00,2.112164921377272186e+00,-3.189409062075201362e+00,-1.856992269012279539e+00,2.258130923717827088e-01,-1.342020143325668435e-01,5.560307379214091128e-01,5.347296355333860385e-01,-7.544065067354889242e-01,1.330222215594889235e-01,0.000000000000000000e+00,6.427876096865394739e-01,3.662239394741410858e-02
1.681442298016885717e+00,-1.924154076664867707e+00,1.873748664876557335e+00,-2.913343349162019091e+00,-1.841780720672625549e+00,2.237457036800778454e-01,-1.342020143325668435e-01,5.560307379214091128e-01,6.347296355333861273e-01,-7.544065067354889242e-01,1.330222215594889235e-01,0.000000000000000000e+00,6.427876096865394739e-01,4.015973238026238762e-02
1.671727517115568107e+00,-1.892749530924030088e+00,1.604880396500772743e+00,-2.677508476816456540e+00,-1.831277203312254631e+00,2.216528532414726582e-01,-1.342020143325668435e-01,5.560307379214091128e-01,7.347296355333861051e-01,-7.544065067354889242e-01,1.330222215594889235e-01,0.000000000000000000e+00,6.427876096865394739e-01,4.165697057684072946e-02
1.664212919590557282e+00,-1.815966686940704067e+00,1.302287437175889684e+00,-2.455347760924087908e+00,-1.823247524289944188e+00,2.194531586816917956e-01,-1.342020143325668435e-01,5.560307379214091128e-01,8.347296355333860829e-01,-7.544065067354889242e-01,1.330222215594889235e-01,0.000000000000000000e+00,6.427876096865394739e-01,3.972832119675097362e-02
1.057048821200444189e-01,-3.314190860914785208e+00,2.639676274783469001e+00,-3.018593089807738661e+00,-3.239220391520971631e-01,7.002024705542091443e-01,-1.342020143325668435e-01,4.560307379214090795e-01,4.652703644666139615e-01,-6.330222215594890622e-01,1.116188970489496585e-01,0.000000000000000000e+00,7.660444431189781245e-01,4.207530188707843746e-03
1.060269786200110087e-01,-3.087486745782827668e+00,2.414128376977274559e+00,-3.015589749924937113e+00,-3.259930817653141077e-01,6.965102383947670006e-01,-1.342020143325668435e-01,4.560307379214090795e-01,5.652703644666140503e-01,-6.330222215594890622e-01,1.116188970489496585e-01,0.000000000000000000e+00,7.660444431189781245e-01,6.030797184299406533e-03
8.612261277370217294e-02,-2.901840929150062642e+00,2.149207398770273336e+00,-2.954572158138304871e+00,-3.107610977941770436e-01,7.177256912565063152e-01,-1.342020143325668435e-01,4.560307379214090795e-01,6.652703644666140281e-01,-6.330222215594890622e-01,1.116188970489496585e-01,0.000000000000000000e+00,7.660444431189781245e-01,7.691834064433128795e-03
7.927578452649705620e-02,-2.712791362911330495e+00,1.865882739723245809e+00,-2.871012800325315251e+00,-3.049821848757474640e-01,7.291905349477070253e-01,-1.342020143325668435e-01,4.560307379214090795e-01,7.652703644666140059e-01,-6.330222215594890622e-01,1.116188970489496585e-01,0.000000000000000000e+00,7.660444431189781245e-01,8.682238515255371464e-03
7.413749296563633406e-02,-2.519982732856213214e+00,1.541739115667123405e+00,-2.748276879012596208e+00,-3.004487989342032317e-01,7.382926130462814651e-01,-1.342020143325668435e-01,4.560307379214090795e-01,8.652703644666139837e-01,-6.330222215594890622e-01,1.116188970489496585e-01,0.000000000000000000e+00,7.660444431189781245e-01,8.959387251513892259e-03
6.868036888891665415e-02,-2.300939614232954789e+00,1.142471017700696923e+00,-2.577507432418526534e+00,-2.956488213680431576e-01,7.482453232567931600e-01,-1.342020143325668435e-01,4.560307379214090795e-01,9.652703644666139615e-01,-6.330222215594890622e-01,1.116188970489496585e-01,0.000000000000000000e+00,7.660444431189781245e-01,8.052817365126566443e-03
7.335027534459284682e-02,-2.023811917089194612e+00,6.125348479130687807e-01,-2.325213099284577645e+00,-3.001720353109957329e-01,7.478614272187906753e-01,-1.342020143325668435e-01,4.560307379214090795e-01,1.065270364466613939e+00,-6.330222215594888402e-01,1.116188970489496307e-01,0.000000000000000000e+00,7.660444431189782355e-01,5.092046596421994503e-03
7.405813140601862354e-01,-3.164254767453991146e+00,2.511238860160851072e+00,-2.272915920443216553e+00,-9.179060150814721819e-01,4.381358823911611633e-02,-1.342020143325668435e-01,3.560307379214092127e-01,4.347296355333861162e-01,-7.544065067354890353e-01,1.330222215594890345e-01,0.000000000000000000e+00,6.427876096865392519e-01,7.187445870120635905e-03
7.355347390639297434e-01,-2.969683033612247947e+00,2.272049126323059109e+00,-2.228840356338878337e+00,-9.139274281930500621e-01,4.341599491012861078e-02,-1.342020143325668435e-01,3.560307379214092127e-01,5.347296355333860385e-01,-7.544065067354890353e-01,1.330222215594890345e-01,0.000000000000000000e+00,6.427876096865393629e-01,9.775062598967310806e-03
7.311878420908528575e-01,-2.793617001751691031e+00,2.012627748189731225e+00,-2.146140544766353742e+00,-9.101769993357580191e-01,4.316314456280141709e-02,-1.342020143325668435e-01,3.560307379214092127e-01,6.347296355333861273e-01,-7.544065067354890353e-01,1.330222215594890345e-01,0.000000000000000000e+00,6.427876096865393629e-01,1.187265739476891374e-02
7.179846969960631542e-01,-2.624201508250609383e+00,1.728909333753949173e+00,-2.031687540767417310e+00,-8.976527485021372765e-01,4.089565740685822959e-02,-1.342020143325668435e-01,3.560307379214092127e-01,7.347296355333861051e-01,-7.544065067354890353e-01,1.330222215594890345e-01,0.000000000000000000e+00,6.427876096865393629e-01,1.324439855928602992e-02
6.174369918398849855e-01,-2.697634182392588009e+00,1.921001010496260930e+00,-2.601359075811292332e+00,-8.047349940318854200e-01,3.392592514868409403e-01,-1.342020143325668435e-01,3.560307379214092127e-01,7.652703644666140059e-01,-6.330222215594890622e-01,1.116188970489496585e-01,0.000000000000000000e+00,7.660444431189781245e-01,1.439151781672842398e-02
5.985807690581795848e-01,-2.514966163301176394e+00,1.593581563244563570e+00,-2.458757065495088323e+00,-7.867197845522204691e-01,3.439297397691922220e-01,-1.342020143325668435e-01,3.560307379214092127e-01,8.652703644666139837e-01,-6.330222215594890622e-01,1.116188970489496585e-01,0.000000000000000000e+00,7.660444431189781245e-01,1.542914866318210836e-02
5.863643343777616979e-01,-2.300255854620304685e+00,1.188828896016755232e+00,-2.268725461572778546e+00,-7.748962766572263794e-01,3.460087871872098431e-01,-1.342020143325668435e-01,3.560307379214092127e-01,9.652703644666139615e-01,-6.330222215594890622e-01,1.116188970489496585e-01,0.000000000000000000e+00,7.660444431189781245e-01,1.439316169660127473e-02
5.777373627784495591e-01,-2.017786298512184384e+00,6.382164627089492726e-01,-2.004700661811758433e+00,-7.665582489357307683e-01,3.505472617726338447e-01,-1.342020143325668435e-01,3.560307379214092127e-01,1.065270364466613939e+00,-6.330222215594888402e-01,1.116188970489496307e-01,0.000000000000000000e+00,7.660444431189782355e-01,9.172933446133272120e-03
8.542675275301382376e-01,-2.883980859362174520e+00,1.928781188516294653e+00,-1.982176179506495606e+00,-1.043044385973955546e+00,6.928245032379141966e-02,-1.342020143325668435e-01,2.560307379214090684e-01,6.347296355333861273e-01,-7.544065067354890353e-01,1.330222215594890345e-01,0.000000000000000000e+00,6.427876096865393629e-01,2.215390580265574200e-02
1.224456982422066131e+00,-2.620456655913474542e+00,1.724468090673170195e+00,-2.073139728905477153e+00,-1.394815123106456944e+00,1.453514678397156146e-01,-1.342020143325668435e-01,2.560307379214090684e-01,7.347296355333861051e-01,-7.544065067354890353e-01,1.330222215594890345e-01,0.000000000000000000e+00,6.427876096865393629e-01,1.726641760951631507e-02
1.398398060816019361e+00,-2.627699482538197628e+00,1.951427560102718228e+00,-2.637837319875808273e+00,-1.562056694110526944e+00,1.738150778689747100e-01,-1.342020143325668435e-01,2.560307379214090684e-01,7.652703644666140059e-01,-6.330222215594890622e-01,1.116188970489496585e-01,0.000000000000000000e+00,7.660444431189781245e-01,1.261288716326579816e-02
1.540971089242181735e+00,-2.416089336662448073e+00,1.636397142306639241e+00,-2.534979958832831670e+00,-1.699599560278687305e+00,1.493976790729411031e-01,-1.342020143325668435e-01,2.560307379214090684e-01,8.652703644666139837e-01,-6.330222215594890622e-01,1.116188970489496585e-01,0.000000000000000000e+00,7.660444431189781245e-01,9.303154786841223364e-03
1.467608532997772608e+00,-2.230070083550234283e+00,8.598176834611800379e-01,-1.599591565210196853e+00,-1.632682647383187913e+00,1.871355138032271825e-01,-1.342020143325668435e-01,1.560307379214090906e-01,9.347296355333860607e-01,-7.544065067354890353e-01,1.330222215594890345e-01,0.000000000000000000e+00,6.427876096865393629e-01,2.080845052549965685e-02
1.465593080741814935e+00,-7.876296954454302668e-01,2.043679142160529150e+00,-4.222563493254717137e+00,-1.638638604415055156e+00,1.864962344823600515e-01,-3.420201433256686574e-02,7.560307379214090684e-01,1.347296355333860995e-01,-7.544065067354890353e-01,1.330222215594889790e-01,0.000000000000000000e+00,6.427876096865392519e-01,6.490540474452297093e-02
1.463887741526158859e+00,-1.025938693588765105e+00,2.063765280350892350e+00,-4.005638001550241079e+00,-1.636689539081099598e+00,1.861037360596412837e-01,-3.420201433256686574e-02,7.560307379214090684e-01,2.347296355333861051e-01,-7.544065067354890353e-01,1.330222215594889790e-01,0.000000000000000000e+00,6.427876096865392519e-01,6.395817257894421959e-02
1.414960173887514383e+00,-8.194311754288744476e-01,2.337894243681950091e+00,-4.489439210675440606e+00,-1.586345292849048905e+00,1.775185387910652168e-01,-3.420201433256686574e-02,6.560307379214092016e-01,1.347296355333860995e-01,-7.544065067354890353e-01,1.330222215594890345e-01,0.000000000000000000e+00,6.427876096865392519e-01,3.928818796010900144e-02
1.412478501892850735e+00,-1.113532801002528272e+00,2.367430862062820385e+00,-4.229203182019668716e+00,-1.583605661275942378e+00,1.770257630622793232e-01,-3.420201433256686574e-02,6.560307379214092016e-01,2.347296355333861051e-01,-7.544065067354890353e-01,1.330222215594890345e-01,0.000000000000000000e+00,6.427876096865392519e-01,3.800695939164508430e-02
1.419560327824281876e+00,-1.391953248449939506e+00,2.307929135103472085e+00,-3.892219516149511449e+00,-1.591362454387864389e+00,1.781852542318395627e-01,-3.420201433256686574e-02,6.560307379214092016e-01,3.347296355333861384e-01,-7.544065067354890353e-01,1.330222215594890345e-01,0.000000000000000000e+00,6.427876096865392519e-01,4.079545529693662936e-02
1.424868072081669546e+00,-1.605629894187130535e+00,2.172173358022852163e+00,-3.539911819173424679e+00,-1.597273037307972876e+00,1.791603252368335064e-01,-3.420201433256686574e-02,6.560307379214092016e-01,4.347296355333861162e-01,-7.544065067354890353e-01,1.330222215594890345e-01,0.000000000000000000e+00,6.427876096865392519e-01,4.568688931492814742e-02
1.423332552114422889e+00,-1.725084057776833601e+00,1.984358567119323791e+00,-3.230103571450240629e+00,-1.595650562528213579e+00,1.789813575476903729e-01,-3.420201433256686574e-02,6.560307379214092016e-01,5.347296355333860385e-01,-7.544065067354890353e-01,1.330222215594890622e-01,0.000000000000000000e+00,6.427876096865393629e-01,5.041582627629374175e-02
7.333899057166797242e-01,-7.023190934925439555e-01,2.632006091839141249e+00,-4.772744146925919750e+00,-5.868472514264787554e-01,-4.256960954653678519e-01,3.420201433256688656e-02,5.560307379214091128e-01,1.347296355333860995e-01,-7.544065067354890353e-01,-1.330222215594890622e-01,0.000000000000000000e+00,6.427876096865392519e-01,9.727267294531004999e-03
7.316798906511169376e-01,-1.042829246515475150e+00,2.690958708684382472e+00,-4.514042155617774554e+00,-5.838510426490362004e-01,-4.069363708446714356e-01,3.420201433256688656e-02,5.560307379214091128e-01,2.347296355333861051e-01,-7.544065067354890353e-01,-1.330222215594890622e-01,0.000000000000000000e+00,6.427876096865392519e-01,8.441290304758819474e-03
8.663073666708888121e-01,-1.064842166534325729e+00,2.454120210185126272e+00,-4.775567475354289826e+00,-7.174494977511769456e-01,1.163987305078204547e-02,3.420201433256688656e-02,5.560307379214091128e-01,2.652703644666140059e-01,-6.330222215594890622e-01,-1.116188970489496862e-01,0.000000000000000000e+00,7.660444431189781245e-01,1.755172111442732455e-02
1.238165635703410761e+00,-1.861015320052271438e+00,2.466197946908697869e+00,-3.589597080782702232e+00,-1.402171844292826819e+00,1.494879281179860020e-01,-3.420201433256686574e-02,5.560307379214091128e-01,4.347296355333861162e-01,-7.544065067354890353e-01,1.330222215594889790e-01,0.000000000000000000e+00,6.427876096865392519e-01,2.222183886900715860e-02
1.242536316536466678e+00,-2.050308960112167345e+00,2.210814312859874065e+00,-3.131587967479303014e+00,-1.408244269794270975e+00,1.481180796446839032e-01,-3.420201433256686574e-02,5.560307379214091128e-01,5.347296355333860385e-01,-7.544065067354889242e-01,1.330222215594889235e-01,0.000000000000000000e+00,6.427876096865394739e-01,2.740931041880625280e-02
1.208041505568879792e+00,-2.084615721457243165e+00,1.959827863408800885e+00,-2.842221613013545589e+00,-1.372528992775376544e+00,1.415321573296974833e-01,-3.420201433256686574e-02,5.560307379214091128e-01,6.347296355333861273e-01,-7.544065067354889242e-01,1.330222215594889235e-01,0.000000000000000000e+00,6.427876096865394739e-01,2.983800164954842835e-02
1.175157370370161658e+00,-2.045144772085691454e+00,1.686354839282652174e+00,-2.607673171428519954e+00,-1.338201048742474253e+00,1.357629958564508799e-01,-3.420201433256686574e-02,5.560307379214091128e-01,7.347296355333861051e-01,-7.544065067354889242e-01,1.330222215594889235e-01,0.000000000000000000e+00,6.427876096865394739e-01,3.065083021542661448e-02
1.148092025508136604e+00,-1.959981739498009912e+00,1.382388879785188207e+00,-2.390621961289808084e+00,-1.309972850900819719e+00,1.315896800297363944e-01,-3.420201433256686574e-02,5.560307379214091128e-01,8.347296355333860829e-01,-7.544065067354889242e-01,1.330222215594889235e-01,0.000000000000000000e+00,6.427876096865394739e-01,2.915685116981906258e-02
4.657427792426484525e-01,-2.705617971506986130e+00,2.647735844157038443e+00,-2.827347983406637955e+00,-6.376903620453809873e-01,-3.095369180774474455e-02,-3.420201433256686574e-02,4.560307379214090795e-01,4.347296355333861162e-01,-7.544065067354890353e-01,1.330222215594890345e-01,0.000000000000000000e+00,6.427876096865392519e-01,1.478871301782900410e-03
5.763978197800586623e-01,-2.646201273462459369e+00,2.360403707882944513e+00,-2.618795946007192121e+00,-7.525256614690598589e-01,2.028050473142317851e-03,-3.420201433256686574e-02,4.560307379214090795e-01,5.347296355333860385e-01,-7.544065067354890353e-01,1.330222215594890345e-01,0.000000000000000000e+00,6.427876096865393629e-01,2.058187359719453394e-03
3.855919034175598892e-01,-2.708201135511315361e+00,2.496777883880497040e+00,-3.236716667320455265e+00,-5.793186178766220884e-01,4.325642164782345644e-01,-3.420201433256686574e-02,4.560307379214090795e-01,5.652703644666140503e-01,-6.330222215594890622e-01,1.116188970489496585e-01,0.000000000000000000e+00,7.660444431189781245e-01,1.787809866751940415e-03
3.515183414706361531e-01,-2.626867677861302042e+00,2.221126358172467619e+00,-3.051994847615143502e+00,-5.476399742404424176e-01,4.460252660444225525e-01,-3.420201433256686574e-02,4.560307379214090795e-01,6.652703644666140281e-01,-6.330222215594890622e-01,1.116188970489496585e-01,0.000000000000000000e+00,7.660444431189781245e-01,2.820132681081344468e-03
3.107635811286335037e-01,-2.504269287564709678e+00,1.921615537860230871e+00,-2.892130491362447930e+00,-5.089731530512904278e-01,4.671471520065509364e-01,-3.420201433256686574e-02,4.560307379214090795e-01,7.652703644666140059e-01,-6.330222215594890622e-01,1.116188970489496585e-01,0.000000000000000000e+00,7.660444431189781245e-01,3.579510274679988113e-03
2.787154067864164864e-01,-2.350368867582369514e+00,1.584566227216992029e+00,-2.725980544989968557e+00,-4.783744923840516639e-01,4.871856082909332142e-01,-3.420201433256686574e-02,4.560307379214090795e-01,8.652703644666139837e-01,-6.330222215594890622e-01,1.116188970489496585e-01,0.000000000000000000e+00,7.660444431189781245e-01,3.873224748004789816e-03
2.280266369918582114e-01,-2.166314825134024513e+00,1.188830837995451972e+00,-2.553506694856158887e+00,-4.316072838455520810e-01,5.305855329509366891e-01,-3.420201433256686574e-02,4.560307379214090795e-01,9.652703644666139615e-01,-6.330222215594890622e-01,1.116188970489496585e-01,0.000000000000000000e+00,7.660444431189781245e-01,3.698595780080253699e-03
1.869978610899660221e-01,-1.902967068290634778e+00,6.390710710304450259e-01,-2.312362489568977164e+00,-3.950410225974922973e-01,5.787250848821442473e-01,-3.420201433256686574e-02,4.560307379214090795e-01,1.065270364466613939e+00,-6.330222215594888402e-01,1.116188970489496307e-01,0.000000000000000000e+00,7.660444431189782355e-01,2.381542811843422730e-03
5.875433469857429536e-01,-2.685733335505531283e+00,2.053437216283313216e+00,-2.268076563230536191e+00,-7.837944358048962723e-01,7.400752236199929432e-04,-3.420201433256686574e-02,3.560307379214092127e-01,6.347296355333861273e-01,-7.544065067354890353e-01,1.330222215594890345e-01,0.000000000000000000e+00,6.427876096865393629e-01,4.323042473758424015e-03
5.729881079124340415e-01,-2.539265613500387264e+00,1.765485791804935811e+00,-2.124124721322178999e+00,-7.701810503458936807e-01,-3.446103159146860027e-03,-3.420201433256686574e-02,3.560307379214092127e-01,7.347296355333861051e-01,-7.544065067354890353e-01,1.330222215594890345e-01,0.000000000000000000e+00,6.427876096865393629e-01,5.200084533762110682e-03
5.433581656286552430e-01,-2.382678230798384256e+00,1.455846186896277539e+00,-1.968036424213584823e+00,-7.409110225799634408e-01,-1.060102491826473217e-02,-3.420201433256686574e-02,3.560307379214092127e-01,8.347296355333860829e-01,-7.544065067354890353e-01,1.330222215594890345e-01,0.000000000000000000e+00,6.427876096865393629e-01,5.429471104147883843e-03
1.767783769303741481e+00,-2.525445535306180656e+00,1.957261928000003648e+00,-2.755996314114184553e+00,-1.946056240957640515e+00,1.086505908136611714e-01,-3.420201433256686574e-02,2.560307379214090684e-01,7.652703644666140059e-01,-6.330222215594890622e-01,1.116188970489496585e-01,0.000000000000000000e+00,7.660444431189781245e-01,4.967071582968551891e-03
2.303685899529171355e+00,-2.245466438148127519e+00,1.602524853761213119e+00,-2.766189650449073945e+00,-2.466953267095328695e+00,-3.525636736064532983e-02,-3.420201433256686574e-02,2.560307379214090684e-01,8.652703644666139837e-01,-6.330222215594890622e-01,1.116188970489496585e-01,0.000000000000000000e+00,7.660444431189781245e-01,2.269865593161736993e-03
2.927527671689830413e+00,-2.286109886285178305e+00,1.060639046044900891e+00,-1.537164667510450000e+00,-2.726600664682852226e+00,1.748816487816657328e-01,3.420201433256688656e-02,1.560307379214090906e-01,9.347296355333860607e-01,-7.544065067354890353e-01,-1.330222215594890900e-01,0.000000000000000000e+00,6.427876096865393629e-01,6.392195447136462226e-03
2.429164294427287096e+00,-1.856362133074760168e+00,5.911554211949170412e-01,-2.192610204993176382e+00,-2.575442665667120767e+00,-9.614923569881303478e-02,-3.420201433256686574e-02,1.560307379214090906e-01,1.065270364466613939e+00,-6.330222215594888402e-01,1.116188970489496307e-01,0.000000000000000000e+00,7.660444431189782355e-01,1.637798133515536289e-03
1.297027190900478910e+00,-8.500043072283661738e-01,1.750085088612064466e+00,-7.365853289635180268e-01,-4.809191602690686906e+00,3.298912490070436743e+00,6.579798566743322308e-02,8.560307379214091572e-01,3.472963553338608705e-02,-7.544065067354890353e-01,1.330222215594889790e-01,0.000000000000000000e+00,6.427876096865392519e-01,8.286364037793761406e-02
1.225638124821834429e+00,-9.847756304332218047e-01,2.009395114174223451e+00,-8.518799843821900364e-01,1.399703664811433823e+00,3.285745281643927651e+00,6.579798566743322308e-02,7.560307379214090684e-01,3.472963553338608705e-02,-7.544065067354890353e-01,1.330222215594889790e-01,0.000000000000000000e+00,6.427876096865392519e-01,6.264287704671776813e-02
1.225656006129500764e+00,-1.183956552788096195e+00,1.967230032459721611e+00,-6.114162170503472105e-01,1.399750956355608533e+00,3.285907998808225372e+00,6.579798566743322308e-02,7.560307379214090684e-01,1.347296355333860995e-01,-7.544065067354890353e-01,1.330222215594889790e-01,0.000000000000000000e+00,6.427876096865392519e-01,6.375630251039254848e-02
1.228106727559727274e+00,-1.335423435150820515e+00,1.862333282743832141e+00,-3.556690811869108182e-01,1.402495180778825290e+00,-2.994498392883847337e+00,6.579798566743322308e-02,7.560307379214090684e-01,2.347296355333861051e-01,-7.544065067354890353e-01,1.330222215594889790e-01,0.000000000000000000e+00,6.427876096865392519e-01,6.621453197629111054e-02
1.107492360537905007e+00,-1.082832400301825260e+00,2.320641033806008391e+00,-1.066484397111475468e+00,1.282073043148269642e+00,3.266409364246000813e+00,6.579798566743322308e-02,6.560307379214092016e-01,3.472963553338608705e-02,-7.544065067354890353e-01,1.330222215594890345e-01,0.000000000000000000e+00,6.427876096865392519e-01,3.626912053663673002e-02
1.108686436339292758e+00,-1.345138634963307434e+00,2.273722504370116138e+00,-7.590474143981805755e-01,1.282951796065898931e+00,3.267122436062468882e+00,6.579798566743322308e-02,6.560307379214092016e-01,1.347296355333860995e-01,-7.544065067354890353e-01,1.330222215594890345e-01,0.000000000000000000e+00,6.427876096865392519e-01,3.814993487431785069e-02
1.119468024252898264e+00,-1.552823330879440134e+00,2.141049911482771240e+00,-4.164075614363443312e-01,1.294579054835916621e+00,-3.012676681896113262e+00,6.579798566743322308e-02,6.560307379214092016e-01,2.347296355333861051e-01,-7.544065067354890353e-01,1.330222215594890345e-01,0.000000000000000000e+00,6.427876096865392519e-01,4.272382158976765348e-02
1.119532260394963119e+00,-1.672120698047174558e+00,1.958139910618253099e+00,-1.118992662637350033e-01,1.294872560415049279e+00,-3.013309383435363475e+00,6.579798566743322308e-02,6.560307379214092016e-01,3.347296355333861384e-01,-7.544065067354890353e-01,1.330222215594890345e-01,0.000000000000000000e+00,6.427876096865392519e-01,4.686614236565015551e-02
1.116147056960659967e+00,-1.714580443260188325e+00,1.737315112880894352e+00,1.515441795129170710e-01,1.291338665167110600e+00,-3.013937477001842780e+00,6.579798566743322308e-02,6.560307379214092016e-01,4.347296355333861162e-01,-7.544065067354890353e-01,1.330222215594890345e-01,0.000000000000000000e+00,6.427876096865392519e-01,4.953388696666445601e-02
1.111699332668040885e+00,-1.699979982959574976e+00,1.480897723172971636e+00,3.916492149794552069e-01,1.286646107931933125e+00,-3.014207549550269150e+00,6.579798566743322308e-02,6.560307379214092016e-01,5.347296355333860385e-01,-7.544065067354890353e-01,1.330222215594890622e-01,0.000000000000000000e+00,6.427876096865393629e-01,4.948766082839121255e-02
8.289703768194106592e-01,-1.194600335865129148e+00,2.635390251664405437e+00,-1.243561656551445793e+00,1.004746862937362595e+00,3.209244985020037522e+00,6.579798566743322308e-02,5.560307379214091128e-01,3.472963553338608705e-02,-7.544065067354890353e-01,1.330222215594889790e-01,0.000000000000000000e+00,6.427876096865392519e-01,1.277407801254191663e-02
8.266732781639387628e-01,-1.799008138779812471e+00,2.440310626790620052e+00,-4.577488067866630206e-01,9.982750899800629796e-01,-3.064622702081048811e+00,6.579798566743322308e-02,5.560307379214091128e-01,2.347296355333861051e-01,-7.544065067354890353e-01,1.330222215594889790e-01,0.000000000000000000e+00,6.427876096865392519e-01,1.804399072900017206e-02
