OSUrobotics/apple-harvest/harvest_control/resource/voxel_ik_data.csv
j1,j2,j3,j4,j5,j6,end_effector_x,end_effector_y,end_effector_z,quat_x,quat_y,quat_z,quat_w,manipulability
2.580334403170555735e+00,-1.971663186265348588e-01,7.477320777545676256e-02,3.267513940941797479e+00,-2.121901504290805374e+00,-4.467730886109913535e-01,-9.349174391323662459e-01,6.148546698146371003e-01,4.000000000000000222e-01,-6.370811961317673910e-01,-3.068021341766004051e-01,0.000000000000000000e+00,7.071067811865475727e-01,8.547987526709443368e-03
2.686089108570230088e+00,-3.333960959854683770e-01,5.982118606262044613e-01,2.880076943886067387e+00,-2.228054186769289569e+00,-4.465990854919417719e-01,-9.349174391323662459e-01,5.148546698146370115e-01,3.000000000000000444e-01,-6.370811961317673910e-01,-3.068021341766004051e-01,0.000000000000000000e+00,7.071067811865475727e-01,5.795578603099815068e-02
2.685166445348020847e+00,-4.255989602182333464e-01,5.393815976538530732e-01,3.029503614365645081e+00,-2.226390304523929942e+00,-4.475963065204686120e-01,-9.349174391323662459e-01,5.148546698146370115e-01,4.000000000000000222e-01,-6.370811961317673910e-01,-3.068021341766004051e-01,0.000000000000000000e+00,7.071067811865475727e-01,5.268304553513931954e-02
2.324414413269551005e+00,-1.958073044783194272e-02,1.767955066835922573e-01,3.221092395215833015e+00,-1.862041681054475317e+00,-3.782303907230553652e-01,-8.365491948138714662e-01,8.182430454012609156e-01,1.333781400934471728e-01,-7.044058256496908976e-01,-3.392239669730521268e-01,0.000000000000000000e+00,6.234898018587337054e-01,2.345094774792256739e-02
2.324641423884927782e+00,-1.316566377838534752e-01,1.676851594206108242e-01,3.340646383280911458e+00,-1.862476809291612856e+00,-3.786525198602860853e-01,-8.365491948138714662e-01,8.182430454012609156e-01,2.333781400934471784e-01,-7.044058256496908976e-01,-3.392239669730521268e-01,0.000000000000000000e+00,6.234898018587337054e-01,2.227323093599618137e-02
2.322502082834099202e+00,-2.390838453542705466e-01,1.518164904789360559e-01,3.461820300003213724e+00,-1.859282904875091846e+00,-3.797398918342387852e-01,-8.365491948138714662e-01,8.182430454012609156e-01,3.333781400934472394e-01,-7.044058256496910086e-01,-3.392239669730521268e-01,0.000000000000000000e+00,6.234898018587335944e-01,1.996372645242775606e-02
2.484179928905977164e+00,-9.801120227564334708e-02,3.172841903034653299e-01,3.475801421744290742e+00,-2.171076005175188506e+00,1.162676206450041355e-01,-8.699273349073185502e-01,7.182430454012610488e-01,6.508256086763372639e-02,-8.254950557474575179e-01,-1.884138596156904322e-01,0.000000000000000000e+00,5.320320765153366827e-01,3.680590195009663529e-02
2.420749688026274882e+00,-7.121693111665512721e-02,2.954052478987679864e-01,3.160462529111499386e+00,-1.962745964996808423e+00,-3.545562986607426192e-01,-8.365491948138714662e-01,7.182430454012610488e-01,1.333781400934471728e-01,-7.044058256496908976e-01,-3.392239669730521268e-01,0.000000000000000000e+00,6.234898018587337054e-01,3.721179676626394650e-02
2.421072903246232588e+00,-1.913187542498629989e-01,2.842049934294331170e-01,3.292175870520644754e+00,-1.963249786983901624e+00,-3.543265251636614765e-01,-8.365491948138714662e-01,7.182430454012610488e-01,2.333781400934471784e-01,-7.044058256496908976e-01,-3.392239669730521268e-01,0.000000000000000000e+00,6.234898018587337054e-01,3.589642486335468952e-02
2.418823649403308629e+00,-2.966343368094669364e-01,2.457925902598596668e-01,3.435590446235994300e+00,-1.959583421927683755e+00,-3.549467601387806259e-01,-8.365491948138714662e-01,7.182430454012610488e-01,3.333781400934472394e-01,-7.044058256496910086e-01,-3.392239669730521268e-01,0.000000000000000000e+00,6.234898018587335944e-01,3.083568341768588850e-02
2.413957758330552039e+00,-3.915023545028327723e-01,1.972011650101881675e-01,3.576737372397325032e+00,-1.951875626003789721e+00,-3.568961375526878421e-01,-8.365491948138714662e-01,7.182430454012610488e-01,4.333781400934472172e-01,-7.044058256496910086e-01,-3.392239669730521268e-01,0.000000000000000000e+00,6.234898018587335944e-01,2.427967294484414257e-02
2.406697919163117483e+00,-4.788519213411314701e-01,1.504253516519544753e-01,3.705666095258769666e+00,-1.940763073323507504e+00,-3.603990721000043806e-01,-8.365491948138714662e-01,7.182430454012610488e-01,5.333781400934471950e-01,-7.044058256496910086e-01,-3.392239669730521268e-01,0.000000000000000000e+00,6.234898018587335944e-01,1.796053672671142284e-02
2.511432162934338130e+00,-3.684932959161204002e-01,9.275522280807936282e-01,2.835873191608382804e+00,-2.045791510930881518e+00,-3.300766322117279494e-01,-8.365491948138714662e-01,6.182430454012609600e-01,1.333781400934471728e-01,-7.044058256496908976e-01,-3.392239669730521268e-01,0.000000000000000000e+00,6.234898018587337054e-01,8.936792093900880474e-02
2.510683379062987886e+00,-5.099585513237561152e-01,9.442989176708098675e-01,2.959391066109978929e+00,-2.044697260519263260e+00,-3.308077723367769396e-01,-8.365491948138714662e-01,6.182430454012609600e-01,2.333781400934471784e-01,-7.044058256496908976e-01,-3.392239669730521268e-01,0.000000000000000000e+00,6.234898018587337054e-01,9.024233205099076172e-02
2.520372657532832683e+00,1.774588820506986797e-01,-2.050478999251324486e-01,2.911894806299291982e+00,-2.060140220336874162e+00,-5.710653363129268856e-01,-8.365491948138714662e-01,6.182430454012609600e-01,2.666218599065529049e-01,-5.617449009293669082e-01,-2.705220865321325552e-01,0.000000000000000000e+00,7.818314824680298036e-01,2.349566129603139486e-02
2.532738402646214748e+00,-3.327981475772142095e-01,3.228338639204149652e-01,3.150869595295688441e+00,-2.089842121821136711e+00,-4.489766824986074489e-01,-8.349174391323662681e-01,6.148546698146371003e-01,4.000000000000000222e-01,-6.370811961317673910e-01,-3.068021341766004051e-01,0.000000000000000000e+00,7.071067811865475727e-01,3.642066686849522450e-02
2.514482303577703970e+00,-5.334547541710348284e-01,2.113506073360668924e-01,3.716371011819831427e+00,-2.050713587204741728e+00,-3.296695660480661316e-01,-8.365491948138714662e-01,6.182430454012609600e-01,5.333781400934471950e-01,-7.044058256496910086e-01,-3.392239669730521268e-01,0.000000000000000000e+00,6.234898018587335944e-01,2.364743762418645978e-02
2.504242129117255189e+00,-6.067703450859445180e-01,1.475405258216276605e-01,3.844702905538105231e+00,-2.034978365105470477e+00,-3.359113767956959928e-01,-8.365491948138714662e-01,6.182430454012609600e-01,6.333781400934472838e-01,-7.044058256496910086e-01,-3.392239669730521268e-01,0.000000000000000000e+00,6.234898018587335944e-01,1.587002994092499494e-02
2.502532873867940211e+00,-3.936410042154790401e-01,-1.982473902023118573e-02,3.306313088838061631e+00,-2.031955179317282312e+00,-5.631832971178295510e-01,-8.365491948138714662e-01,6.182430454012609600e-01,6.666218599065528716e-01,-5.617449009293669082e-01,-2.705220865321325552e-01,0.000000000000000000e+00,7.818314824680299147e-01,2.149706407824825919e-03
2.645680511825410086e+00,-4.478313040410669688e-01,8.274745616786365332e-01,2.761638907411751109e+00,-2.201952923930466710e+00,-4.488235551082255248e-01,-8.349174391323662681e-01,5.148546698146370115e-01,3.000000000000000444e-01,-6.370811961317673910e-01,-3.068021341766004051e-01,0.000000000000000000e+00,7.071067811865475727e-01,7.398626246036899001e-02
2.648362000598318389e+00,-5.141485884939055451e-01,6.819734608105187945e-01,2.974185559272647161e+00,-2.206627054224570283e+00,-4.483867668690197372e-01,-8.349174391323662681e-01,5.148546698146370115e-01,4.000000000000000222e-01,-6.370811961317673910e-01,-3.068021341766004051e-01,0.000000000000000000e+00,7.071067811865475727e-01,6.392455581873800197e-02
2.624805481348356562e+00,-7.778149942514250847e-01,6.764309325195396738e-01,3.510970479309957426e+00,-2.156210625349530119e+00,-2.974869375239213576e-01,-8.365491948138714662e-01,5.182430454012608712e-01,5.333781400934471950e-01,-7.044058256496910086e-01,-3.392239669730521268e-01,0.000000000000000000e+00,6.234898018587335944e-01,6.252304948146769625e-02
2.634913365034086130e+00,-2.486530622619900488e-01,-1.124249146816504452e-01,3.227850155181771097e+00,-2.172497016000859649e+00,-6.058669421642790542e-01,-8.365491948138714662e-01,5.182430454012608712e-01,5.666218599065528938e-01,-5.617449009293669082e-01,-2.705220865321325552e-01,0.000000000000000000e+00,7.818314824680299147e-01,1.157933991686874858e-02
2.629609674129004482e+00,-5.754095256768302358e-01,6.462788599956893754e-02,3.650510552377025153e+00,-2.175199940136283594e+00,-4.496950192993226514e-01,-8.349174391323662681e-01,5.148546698146370115e-01,7.000000000000000666e-01,-6.370811961317673910e-01,-3.068021341766004051e-01,0.000000000000000000e+00,7.071067811865475727e-01,6.182678231168648071e-03
2.753903416449572372e+00,-7.126288825768258839e-01,2.716861623392261560e-01,3.880795726361054410e+00,-2.282434808519356206e+00,-2.505218880000925630e-01,-8.365491948138714662e-01,4.182430454012610044e-01,6.333781400934472838e-01,-7.044058256496910086e-01,-3.392239669730521268e-01,0.000000000000000000e+00,6.234898018587335944e-01,2.388504221516180026e-02
2.752019156479398099e+00,-2.678255226411287993e-01,-3.433446952308084055e-01,3.456125877804832047e+00,-2.279634377932480582e+00,-6.452544995970014297e-01,-8.365491948138714662e-01,4.182430454012610044e-01,6.666218599065528716e-01,-5.617449009293669082e-01,-2.705220865321325552e-01,0.000000000000000000e+00,7.818314824680299147e-01,2.987260213432333875e-02
2.740211970044947876e+00,-5.146016761772506110e-01,-5.473085236026301037e-02,3.418976363244255801e+00,-2.260664081939117054e+00,-6.396407360201492587e-01,-8.365491948138714662e-01,4.182430454012610044e-01,7.666218599065528494e-01,-5.617449009293669082e-01,-2.705220865321325552e-01,0.000000000000000000e+00,7.818314824680299147e-01,4.719267666699241900e-03
2.164878584999439859e+00,-2.320776026062995601e-02,1.861007552165763190e-01,3.206971159907158420e+00,-1.709051649969094644e+00,-4.158857467902916105e-01,-7.365491948138713774e-01,9.182430454012610044e-01,1.333781400934471728e-01,-7.044058256496906756e-01,-3.392239669730525709e-01,0.000000000000000000e+00,6.234898018587335944e-01,2.547329217741962568e-02
2.165105593457726574e+00,-1.361284353604169106e-01,1.769634604402560984e-01,3.327635326249595682e+00,-1.709401089643822536e+00,-4.160292720921461296e-01,-7.365491948138713774e-01,9.182430454012610044e-01,2.333781400934471784e-01,-7.044058256496906756e-01,-3.392239669730525709e-01,0.000000000000000000e+00,6.234898018587335944e-01,2.426124758691257724e-02
2.163013777997665255e+00,-2.434750113727842391e-01,1.592453277749564799e-01,3.450914066710626393e+00,-1.706565147697233886e+00,-4.167404819606487232e-01,-7.365491948138713774e-01,9.182430454012610044e-01,3.333781400934472394e-01,-7.044058256496907866e-01,-3.392239669730526264e-01,0.000000000000000000e+00,6.234898018587334834e-01,2.160485333933976487e-02
2.330191554106972873e+00,-1.144090688063518074e-01,3.603780847515806740e-01,3.404047640473024661e+00,-2.043089629164250631e+00,2.638419610469390497e-02,-7.699273349073185724e-01,8.182430454012609156e-01,6.508256086763372639e-02,-8.254950557474575179e-01,-1.884138596156904322e-01,0.000000000000000000e+00,5.320320765153366827e-01,4.452678337046658136e-02
2.248971215325688888e+00,-1.148821112210741402e-01,3.908582368865503032e-01,3.095641045683784842e+00,-1.796781749186816546e+00,-3.967889553155669047e-01,-7.365491948138713774e-01,8.182430454012609156e-01,1.333781400934471728e-01,-7.044058256496906756e-01,-3.392239669730525709e-01,0.000000000000000000e+00,6.234898018587335944e-01,5.085730885958025110e-02
2.249110635122759216e+00,-2.450294605010394922e-01,3.939809453034162634e-01,3.223568146852326954e+00,-1.796950130418525360e+00,-3.965550562320020456e-01,-7.365491948138713774e-01,8.182430454012609156e-01,2.333781400934471784e-01,-7.044058256496906756e-01,-3.392239669730525709e-01,0.000000000000000000e+00,6.234898018587335944e-01,5.128333819513161695e-02
2.247259017018653271e+00,-3.432981257166311528e-01,3.346778140499619969e-01,3.381409973139791081e+00,-1.794218059075018523e+00,-3.969101668226855950e-01,-7.365491948138713774e-01,8.182430454012609156e-01,3.333781400934472394e-01,-7.044058256496907866e-01,-3.392239669730526264e-01,0.000000000000000000e+00,6.234898018587334834e-01,4.349551438781007473e-02
2.242855315849856979e+00,-4.216855935072773565e-01,2.464864736873812190e-01,3.546521600911992422e+00,-1.787884759314369854e+00,-3.982145058611925581e-01,-7.365491948138713774e-01,8.182430454012609156e-01,4.333781400934472172e-01,-7.044058256496907866e-01,-3.392239669730526264e-01,0.000000000000000000e+00,6.234898018587334834e-01,3.161946703985370200e-02
2.235685536882062507e+00,-4.975077471265684781e-01,1.717292723846694236e-01,3.692858166454162649e+00,-1.777855474226538224e+00,-4.006906265013498447e-01,-7.365491948138713774e-01,8.182430454012609156e-01,5.333781400934471950e-01,-7.044058256496907866e-01,-3.392239669730526264e-01,0.000000000000000000e+00,6.234898018587334834e-01,2.137591562295468664e-02
2.236755154471585794e+00,-4.365792934621350874e-01,6.719598877898604050e-02,3.509741704279660368e+00,-1.783340233391415897e+00,-4.488998027265482249e-01,-7.349174391323662903e-01,8.148546698146370559e-01,6.000000000000000888e-01,-6.370811961317673910e-01,-3.068021341766004051e-01,0.000000000000000000e+00,7.071067811865475727e-01,8.207291398703844484e-03
2.423679877987566122e+00,-2.075884564908297703e-01,5.593384609518040618e-01,3.328089053250402163e+00,-2.130932323978862009e+00,8.170877147291492892e-02,-7.699273349073185724e-01,7.182430454012610488e-01,6.508256086763372639e-02,-8.254950557474575179e-01,-1.884138596156904322e-01,0.000000000000000000e+00,5.320320765153366827e-01,6.254578929975668222e-02
2.336917907165680042e+00,-3.400374247449501897e-01,8.745585194277898378e-01,2.843475174946684003e+00,-1.883640734194687028e+00,-3.754867064953372191e-01,-7.365491948138713774e-01,7.182430454012610488e-01,1.333781400934471728e-01,-7.044058256496906756e-01,-3.392239669730525709e-01,0.000000000000000000e+00,6.234898018587335944e-01,9.260324919880809358e-02
2.335131273602789381e+00,-4.993149053431999440e-01,9.147361711411318153e-01,2.963295450344223703e+00,-1.880935809757795285e+00,-3.756622492296994298e-01,-7.365491948138713774e-01,7.182430454012610488e-01,2.333781400934471784e-01,-7.044058256496906756e-01,-3.392239669730525709e-01,0.000000000000000000e+00,6.234898018587335944e-01,9.494839781763915465e-02
2.336961409469406004e+00,-4.831067967135126984e-01,9.014902310478416503e-01,2.723465397674038613e+00,-1.889485719920881879e+00,-4.485568914028636445e-01,-7.349174391323662903e-01,7.148546698146371892e-01,3.000000000000000444e-01,-6.370811961317673910e-01,-3.068021341766004051e-01,0.000000000000000000e+00,7.071067811865475727e-01,9.114430724815579532e-02
2.341725340851763981e+00,-5.355093067355184422e-01,7.269758932047268862e-01,2.950737137302334556e+00,-1.896642363475180115e+00,-4.484410863260069324e-01,-7.349174391323662903e-01,7.148546698146371892e-01,4.000000000000000222e-01,-6.370811961317673910e-01,-3.068021341766004051e-01,0.000000000000000000e+00,7.071067811865475727e-01,7.871580383945647741e-02
2.344901169801629770e+00,-4.963896602859991236e-01,3.759077951885735347e-01,3.263374655531826818e+00,-1.901508122699488545e+00,-4.482174485919339646e-01,-7.349174391323662903e-01,7.148546698146371892e-01,5.000000000000000000e-01,-6.370811961317673910e-01,-3.068021341766004051e-01,0.000000000000000000e+00,7.071067811865475727e-01,4.413725902587835315e-02
2.322863433309247938e+00,-6.419636527525897085e-01,1.794453877715509460e-01,3.834766009804507991e+00,-1.863399079347012988e+00,-3.803277927055750407e-01,-7.365491948138713774e-01,7.182430454012610488e-01,6.333781400934472838e-01,-7.044058256496907866e-01,-3.392239669730526264e-01,0.000000000000000000e+00,6.234898018587334834e-01,2.033057971080332385e-02
2.325590565886783700e+00,-5.753355837176805654e-01,6.826647794908985434e-02,3.646430821437955050e+00,-1.872809066206377215e+00,-4.493037486615178988e-01,-7.349174391323662903e-01,7.148546698146371892e-01,7.000000000000000666e-01,-6.370811961317673910e-01,-3.068021341766004051e-01,0.000000000000000000e+00,7.071067811865475727e-01,7.584496296701112063e-03
2.432269519319129714e+00,-5.141913837868687942e-01,1.257337121742613251e+00,2.643075245212361146e+00,-1.972815329094895764e+00,-3.513753671514723842e-01,-7.365491948138713774e-01,6.182430454012609600e-01,1.333781400934471728e-01,-7.044058256496906756e-01,-3.392239669730525709e-01,0.000000000000000000e+00,6.234898018587335944e-01,9.960015501113579639e-02
2.427811421499510125e+00,-6.866316982244129452e-01,1.303081750938162031e+00,2.768219681349571637e+00,-1.966469375439782619e+00,-3.530251506721721610e-01,-7.365491948138713774e-01,6.182430454012609600e-01,2.333781400934471784e-01,-7.044058256496906756e-01,-3.392239669730525709e-01,0.000000000000000000e+00,6.234898018587335944e-01,9.971497430939595119e-02
2.432226860414401504e+00,-7.889352202857441432e-01,1.201958507400069154e+00,2.973227548611705462e+00,-1.972742717836758031e+00,-3.513651348066052504e-01,-7.365491948138713774e-01,6.182430454012609600e-01,3.333781400934472394e-01,-7.044058256496907866e-01,-3.392239669730526264e-01,0.000000000000000000e+00,6.234898018587334834e-01,9.763567554525937053e-02
2.441328395312950317e+00,-7.370938140984465425e-01,1.119390561374823845e+00,2.760168726202259393e+00,-1.993880632679335907e+00,-4.482670810714891596e-01,-7.349174391323662903e-01,6.148546698146371003e-01,4.000000000000000222e-01,-6.370811961317673910e-01,-3.068021341766004051e-01,0.000000000000000000e+00,7.071067811865475727e-01,9.274287248076457102e-02
2.452859317277299667e+00,-7.183959317821587698e-01,7.891442696363416553e-01,3.074062539103735503e+00,-2.011416329406998216e+00,-4.472570390520155814e-01,-7.349174391323662903e-01,6.148546698146371003e-01,5.000000000000000000e-01,-6.370811961317673910e-01,-3.068021341766004051e-01,0.000000000000000000e+00,7.071067811865475727e-01,7.607481181191939890e-02
2.435983776562741010e+00,-7.157461448502717705e-01,2.521540775105077237e-01,3.853142553721522034e+00,-1.978125801501716685e+00,-3.492329659263821440e-01,-7.365491948138713774e-01,6.182430454012609600e-01,6.333781400934472838e-01,-7.044058256496907866e-01,-3.392239669730526264e-01,0.000000000000000000e+00,6.234898018587334834e-01,2.655758633146942591e-02
2.501082563735766318e+00,-2.056977198794972261e-01,-1.941666021371120932e-01,2.990036304070540218e+00,-2.183999785702747776e+00,-5.709598877628875302e-01,-7.699273349073185724e-01,6.182430454012609600e-01,6.349174391323663125e-01,-5.186929215708572238e-01,-1.183882745609101256e-01,0.000000000000000000e+00,8.467241992282842356e-01,1.905213021241381269e-02
2.425442169387371116e+00,-7.001951558057022407e-01,5.159005678665593009e-02,3.785256910741762848e+00,-1.970577839577747792e+00,-4.505714448815313911e-01,-7.349174391323662903e-01,6.148546698146371003e-01,8.000000000000000444e-01,-6.370811961317673910e-01,-3.068021341766004051e-01,0.000000000000000000e+00,7.071067811865475727e-01,5.040250093200819050e-03
2.550102294903642264e+00,-9.001798482882772401e-01,1.407604176348490110e+00,2.891976940254244788e+00,-2.085591004466504916e+00,-3.193673556273785019e-01,-7.365491948138713774e-01,5.182430454012608712e-01,3.333781400934472394e-01,-7.044058256496907866e-01,-3.392239669730526264e-01,0.000000000000000000e+00,6.234898018587334834e-01,9.045983833846175937e-02
2.548523654256019011e+00,-1.000377128035955243e+00,1.304517996522140955e+00,3.093971369104352220e+00,-2.083412570472219727e+00,-3.203705472876844373e-01,-7.365491948138713774e-01,5.182430454012608712e-01,4.333781400934472172e-01,-7.044058256496907866e-01,-3.392239669730526264e-01,0.000000000000000000e+00,6.234898018587334834e-01,8.808587088833555456e-02
2.561916661705925691e+00,-7.264949052501752380e-01,1.093215687846785800e+00,2.513813451267990384e+00,-2.102779212595205838e+00,-5.823033715900770568e-01,-7.365491948138713774e-01,5.182430454012608712e-01,4.666218599065528605e-01,-5.617449009293666862e-01,-2.705220865321329438e-01,0.000000000000000000e+00,7.818314824680298036e-01,8.387906564668912157e-02
2.574718022467477940e+00,-9.663759672414322377e-02,-8.236272984129210384e-01,4.061077570526776981e+00,-2.132611865023124942e+00,-4.490416308327997985e-01,-7.349174391323662903e-01,5.148546698146370115e-01,6.000000000000000888e-01,-6.370811961317673910e-01,-3.068021341766004051e-01,0.000000000000000000e+00,7.071067811865475727e-01,6.830125426028260671e-02
2.613458132173244408e+00,-9.398534166392497058e-02,-4.625383297531217019e-01,3.098023680205008734e+00,-2.279483009905617141e+00,-6.486193482872752991e-01,-7.699273349073185724e-01,5.182430454012608712e-01,6.349174391323663125e-01,-5.186929215708572238e-01,-1.183882745609101256e-01,0.000000000000000000e+00,8.467241992282842356e-01,3.948006745626449210e-02
2.646083248519391251e+00,-4.668118017832172395e-01,-1.420474067948528374e-01,3.424873498848410858e+00,-2.379795332009234432e+00,-4.670255293422286291e-01,-7.674587195661831673e-01,5.074273349073185058e-01,7.666218599065528494e-01,-6.078576107927939898e-01,-1.387395330218429146e-01,0.000000000000000000e+00,7.818314824680299147e-01,1.089250357434995431e-02
2.538928078434516955e+00,-6.718686190397974434e-01,-2.435311023186247786e-02,3.580003793051897532e+00,-2.069262583253653531e+00,-5.754711602397070136e-01,-7.365491948138713774e-01,5.182430454012608712e-01,8.666218599065528272e-01,-5.617449009293666862e-01,-2.705220865321329993e-01,0.000000000000000000e+00,7.818314824680299147e-01,2.166071800792579698e-03
2.799166043014276628e+00,-1.653942425285722384e-01,-3.526266542210858557e-01,3.274163311712794400e+00,-2.544592388098521951e+00,-5.438244751804183208e-01,-7.674587195661831673e-01,4.074273349073186390e-01,5.666218599065528938e-01,-6.078576107927939898e-01,-1.387395330218429146e-01,0.000000000000000000e+00,7.818314824680299147e-01,2.335910608153116130e-02
2.788485991839084743e+00,-2.463911634960014585e-01,-4.076864469838270555e-01,3.409744896838146744e+00,-2.523480969314544797e+00,-5.442124462683177732e-01,-7.674587195661831673e-01,4.074273349073186390e-01,6.666218599065528716e-01,-6.078576107927939898e-01,-1.387395330218429146e-01,0.000000000000000000e+00,7.818314824680299147e-01,2.624441114810983564e-02
2.766309664446019667e+00,-3.614701419537276750e-01,-4.123293225956570773e-01,3.558757059553695257e+00,-2.490838634933461027e+00,-5.148203335415179049e-01,-7.674587195661831673e-01,4.074273349073186390e-01,7.666218599065528494e-01,-6.078576107927939898e-01,-1.387395330218429146e-01,0.000000000000000000e+00,7.818314824680299147e-01,2.600619572358992687e-02
2.685606186852207422e+00,-6.780123253857082144e-01,-5.675890091588960129e-02,3.593986365005330086e+00,-2.213953386912276056e+00,-6.215921894936169423e-01,-7.365491948138713774e-01,4.182430454012610044e-01,8.666218599065528272e-01,-5.617449009293666862e-01,-2.705220865321329993e-01,0.000000000000000000e+00,7.818314824680299147e-01,4.492198214894218070e-03
2.843631317072544906e+00,-6.728626876767043186e-01,-8.870346290800135147e-02,3.579876584890013369e+00,-2.366027731424120706e+00,-6.838174497702730337e-01,-7.365491948138713774e-01,3.182430454012610266e-01,8.666218599065528272e-01,-5.617449009293665751e-01,-2.705220865321330548e-01,0.000000000000000000e+00,7.818314824680298036e-01,6.037577035400170343e-03
2.007113509946738539e+00,-1.263353094260752096e-01,1.587117271128972995e-01,3.333812391167206179e+00,-1.556314577093089291e+00,-4.514169055118248952e-01,-6.365491948138712885e-01,1.018243045401260982e+00,2.333781400934471784e-01,-7.044058256496906756e-01,-3.392239669730528484e-01,0.000000000000000000e+00,6.234898018587335944e-01,2.200153631848492455e-02
2.170205965186081887e+00,-1.195640879092224329e-01,3.756454595750492453e-01,3.361716269041665761e+00,-1.903467500218492203e+00,-5.568278269169520817e-02,-6.699273349073184836e-01,9.182430454012610044e-01,6.508256086763372639e-02,-8.254950557474575179e-01,-1.884138596156904322e-01,0.000000000000000000e+00,5.320320765153366827e-01,4.893254874322554987e-02
2.074513876032308524e+00,-1.176475440556946916e-01,3.958108875509364077e-01,3.088074306450738327e+00,-1.625424637757544533e+00,-4.364092277708275236e-01,-6.365491948138712885e-01,9.182430454012610044e-01,1.333781400934471728e-01,-7.044058256496906756e-01,-3.392239669730525709e-01,0.000000000000000000e+00,6.234898018587335944e-01,5.267454585198119710e-02
2.074513895002322084e+00,-2.506990051331789982e-01,4.069081739292789157e-01,3.210662317827732704e+00,-1.625420049099957076e+00,-4.363741375156605651e-01,-6.365491948138712885e-01,9.182430454012610044e-01,2.333781400934471784e-01,-7.044058256496906756e-01,-3.392239669730525709e-01,0.000000000000000000e+00,6.234898018587335944e-01,5.407075207106139952e-02
2.072885427958250038e+00,-3.469224382705815568e-01,3.451985370640459072e-01,3.368716881271593078e+00,-1.623332640546668371e+00,-4.367328493795537003e-01,-6.365491948138712885e-01,9.182430454012610044e-01,3.333781400934472394e-01,-7.044058256496907866e-01,-3.392239669730526264e-01,0.000000000000000000e+00,6.234898018587334834e-01,4.582732343562749555e-02
2.068895693596177310e+00,-4.210928355783988275e-01,2.498866549641316770e-01,3.536813482589761026e+00,-1.618287933040720272e+00,-4.376920542419133198e-01,-6.365491948138712885e-01,9.182430454012610044e-01,4.333781400934472172e-01,-7.044058256496907866e-01,-3.392239669730526264e-01,0.000000000000000000e+00,6.234898018587334834e-01,3.277226890973262280e-02
2.062174842128397856e+00,-4.938119277019894504e-01,1.700920496750081556e-01,3.685386407184666702e+00,-1.609933811703073259e+00,-4.393426006616495960e-01,-6.365491948138712885e-01,9.182430454012610044e-01,5.333781400934471950e-01,-7.044058256496907866e-01,-3.392239669730526264e-01,0.000000000000000000e+00,6.234898018587334834e-01,2.163311980199746770e-02
2.061224441996724277e+00,-4.333245541731156059e-01,6.481069431163487271e-02,3.508686616944064252e+00,-1.609592502099695732e+00,-4.486943792793963159e-01,-6.349174391323662014e-01,9.148546698146371448e-01,6.000000000000000888e-01,-6.370811961317673910e-01,-3.068021341766004051e-01,0.000000000000000000e+00,7.071067811865475727e-01,8.099922693890808378e-03
2.250747224027529914e+00,-2.538987641040247878e-01,6.642786186344147303e-01,3.225012069569855200e+00,-1.980604235476559172e+00,-1.430030635838257930e-02,-6.699273349073184836e-01,8.182430454012609156e-01,6.508256086763372639e-02,-8.254950557474575179e-01,-1.884138596156904322e-01,0.000000000000000000e+00,5.320320765153366827e-01,7.707917467177055615e-02
2.141311763104461807e+00,-3.897659987355520661e-01,9.817935475149476288e-01,2.776128775268285054e+00,-1.690813944324953244e+00,-4.213440683866886971e-01,-6.365491948138712885e-01,8.182430454012609156e-01,1.333781400934471728e-01,-7.044058256496906756e-01,-3.392239669730525709e-01,0.000000000000000000e+00,6.234898018587335944e-01,1.018927095468740163e-01
2.139709863811644741e+00,-5.464280120795118600e-01,1.013903226224547982e+00,2.900870167538869282e+00,-1.688702029924773917e+00,-4.216838552452415456e-01,-6.365491948138712885e-01,8.182430454012609156e-01,2.333781400934471784e-01,-7.044058256496906756e-01,-3.392239669730525709e-01,0.000000000000000000e+00,6.234898018587335944e-01,1.033026022014689738e-01
2.138399779997177674e+00,-6.633094883435938227e-01,9.674178610751505980e-01,3.064030806154908415e+00,-1.686983739716242603e+00,-4.220069824210474496e-01,-6.365491948138712885e-01,8.182430454012609156e-01,3.333781400934472394e-01,-7.044058256496907866e-01,-3.392239669730526264e-01,0.000000000000000000e+00,6.234898018587334834e-01,9.965276779220122449e-02
2.142907966098870798e+00,-6.038310872673173790e-01,8.650212206613983046e-01,2.881016679325185237e+00,-1.695363525732440646e+00,-4.485599794752003211e-01,-6.349174391323662014e-01,8.148546698146370559e-01,4.000000000000000222e-01,-6.370811961317673910e-01,-3.068021341766004051e-01,0.000000000000000000e+00,7.071067811865475727e-01,9.167266218360155261e-02
2.148847739705815663e+00,-5.649355280753941555e-01,5.101208920521231871e-01,3.198066588931672172e+00,-1.703314071806848240e+00,-4.484196024012079840e-01,-6.349174391323662014e-01,8.148546698146370559e-01,5.000000000000000000e-01,-6.370811961317673910e-01,-3.068021341766004051e-01,0.000000000000000000e+00,7.071067811865475727e-01,6.051971159416166812e-02
2.132420655909804896e+00,-6.550490321909644420e-01,1.972106461187445592e-01,3.822093775777393621e+00,-1.679337880039835307e+00,-4.237771562805678349e-01,-6.365491948138712885e-01,8.182430454012609156e-01,6.333781400934472838e-01,-7.044058256496907866e-01,-3.392239669730526264e-01,0.000000000000000000e+00,6.234898018587334834e-01,2.306407773638374098e-02
2.133043763761123923e+00,-5.849985767853927987e-01,7.698132055967299436e-02,3.647867190119249869e+00,-1.682355697111058923e+00,-4.488326062649589110e-01,-6.349174391323662014e-01,8.148546698146370559e-01,7.000000000000000666e-01,-6.370811961317673910e-01,-3.068021341766004051e-01,0.000000000000000000e+00,7.071067811865475727e-01,8.870268701360184069e-03
2.123542153903755558e+00,-5.245042608863033085e-01,-8.100431634386118240e-03,3.448894292070152190e+00,-1.667959865287876653e+00,-4.718135099073422212e-01,-6.365491948138712885e-01,8.182430454012609156e-01,7.666218599065528494e-01,-5.617449009293666862e-01,-2.705220865321329993e-01,0.000000000000000000e+00,7.818314824680299147e-01,9.176831841578095283e-04
2.339725041009820039e+00,-4.148622648594743612e-01,1.010867299777868711e+00,3.061562210315186938e+00,-2.060491025501430595e+00,3.414456421046727780e-02,-6.699273349073184836e-01,7.182430454012610488e-01,6.508256086763372639e-02,-8.254950557474575179e-01,-1.884138596156904322e-01,0.000000000000000000e+00,5.320320765153366827e-01,9.500908786930180316e-02
2.221197322484954384e+00,-5.514198489386776814e-01,1.344329100215407413e+00,2.578000693285761535e+00,-1.767752331295275425e+00,-4.031021274824573841e-01,-6.365491948138712885e-01,7.182430454012610488e-01,1.333781400934471728e-01,-7.044058256496906756e-01,-3.392239669730525709e-01,0.000000000000000000e+00,6.234898018587335944e-01,1.050504829499982751e-01
2.219463004961126362e+00,-7.173558298704860725e-01,1.363726139566819873e+00,2.724134233308971087e+00,-1.765472163773328385e+00,-4.035824692304261219e-01,-6.365491948138712885e-01,7.182430454012610488e-01,2.333781400934471784e-01,-7.044058256496906756e-01,-3.392239669730525709e-01,0.000000000000000000e+00,6.234898018587335944e-01,1.049142471738821192e-01
2.217783915332500744e+00,-8.514675471069689250e-01,1.322013345996443601e+00,2.899197183440093806e+00,-1.763284991100585009e+00,-4.041185387749844926e-01,-6.365491948138712885e-01,7.182430454012610488e-01,3.333781400934472394e-01,-7.044058256496907866e-01,-3.392239669730526264e-01,0.000000000000000000e+00,6.234898018587334834e-01,1.033408612294078460e-01
2.224218143337259423e+00,-8.071411026123749277e-01,1.251784833948610176e+00,2.697536189517749872e+00,-1.775716640949130287e+00,-4.485126970167084282e-01,-6.349174391323662014e-01,7.148546698146371892e-01,4.000000000000000222e-01,-6.370811961317673910e-01,-3.068021341766004051e-01,0.000000000000000000e+00,7.071067811865475727e-01,1.003431288428391632e-01
2.226125250187386495e+00,-8.814798002453072545e-01,1.106688307088777190e+00,2.917438372613234243e+00,-1.778277011617678260e+00,-4.484123913695039487e-01,-6.349174391323662014e-01,7.148546698146371892e-01,5.000000000000000000e-01,-6.370811961317673910e-01,-3.068021341766004051e-01,0.000000000000000000e+00,7.071067811865475727e-01,9.512439920896954837e-02
2.227190835420471693e+00,-8.009364712723497925e-01,3.951451446598845951e-01,3.781772155303983141e+00,-1.775490093981457962e+00,-4.007431310779736577e-01,-6.365491948138712885e-01,7.182430454012610488e-01,6.333781400934472838e-01,-7.044058256496907866e-01,-3.392239669730526264e-01,0.000000000000000000e+00,6.234898018587334834e-01,4.264900617590330900e-02
2.327645516616294152e+00,-2.128906014223268806e-01,-1.959997500256364933e-01,3.043718138754708313e+00,-2.043246589043997918e+00,-4.731567990233623289e-01,-6.699273349073184836e-01,7.182430454012610488e-01,6.349174391323663125e-01,-5.186929215708572238e-01,-1.183882745609101256e-01,0.000000000000000000e+00,8.467241992282842356e-01,2.099070669514612256e-02
2.316070492048832641e+00,-3.368643785297119053e-01,-1.736843023517486706e-01,3.152960751261299599e+00,-2.026889835270596407e+00,-4.647706674383867420e-01,-6.699273349073184836e-01,7.182430454012610488e-01,7.349174391323662903e-01,-5.186929215708572238e-01,-1.183882745609101256e-01,0.000000000000000000e+00,8.467241992282842356e-01,1.797061111115065557e-02
2.204570640177950125e+00,-6.648525367171530531e-01,-9.918384332441826379e-03,3.586341674837804749e+00,-1.746117037572906261e+00,-4.905692446989542432e-01,-6.365491948138712885e-01,7.182430454012610488e-01,8.666218599065528272e-01,-5.617449009293666862e-01,-2.705220865321329993e-01,0.000000000000000000e+00,7.818314824680299147e-01,1.005142824285585202e-03
2.322572527179233237e+00,-6.540908554928859253e-01,1.588386024543578356e+00,2.442119266242330333e+00,-1.865813257408432069e+00,-3.791919813418175855e-01,-6.365491948138712885e-01,6.182430454012609600e-01,1.333781400934471728e-01,-7.044058256496906756e-01,-3.392239669730525709e-01,0.000000000000000000e+00,6.234898018587335944e-01,9.459813251626164599e-02
2.321326071076313280e+00,-8.331233353156054511e-01,1.599594479349829124e+00,2.609351998915215631e+00,-1.864203201370090657e+00,-3.796576864902681536e-01,-6.365491948138712885e-01,6.182430454012609600e-01,2.333781400934471784e-01,-7.044058256496906756e-01,-3.392239669730525709e-01,0.000000000000000000e+00,6.234898018587335944e-01,9.428273060526720650e-02
2.326483555104381207e+00,-5.625007009430149640e-01,1.394761164968909339e+00,2.074338798774004733e+00,-1.870987791200419803e+00,-5.190729704464598360e-01,-6.365491948138712885e-01,6.182430454012609600e-01,2.666218599065529049e-01,-5.617449009293666862e-01,-2.705220865321329438e-01,0.000000000000000000e+00,7.818314824680298036e-01,9.403455886765073324e-02
2.328041571222655648e+00,-7.226797696537354820e-01,1.392195905372424436e+00,2.237008264562053927e+00,-1.873053651395670371e+00,-5.194527758679448048e-01,-6.365491948138712885e-01,6.182430454012609600e-01,3.666218599065528827e-01,-5.617449009293666862e-01,-2.705220865321329438e-01,0.000000000000000000e+00,7.818314824680298036e-01,9.435666683953966571e-02
2.331257779756204407e+00,-8.434790724984340127e-01,1.312140400809782337e+00,2.437788045018976391e+00,-1.877349591546796148e+00,-5.202071450830355603e-01,-6.365491948138712885e-01,6.182430454012609600e-01,4.666218599065528605e-01,-5.617449009293666862e-01,-2.705220865321329438e-01,0.000000000000000000e+00,7.818314824680298036e-01,9.351199857767336643e-02
2.333441521310628541e+00,-1.076489511878220062e+00,1.155262300602040826e+00,3.064841369379185831e+00,-1.886212630440251559e+00,-4.479867268439293171e-01,-6.349174391323662014e-01,6.148546698146371003e-01,6.000000000000000888e-01,-6.370811961317673910e-01,-3.068021341766004051e-01,0.000000000000000000e+00,7.071067811865475727e-01,8.587184226542500520e-02
2.446454565893358968e+00,-2.048063040693662573e-01,-2.525107417339040317e-01,3.047716990912973323e+00,-2.155104729575061384e+00,-5.472289835288948190e-01,-6.699273349073184836e-01,6.182430454012609600e-01,6.349174391323663125e-01,-5.186929215708572238e-01,-1.183882745609101256e-01,0.000000000000000000e+00,8.467241992282842356e-01,2.483895831989448369e-02
2.432376890096647148e+00,-3.295226766482531322e-01,-2.410910458978569315e-01,3.173559274543220177e+00,-2.135495862933291189e+00,-5.342843181845102762e-01,-6.699273349073184836e-01,6.182430454012609600e-01,7.349174391323662903e-01,-5.186929215708572238e-01,-1.183882745609101256e-01,0.000000000000000000e+00,8.467241992282842356e-01,2.287412102024115670e-02
2.414795815107420918e+00,-4.614242034525081748e-01,-1.920349604488038320e-01,3.267788012628996874e+00,-2.111198897307361655e+00,-5.207090355361309042e-01,-6.699273349073184836e-01,6.182430454012609600e-01,8.349174391323662681e-01,-5.186929215708572238e-01,-1.183882745609101256e-01,0.000000000000000000e+00,8.467241992282842356e-01,1.749040210760386890e-02
2.456280489234541342e+00,-6.383612861395721039e-01,1.575101155989762525e+00,1.958342245598266862e+00,-1.997499756700013895e+00,-5.520894965523286402e-01,-6.365491948138712885e-01,5.182430454012608712e-01,2.666218599065529049e-01,-5.617449009293666862e-01,-2.705220865321329438e-01,0.000000000000000000e+00,7.818314824680298036e-01,8.328154444108351595e-02
2.457152907415434573e+00,-8.154092816961444612e-01,1.578470511535286391e+00,2.132098205500846611e+00,-1.998659043987893513e+00,-5.522528799039631009e-01,-6.365491948138712885e-01,5.182430454012608712e-01,3.666218599065528827e-01,-5.617449009293666862e-01,-2.705220865321329438e-01,0.000000000000000000e+00,7.818314824680298036e-01,8.341004173773394759e-02
2.459349037760850454e+00,-9.564262435794462780e-01,1.512750952316904041e+00,2.338794819045526996e+00,-2.001574961421708654e+00,-5.527678030806040255e-01,-6.365491948138712885e-01,5.182430454012608712e-01,4.666218599065528605e-01,-5.617449009293666862e-01,-2.705220865321329438e-01,0.000000000000000000e+00,7.818314824680298036e-01,8.364403183864815849e-02
2.556031608354077722e+00,-8.389870564481367587e-01,1.642721073811621302e-01,4.405287898642249900e+00,-2.241300176615983020e+00,1.685842945746547639e-01,-6.699273349073184836e-01,5.182430454012608712e-01,6.650825608676338430e-01,-8.254950557474575179e-01,-1.884138596156904044e-01,0.000000000000000000e+00,5.320320765153366827e-01,1.378240616563254986e-02
2.477360567869022479e+00,-2.365184588275674182e-01,-9.370526851429860082e-01,4.316929386598402196e+00,-2.034815915164998934e+00,-4.478258679000837739e-01,-6.349174391323662014e-01,5.148546698146370115e-01,7.000000000000000666e-01,-6.370811961317673910e-01,-3.068021341766004051e-01,0.000000000000000000e+00,7.071067811865475727e-01,6.782956452256498625e-02
2.564253454344423311e+00,-2.958884570599757957e-01,-3.595976175243681960e-01,3.202338053608360990e+00,-2.253001504089874985e+00,-6.242915564888735780e-01,-6.699273349073184836e-01,5.182430454012608712e-01,7.349174391323662903e-01,-5.186929215708572238e-01,-1.183882745609101256e-01,0.000000000000000000e+00,8.467241992282842356e-01,3.009044112861286938e-02
2.544681338818758132e+00,-4.526998304484901037e-01,-2.652115905317635192e-01,3.281754390192757942e+00,-2.226761835400186129e+00,-6.052792450994191054e-01,-6.699273349073184836e-01,5.182430454012608712e-01,8.349174391323662681e-01,-5.186929215708572238e-01,-1.183882745609101256e-01,0.000000000000000000e+00,8.467241992282842356e-01,2.155289913884745820e-02
2.436346802067512307e+00,-8.361847750211932606e-01,-1.797304436670295325e-02,3.748034174425013187e+00,-1.971149324753353360e+00,-5.480336139641209803e-01,-6.365491948138712885e-01,5.182430454012608712e-01,9.666218599065528050e-01,-5.617449009293666862e-01,-2.705220865321329993e-01,0.000000000000000000e+00,7.818314824680299147e-01,1.427895121107085503e-03
2.622541428556989018e+00,-1.123842204826800417e+00,1.481627503052514783e+00,2.515077427682875122e+00,-2.161917448216879034e+00,-5.998868148633319519e-01,-6.365491948138712885e-01,4.182430454012610044e-01,5.666218599065528938e-01,-5.617449009293666862e-01,-2.705220865321329993e-01,0.000000000000000000e+00,7.818314824680299147e-01,7.224135696958222663e-02
2.619311793334378358e+00,-1.315403185236357242e+00,1.245184242357504356e+00,3.212722934931570684e+00,-2.170277422691484936e+00,-4.480807138217741126e-01,-6.349174391323662014e-01,4.148546698146371448e-01,7.000000000000000666e-01,-6.370811961317673910e-01,-3.068021341766004051e-01,0.000000000000000000e+00,7.071067811865475727e-01,6.496444156909494949e-02
2.636669028402121029e+00,-5.114125525374705328e-01,-6.475114991599418834e-01,4.305136459748593936e+00,-2.194288855837907448e+00,-4.459142288281188748e-01,-6.349174391323662014e-01,4.148546698146371448e-01,8.000000000000000444e-01,-6.370811961317673910e-01,-3.068021341766004051e-01,0.000000000000000000e+00,7.071067811865475727e-01,4.307803164277832636e-02
2.722342621110466876e+00,-5.311990536066508728e-01,-3.832511331309571556e-01,3.698736286703901754e+00,-2.457270940583099694e+00,-5.074179786723503893e-01,-6.674587195661830785e-01,4.074273349073186390e-01,8.666218599065528272e-01,-6.078576107927939898e-01,-1.387395330218429146e-01,0.000000000000000000e+00,7.818314824680299147e-01,2.247381105873312232e-02
2.600470991541233623e+00,-8.565974856837912377e-01,-4.022212322108659893e-02,3.770711920120140004e+00,-2.132719501482001512e+00,-5.942845334656172707e-01,-6.365491948138712885e-01,4.182430454012610044e-01,9.666218599065528050e-01,-5.617449009293666862e-01,-2.705220865321329993e-01,0.000000000000000000e+00,7.818314824680299147e-01,2.815122940759317433e-03
2.903192026518925051e+00,-7.857196568809760029e-01,-1.051764945551480340e-01,4.031059009687307793e+00,-2.668932736385046134e+00,-2.251452678099530036e-01,-6.666218599065527606e-01,3.037608131727264626e-01,9.000000000000000222e-01,-6.893781378718103481e-01,-1.573460613564739430e-01,0.000000000000000000e+00,7.071067811865475727e-01,4.353385955440626336e-03
2.784942482463072189e+00,-8.569132952640635681e-01,-7.012168142124483583e-02,3.761960774923401196e+00,-2.310802207373141126e+00,-6.592642015930629817e-01,-6.365491948138712885e-01,3.182430454012610266e-01,9.666218599065528050e-01,-5.617449009293665751e-01,-2.705220865321330548e-01,0.000000000000000000e+00,7.818314824680298036e-01,4.166607776800748848e-03
2.012473833007117907e+00,-9.338774913348224516e-02,3.211841114758225979e-01,3.370177816539499105e+00,-1.762259538338458720e+00,-1.292121686257881596e-01,-5.699273349073185058e-01,1.018243045401260982e+00,6.508256086763372639e-02,-8.254950557474576289e-01,-1.884138596156905987e-01,0.000000000000000000e+00,5.320320765153362386e-01,4.384110569737114521e-02
2.012624344466667381e+00,-2.082082352199017827e-01,3.148116733886524576e-01,3.489919953039148925e+00,-1.762569848188677346e+00,-1.294255870419956378e-01,-5.699273349073185058e-01,1.018243045401260982e+00,1.650825608676337319e-01,-8.254950557474576289e-01,-1.884138596156905987e-01,0.000000000000000000e+00,5.320320765153362386e-01,4.302042439090419251e-02
1.908701772885748049e+00,-1.932401004464411320e-01,2.914332015571600709e-01,3.269294740080392003e+00,-1.462660654664658333e+00,-4.734159747180031186e-01,-5.365491948138714218e-01,1.018243045401260982e+00,2.333781400934471784e-01,-7.044058256496908976e-01,-3.392239669730524043e-01,0.000000000000000000e+00,6.234898018587335944e-01,3.947962363191161173e-02
1.906891913481388867e+00,-2.948911106477115074e-01,2.506341567344844701e-01,3.411142602579827710e+00,-1.460719513477671594e+00,-4.737534010746377588e-01,-5.365491948138714218e-01,1.018243045401260982e+00,3.333781400934472394e-01,-7.044058256496910086e-01,-3.392239669730524598e-01,0.000000000000000000e+00,6.234898018587332613e-01,3.370225716950205064e-02
1.902875085216165330e+00,-3.831190736745765379e-01,1.930057384775724083e-01,3.554982819419485018e+00,-1.456407344492634204e+00,-4.744158964096389375e-01,-5.365491948138714218e-01,1.018243045401260982e+00,4.333781400934472172e-01,-7.044058256496910086e-01,-3.392239669730524598e-01,0.000000000000000000e+00,6.234898018587332613e-01,2.543760283091901428e-02
1.900043358077174505e+00,-3.205709549996066943e-01,8.129342175079624921e-02,3.381166861750181329e+00,-1.450687253105154895e+00,-4.486731910972205917e-01,-5.349174391323662237e-01,1.014854669814637012e+00,5.000000000000000000e-01,-6.370811961317673910e-01,-3.068021341766004051e-01,0.000000000000000000e+00,7.071067811865475727e-01,1.053280809140242323e-02
2.077603719806495164e+00,-2.364592544248586836e-01,6.300102704253899288e-01,3.214044154105895501e+00,-1.826067713503332524e+00,-9.880192472653480384e-02,-5.699273349073185058e-01,9.182430454012610044e-01,6.508256086763372639e-02,-8.254950557474575179e-01,-1.884138596156904322e-01,0.000000000000000000e+00,5.320320765153366827e-01,7.789038275984555559e-02
1.957388811232488646e+00,-3.477277994151038998e-01,8.891962966325464013e-01,2.825353091721745979e+00,-1.510731246563659980e+00,-4.624977260828017078e-01,-5.365491948138714218e-01,9.182430454012610044e-01,1.333781400934471728e-01,-7.044058256496908976e-01,-3.392239669730521268e-01,0.000000000000000000e+00,6.234898018587337054e-01,9.786703657871233253e-02
1.956172682968413179e+00,-5.004856354743436597e-01,9.206839082719115996e-01,2.946848318170995462e+00,-1.509348113819341419e+00,-4.627868186741462275e-01,-5.365491948138714218e-01,9.182430454012610044e-01,2.333781400934471784e-01,-7.044058256496908976e-01,-3.392239669730521268e-01,0.000000000000000000e+00,6.234898018587337054e-01,9.968844276816575534e-02
1.954948554106379355e+00,-6.137286410990955288e-01,8.740280153530624041e-01,3.106532351696035921e+00,-1.507943242331889699e+00,-4.630518921763744911e-01,-5.365491948138714218e-01,9.182430454012610044e-01,3.333781400934472394e-01,-7.044058256496910086e-01,-3.392239669730521268e-01,0.000000000000000000e+00,6.234898018587335944e-01,9.545494577374752376e-02
1.956679806503625940e+00,-5.437206429358316662e-01,7.487049996356426318e-01,2.937060380112814784e+00,-1.508468101135263861e+00,-4.486661311137974950e-01,-5.349174391323662237e-01,9.148546698146371448e-01,4.000000000000000222e-01,-6.370811961317673910e-01,-3.068021341766004051e-01,0.000000000000000000e+00,7.071067811865475727e-01,8.460973795091300542e-02
1.959977480823078322e+00,-5.063631971561189937e-01,4.036224227828011935e-01,3.245380088530420259e+00,-1.512209474757377103e+00,-4.486995024929980036e-01,-5.349174391323662237e-01,9.148546698146371448e-01,5.000000000000000000e-01,-6.370811961317673910e-01,-3.068021341766004051e-01,0.000000000000000000e+00,7.071067811865475727e-01,4.975484045416511680e-02
1.946547263266083405e+00,-6.341090636242303624e-01,1.795444759619796160e-01,3.815747300172902534e+00,-1.498462177731906486e+00,-4.645258653386045156e-01,-5.365491948138714218e-01,9.182430454012610044e-01,6.333781400934472838e-01,-7.044058256496910086e-01,-3.392239669730521268e-01,0.000000000000000000e+00,6.234898018587335944e-01,2.125705325148120189e-02
2.072881798709474754e+00,-3.662373611373884175e-01,-7.262225494579369056e-02,3.350368575645505498e+00,-1.834702562901995293e+00,-2.868585103815602944e-01,-5.674587195661831007e-01,9.074273349073186390e-01,6.666218599065528716e-01,-6.078576107927939898e-01,-1.387395330218429146e-01,0.000000000000000000e+00,7.818314824680299147e-01,8.505610780705370397e-03
2.149418271840693784e+00,-4.178924011727962462e-01,1.023076778817637145e+00,3.013880316249016200e+00,-1.892523693493602943e+00,-6.417945668998457920e-02,-5.699273349073185058e-01,8.182430454012609156e-01,6.508256086763372639e-02,-8.254950557474575179e-01,-1.884138596156904322e-01,0.000000000000000000e+00,5.320320765153366827e-01,1.021105378495518329e-01
2.012185346082408621e+00,-5.422612981440863011e-01,1.323316008622708706e+00,2.585301598724055960e+00,-1.563848327771495628e+00,-4.502715159635034547e-01,-5.365491948138714218e-01,8.182430454012609156e-01,1.333781400934471728e-01,-7.044058256496908976e-01,-3.392239669730521268e-01,0.000000000000000000e+00,6.234898018587337054e-01,1.073634696350387746e-01
2.010717140817012361e+00,-7.064298177841449311e-01,1.342131749357766912e+00,2.730326775652045512e+00,-1.562093912051329525e+00,-4.506067939939050748e-01,-5.365491948138714218e-01,8.182430454012609156e-01,2.333781400934471784e-01,-7.044058256496908976e-01,-3.392239669730521268e-01,0.000000000000000000e+00,6.234898018587337054e-01,1.072473805178221218e-01
2.009234789812105682e+00,-8.389964413999153603e-01,1.300269986172240211e+00,2.904070204981256786e+00,-1.560326007385412383e+00,-4.509403450645185218e-01,-5.365491948138714218e-01,8.182430454012609156e-01,3.333781400934472394e-01,-7.044058256496910086e-01,-3.392239669730521268e-01,0.000000000000000000e+00,6.234898018587335944e-01,1.055030396291996714e-01
2.011893081265456740e+00,-7.956886762762901411e-01,1.230915993329178226e+00,2.706883054605699890e+00,-1.563330078617864993e+00,-4.486415098373999211e-01,-5.349174391323662237e-01,8.148546698146370559e-01,4.000000000000000222e-01,-6.370811961317673910e-01,-3.068021341766004051e-01,0.000000000000000000e+00,7.071067811865475727e-01,1.025508958658968572e-01
2.013158480474823708e+00,-8.711776679263666390e-01,1.090382806859317544e+00,2.923246290905827660e+00,-1.564850736596916869e+00,-4.486429006102202188e-01,-5.349174391323662237e-01,8.148546698146370559e-01,5.000000000000000000e-01,-6.370811961317673910e-01,-3.068021341766004051e-01,0.000000000000000000e+00,7.071067811865475727e-01,9.697199774952752760e-02
2.025149082791585453e+00,-7.605209992979893308e-01,5.858446187778745262e-01,3.321203626258060648e+00,-1.579220009467182884e+00,-4.486021099528229028e-01,-5.349174391323662237e-01,8.148546698146370559e-01,6.000000000000000888e-01,-6.370811961317673910e-01,-3.068021341766004051e-01,0.000000000000000000e+00,7.071067811865475727e-01,6.396434273397888504e-02
2.140521724128796155e+00,-2.184024008126914662e-01,-1.875914295655378150e-01,3.074971397471859103e+00,-1.880473041311454319e+00,-3.789623829824222412e-01,-5.699273349073185058e-01,8.182430454012609156e-01,6.349174391323663125e-01,-5.186929215708572238e-01,-1.183882745609101256e-01,0.000000000000000000e+00,8.467241992282842356e-01,2.158774179690752665e-02
2.129660279041623916e+00,-3.432386293377822639e-01,-1.663561831415650838e-01,3.184517485186583841e+00,-1.865883106950609660e+00,-3.724968671877271209e-01,-5.699273349073185058e-01,8.182430454012609156e-01,7.349174391323662903e-01,-5.186929215708572238e-01,-1.183882745609101256e-01,0.000000000000000000e+00,8.467241992282842356e-01,1.840809035880013045e-02
2.229760783523095924e+00,-5.825637522281068570e-01,1.390768141255135815e+00,2.823511414740256686e+00,-1.962320540026858628e+00,-2.474257142549304150e-02,-5.699273349073185058e-01,7.182430454012610488e-01,6.508256086763372639e-02,-8.254950557474575179e-01,-1.884138596156904322e-01,0.000000000000000000e+00,5.320320765153366827e-01,1.019267828925650016e-01
2.224776943481999059e+00,-7.627937846579775361e-01,1.431974546723353781e+00,2.959848701505330304e+00,-1.955813113546119864e+00,-2.803002102924726999e-02,-5.699273349073185058e-01,7.182430454012610488e-01,1.650825608676337319e-01,-8.254950557474575179e-01,-1.884138596156904322e-01,0.000000000000000000e+00,5.320320765153366827e-01,1.011599213917180190e-01
2.220698302413500969e+00,-9.072782493350071142e-01,1.404815188442299245e+00,3.128426952683153406e+00,-1.950679477182420296e+00,-3.104593331478577856e-02,-5.699273349073185058e-01,7.182430454012610488e-01,2.650825608676337097e-01,-8.254950557474575179e-01,-1.884138596156904322e-01,0.000000000000000000e+00,5.320320765153365716e-01,9.961392842696506489e-02
2.218124747414190967e+00,-1.009699181722347072e+00,1.309948462374469269e+00,3.323117323072000140e+00,-1.947541299953442939e+00,-3.317313045317736575e-02,-5.699273349073185058e-01,7.182430454012610488e-01,3.650825608676337986e-01,-8.254950557474575179e-01,-1.884138596156904044e-01,0.000000000000000000e+00,5.320320765153366827e-01,9.683203176133600709e-02
2.088158102483928857e+00,-7.507955653653467509e-01,1.450669390020318250e+00,2.217124603207665245e+00,-1.638503510116198880e+00,-4.639432463183521538e-01,-5.365491948138714218e-01,7.182430454012610488e-01,3.666218599065528827e-01,-5.617449009293669082e-01,-2.705220865321325552e-01,0.000000000000000000e+00,7.818314824680298036e-01,9.708416890148656442e-02
2.089836308674122289e+00,-8.812565147669916277e-01,1.384637245888060919e+00,2.413691377791150394e+00,-1.640541365322741640e+00,-4.643216700318353318e-01,-5.365491948138714218e-01,7.182430454012610488e-01,4.666218599065528605e-01,-5.617449009293669082e-01,-2.705220865321325552e-01,0.000000000000000000e+00,7.818314824680298036e-01,9.660399034139795227e-02
2.096895378125663623e+00,-9.444032412454974601e-01,1.198658606497960077e+00,2.663360200342502537e+00,-1.649126343062133015e+00,-4.658782823632936498e-01,-5.365491948138714218e-01,7.182430454012610488e-01,5.666218599065528938e-01,-5.617449009293669082e-01,-2.705220865321325552e-01,0.000000000000000000e+00,7.818314824680299147e-01,9.381226073790904785e-02
2.331736406126894590e+00,-2.307986308695166022e-01,-1.721228882654616821e-01,2.960442738313657784e+00,-2.239120808202604174e+00,-3.898704353215245999e-01,-5.999999999999999778e-01,7.148546698146371892e-01,6.349174391323663125e-01,-5.320320765153365716e-01,0.000000000000000000e+00,0.000000000000000000e+00,8.467241992282841245e-01,1.610673358421691598e-02
2.231816303944326840e+00,-3.346861861558202977e-01,-2.525609647384524092e-01,3.237442388977516128e+00,-1.965404947480665632e+00,-4.251259443524828541e-01,-5.699273349073185058e-01,7.182430454012610488e-01,7.349174391323662903e-01,-5.186929215708572238e-01,-1.183882745609101256e-01,0.000000000000000000e+00,8.467241992282842356e-01,2.615482402115471006e-02
2.214688266595386423e+00,-4.722080211128593108e-01,-1.971788332392440946e-01,3.328193463645247707e+00,-1.942581430390981634e+00,-4.144661836216168571e-01,-5.699273349073185058e-01,7.182430454012610488e-01,8.349174391323662681e-01,-5.186929215708572238e-01,-1.183882745609101256e-01,0.000000000000000000e+00,8.467241992282842356e-01,1.944494019037627114e-02
2.323909201718255435e+00,-8.826870513203040058e-01,1.676906336736631253e+00,2.853982595626311181e+00,-2.041689839085284230e+00,2.272756643340908406e-02,-5.699273349073185058e-01,6.182430454012609600e-01,1.650825608676337319e-01,-8.254950557474575179e-01,-1.884138596156904322e-01,0.000000000000000000e+00,5.320320765153366827e-01,8.756979099139054756e-02
2.320543303448735717e+00,-1.038801382880713664e+00,1.636024934710662571e+00,3.048094507868623460e+00,-2.037737436336901631e+00,1.986425202395970813e-02,-5.699273349073185058e-01,6.182430454012609600e-01,2.650825608676337097e-01,-8.254950557474575179e-01,-1.884138596156904322e-01,0.000000000000000000e+00,5.320320765153365716e-01,8.728753909248934684e-02
2.318195981541257833e+00,-1.154045054186454644e+00,1.536237082180225366e+00,3.260699477308602656e+00,-2.035031078946863303e+00,1.771186811238796566e-02,-5.699273349073185058e-01,6.182430454012609600e-01,3.650825608676337986e-01,-8.254950557474575179e-01,-1.884138596156904044e-01,0.000000000000000000e+00,5.320320765153366827e-01,8.691696176316744682e-02
2.338820105538605532e+00,-4.984242083428226944e-01,1.209332953898663465e+00,1.914398678394347852e+00,-2.060275287053558113e+00,-4.827092133039049826e-01,-5.699273349073185058e-01,6.182430454012609600e-01,3.349174391323663236e-01,-5.186929215708573349e-01,-1.183882745609101672e-01,0.000000000000000000e+00,8.467241992282841245e-01,8.540618439502302428e-02
2.189005990156209780e+00,-1.027913452881512368e+00,1.638821186024181698e+00,2.303895720532823432e+00,-1.737588012862415265e+00,-4.866394921744303659e-01,-5.365491948138714218e-01,6.182430454012609600e-01,4.666218599065528605e-01,-5.617449009293669082e-01,-2.705220865321325552e-01,0.000000000000000000e+00,7.818314824680298036e-01,8.493236153627610474e-02
2.191523757708512932e+00,-1.134746622414455786e+00,1.510495067916136636e+00,2.539308857199851666e+00,-1.740662199216095551e+00,-4.871670067695574868e-01,-5.365491948138714218e-01,6.182430454012609600e-01,5.666218599065528938e-01,-5.617449009293669082e-01,-2.705220865321325552e-01,0.000000000000000000e+00,7.818314824680299147e-01,8.550777592477620814e-02
2.206680423279858250e+00,-1.139465603898081714e+00,1.210050972984355822e+00,2.846704883819282994e+00,-1.759375475409437950e+00,-4.901469831715921099e-01,-5.365491948138714218e-01,6.182430454012609600e-01,6.666218599065528716e-01,-5.617449009293669082e-01,-2.705220865321325552e-01,0.000000000000000000e+00,7.818314824680299147e-01,8.367103146303261907e-02
2.184171836053491411e+00,-8.188242398978081704e-01,-2.115168493250598192e-01,4.400026049867550526e+00,-1.731600686611527218e+00,-4.115746295795366660e-01,-5.365491948138714218e-01,6.182430454012609600e-01,8.333781400934472394e-01,-7.044058256496910086e-01,-3.392239669730521268e-01,0.000000000000000000e+00,6.234898018587335944e-01,1.776725166233335956e-02
2.335853502948046057e+00,-4.705910765718518962e-01,-2.816468502861912970e-01,3.379938828676719798e+00,-2.057041029235354923e+00,-4.799884988409248154e-01,-5.699273349073185058e-01,6.182430454012609600e-01,8.349174391323662681e-01,-5.186929215708572238e-01,-1.183882745609101256e-01,0.000000000000000000e+00,8.467241992282842356e-01,2.521213918058112444e-02
2.310947719623885011e+00,-6.123774060067004310e-01,-1.980601328679600648e-01,3.448873063730741428e+00,-2.024669311747007594e+00,-4.643173906569761367e-01,-5.699273349073185058e-01,6.182430454012609600e-01,9.349174391323662459e-01,-5.186929215708572238e-01,-1.183882745609101256e-01,0.000000000000000000e+00,8.467241992282842356e-01,1.678513066229089454e-02
2.440153667280691163e+00,-1.271148525162422160e+00,1.710138872224478135e+00,3.234914184524753100e+00,-2.139962128260542773e+00,8.502973027989803312e-02,-5.699273349073185058e-01,5.182430454012608712e-01,3.650825608676337986e-01,-8.254950557474575179e-01,-1.884138596156904044e-01,0.000000000000000000e+00,5.320320765153366827e-01,7.380107881314604268e-02
2.462887960000976317e+00,-6.076121883639730159e-01,1.443670253187113728e+00,1.754536674958727893e+00,-2.165725132704540812e+00,-5.545371498508657737e-01,-5.699273349073185058e-01,5.182430454012608712e-01,3.349174391323663236e-01,-5.186929215708573349e-01,-1.183882745609101672e-01,0.000000000000000000e+00,8.467241992282841245e-01,7.655706994712284386e-02
2.471138765419815808e+00,-7.477117822023263694e-01,1.388430902107340881e+00,1.944910921462138065e+00,-2.176033612155345409e+00,-5.610594820103161906e-01,-5.699273349073185058e-01,5.182430454012608712e-01,4.349174391323663014e-01,-5.186929215708573349e-01,-1.183882745609101672e-01,0.000000000000000000e+00,8.467241992282841245e-01,7.721723297404389785e-02
2.325033421895570829e+00,-1.267379874175238674e+00,1.699439975113758550e+00,2.475959940725279917e+00,-1.871239669286736573e+00,-5.184225666196956572e-01,-5.365491948138714218e-01,5.182430454012608712e-01,5.666218599065528938e-01,-5.617449009293669082e-01,-2.705220865321325552e-01,0.000000000000000000e+00,7.818314824680299147e-01,7.256890546109981410e-02
2.330029433410852668e+00,-1.328049988301018169e+00,1.497462437849642169e+00,2.739242476831218021e+00,-1.877366879272833522e+00,-5.193479580225243142e-01,-5.365491948138714218e-01,5.182430454012608712e-01,6.666218599065528716e-01,-5.617449009293669082e-01,-2.705220865321325552e-01,0.000000000000000000e+00,7.818314824680299147e-01,7.373152487679983380e-02
2.333359033589139209e+00,-4.187493985175414490e-01,-9.694293910741890175e-01,4.532713854142042642e+00,-1.887684017218424604e+00,-4.477046164593738720e-01,-5.349174391323662237e-01,5.148546698146370115e-01,8.000000000000000444e-01,-6.370811961317673910e-01,-3.068021341766004051e-01,0.000000000000000000e+00,7.071067811865475727e-01,6.001388512709458084e-02
2.480218515104716470e+00,-4.421851619757500296e-01,-4.145468309790971140e-01,3.435390382354408523e+00,-2.188153889146688069e+00,-5.685589364003347246e-01,-5.699273349073185058e-01,5.182430454012608712e-01,8.349174391323662681e-01,-5.186929215708572238e-01,-1.183882745609101256e-01,0.000000000000000000e+00,8.467241992282842356e-01,3.214460015109185664e-02
2.451320123568999421e+00,-6.156764879313487704e-01,-2.703305275148654152e-01,3.482257390908422234e+00,-2.151593633123663363e+00,-5.460911666363952310e-01,-5.699273349073185058e-01,5.182430454012608712e-01,9.349174391323662459e-01,-5.186929215708572238e-01,-1.183882745609101256e-01,0.000000000000000000e+00,8.467241992282842356e-01,2.019832161192737160e-02
2.473507137799184630e+00,-1.613581327980143865e+00,1.598455874989628489e+00,3.398914261139008186e+00,-2.010668639414221470e+00,-3.434760481338894889e-01,-5.365491948138714218e-01,4.182430454012610044e-01,6.333781400934472838e-01,-7.044058256496910086e-01,-3.392239669730521268e-01,0.000000000000000000e+00,6.234898018587335944e-01,5.993577291746727403e-02
2.525118376915055585e+00,-1.397222728373358702e+00,1.551502807904770354e+00,2.737430204952488122e+00,-2.072206533478954338e+00,-5.689151691370235575e-01,-5.365491948138714218e-01,4.182430454012610044e-01,6.666218599065528716e-01,-5.617449009293669082e-01,-2.705220865321325552e-01,0.000000000000000000e+00,7.818314824680299147e-01,6.368649530632372602e-02
2.489477293516280110e+00,-6.513212264366912141e-01,-8.002658568225565761e-01,4.844280641799541876e+00,-2.028927259804756744e+00,-3.358482461958700593e-01,-5.365491948138714218e-01,4.182430454012610044e-01,8.333781400934472394e-01,-7.044058256496910086e-01,-3.392239669730521268e-01,0.000000000000000000e+00,6.234898018587335944e-01,4.390056812178925322e-02
2.677811744002397631e+00,-5.381186810653573183e-01,-5.368008148223076814e-01,3.871019929999215403e+00,-2.430809932096984927e+00,-4.886268731926216580e-01,-5.674587195661831007e-01,4.074273349073186390e-01,8.666218599065528272e-01,-6.078576107927939898e-01,-1.387395330218429146e-01,0.000000000000000000e+00,7.818314824680299147e-01,2.877006185961256818e-02
2.605106318090987472e+00,-5.576778972889828712e-01,-4.596603571954963052e-01,3.551991720578708822e+00,-2.281268290071076343e+00,-6.494624807237378006e-01,-5.699273349073185058e-01,4.182430454012610044e-01,9.349174391323662459e-01,-5.186929215708572238e-01,-1.183882745609101256e-01,0.000000000000000000e+00,8.467241992282842356e-01,2.855322115992530232e-02
2.573869387073372206e+00,-7.595001953227936697e-01,-2.192563218893118782e-01,3.530010493981487585e+00,-2.243073598238357835e+00,-6.256607046961778495e-01,-5.699273349073185058e-01,4.182430454012610044e-01,1.034917439132366335e+00,-5.186929215708572238e-01,-1.183882745609101256e-01,0.000000000000000000e+00,8.467241992282842356e-01,1.336184554479887508e-02
2.739683265160266501e+00,-7.795482823559316543e-01,-5.335310268343484985e-01,4.464105765369574819e+00,-2.296609713701742717e+00,-4.423394456881942216e-01,-5.349174391323662237e-01,3.148546698146371670e-01,9.000000000000000222e-01,-6.370811961317671690e-01,-3.068021341766004051e-01,0.000000000000000000e+00,7.071067811865475727e-01,2.554769567536186933e-02
2.817059380726969930e+00,-7.401714382315438545e-01,-3.610765264368810401e-01,3.861012598311183819e+00,-2.546016398647559242e+00,-5.448438820492361723e-01,-5.674587195661831007e-01,3.074273349073185502e-01,9.666218599065528050e-01,-6.078576107927939898e-01,-1.387395330218428591e-01,0.000000000000000000e+00,7.818314824680298036e-01,1.498716106409963764e-02
2.686267187265757528e+00,-1.045715281862291013e+00,-3.731615906273599154e-02,3.937332946503150577e+00,-2.213512877005621604e+00,-6.248478062169614544e-01,-5.365491948138714218e-01,3.182430454012610266e-01,1.066621859906552894e+00,-5.617449009293666862e-01,-2.705220865321326107e-01,0.000000000000000000e+00,7.818314824680299147e-01,1.832996152837016194e-03
1.757834748122713453e+00,-2.178591325443632321e-02,1.804430221574198356e-01,3.216980491748993476e+00,-1.317173223598526732e+00,-5.086653686169630983e-01,-4.365491948138713885e-01,1.118243045401261071e+00,1.333781400934471728e-01,-7.044058256496907866e-01,-3.392239669730526264e-01,0.000000000000000000e+00,6.234898018587335944e-01,2.417179469172605483e-02
1.757978907815312297e+00,-1.336278071937903600e-01,1.732460320185325031e-01,3.334095975618184049e+00,-1.317198067407092887e+00,-5.081490878728214255e-01,-4.365491948138713885e-01,1.118243045401261071e+00,2.333781400934471784e-01,-7.044058256496907866e-01,-3.392239669730526264e-01,0.000000000000000000e+00,6.234898018587335944e-01,2.323830840888813781e-02
1.912568853915536771e+00,-1.834341563478741055e-01,5.166865756873831872e-01,3.259836195956595351e+00,-1.676182458659510210e+00,-1.732183982140356460e-01,-4.699273349073185835e-01,1.018243045401260982e+00,6.508256086763372639e-02,-8.254950557474576289e-01,-1.884138596156902379e-01,0.000000000000000000e+00,5.320320765153364606e-01,6.808895172564809195e-02
1.793622566006670027e+00,-2.126947045535186875e-01,5.968394659059145235e-01,2.987651353600906834e+00,-1.350563228255761361e+00,-4.997542786211133792e-01,-4.365491948138713885e-01,1.018243045401260982e+00,1.333781400934471728e-01,-7.044058256496907866e-01,-3.392239669730526264e-01,0.000000000000000000e+00,6.234898018587335944e-01,7.325094141783809742e-02
1.793016917917305442e+00,-3.578614254898013214e-01,6.283540864184432584e-01,3.101678014852787157e+00,-1.350034921096952445e+00,-4.999727647816705756e-01,-4.365491948138713885e-01,1.018243045401260982e+00,2.333781400934471784e-01,-7.044058256496907866e-01,-3.392239669730526264e-01,0.000000000000000000e+00,6.234898018587335944e-01,7.631602114789189095e-02
1.792025808267008857e+00,-4.564249810841394805e-01,5.666160684142927950e-01,3.261933712315915557e+00,-1.349122838672202285e+00,-5.001867151688524915e-01,-4.365491948138713885e-01,1.018243045401260982e+00,3.333781400934472394e-01,-7.044058256496908976e-01,-3.392239669730526819e-01,0.000000000000000000e+00,6.234898018587332613e-01,6.926511508898870739e-02
1.790545823476966891e+00,-4.930236620933923231e-01,3.880167435568793177e-01,3.476513707776913709e+00,-1.347732649597575216e+00,-5.003822893581726383e-01,-4.365491948138713885e-01,1.018243045401260982e+00,4.333781400934472172e-01,-7.044058256496908976e-01,-3.392239669730526819e-01,0.000000000000000000e+00,6.234898018587332613e-01,4.837936603189752632e-02
1.785530786233826328e+00,-5.256808319715756683e-01,2.209783122139774014e-01,3.673227669608311263e+00,-1.342981239331877630e+00,-5.008237434580495862e-01,-4.365491948138713885e-01,1.018243045401260982e+00,5.333781400934471950e-01,-7.044058256496908976e-01,-3.392239669730526819e-01,0.000000000000000000e+00,6.234898018587332613e-01,2.717958440976613044e-02
1.966972253895225009e+00,-3.583682073743133523e-01,8.958135776115091486e-01,3.061732969721345121e+00,-1.728581870752736727e+00,-1.486717717394963334e-01,-4.699273349073185835e-01,9.182430454012610044e-01,6.508256086763372639e-02,-8.254950557474576289e-01,-1.884138596156900713e-01,0.000000000000000000e+00,5.320320765153366827e-01,1.000529092629948436e-01
1.823768061725958622e+00,-4.774714836895191938e-01,1.175325388865879006e+00,2.672711957870679722e+00,-1.380137321206376999e+00,-4.927840705291507417e-01,-4.365491948138713885e-01,9.182430454012610044e-01,1.333781400934471728e-01,-7.044058256496908976e-01,-3.392239669730524043e-01,0.000000000000000000e+00,6.234898018587335944e-01,1.057478736595415802e-01
1.822483521336864420e+00,-6.356660628424345427e-01,1.197991156216335673e+00,2.808017619369382434e+00,-1.378816356892230033e+00,-4.930350990685616330e-01,-4.365491948138713885e-01,9.182430454012610044e-01,2.333781400934471784e-01,-7.044058256496908976e-01,-3.392239669730524043e-01,0.000000000000000000e+00,6.234898018587335944e-01,1.060508060277762232e-01
1.821100332007918654e+00,-7.614817592457602258e-01,1.157976550149011130e+00,2.973188850416880413e+00,-1.377375084969837404e+00,-4.932223940644842597e-01,-4.365491948138713885e-01,9.182430454012610044e-01,3.333781400934472394e-01,-7.044058256496908976e-01,-3.392239669730524043e-01,0.000000000000000000e+00,6.234898018587335944e-01,1.036063578588211354e-01
1.820262355453544201e+00,-7.115942757132375229e-01,1.074718907325232120e+00,2.778911461538053018e+00,-1.371612854916246516e+00,-4.487285836205703315e-01,-4.349174391323662459e-01,9.148546698146371448e-01,4.000000000000000222e-01,-6.370811961317673910e-01,-3.068021341766004051e-01,0.000000000000000000e+00,7.071067811865475727e-01,9.886040166566285869e-02
1.821773831118555176e+00,-7.689543523211738174e-01,9.096387609481400016e-01,3.001786216663241635e+00,-1.373145867136508658e+00,-4.488150111117648611e-01,-4.349174391323662459e-01,9.148546698146371448e-01,5.000000000000000000e-01,-6.370811961317673910e-01,-3.068021341766004051e-01,0.000000000000000000e+00,7.071067811865475727e-01,8.943347189140936349e-02
1.828515868161821434e+00,-6.364380880371544036e-01,3.719299911877153586e-01,3.409131451124113088e+00,-1.379761265586181285e+00,-4.492148884242785356e-01,-4.349174391323662459e-01,9.148546698146371448e-01,6.000000000000000888e-01,-6.370811961317673910e-01,-3.068021341766004051e-01,0.000000000000000000e+00,7.071067811865475727e-01,4.282671707721476262e-02
1.954138094186338659e+00,-2.259208727405176143e-01,-1.591499557656542996e-01,3.075428036129097542e+00,-1.712365202678007403e+00,-2.933664459038376471e-01,-4.699273349073185835e-01,9.182430454012610044e-01,6.349174391323663125e-01,-5.186929215708572238e-01,-1.183882745609099174e-01,0.000000000000000000e+00,8.467241992282842356e-01,1.918267035755398184e-02
1.944755613540178674e+00,-3.477260158525835587e-01,-1.400461779452321920e-01,3.182145505991417878e+00,-1.700757054593345252e+00,-2.887854874500724311e-01,-4.699273349073185835e-01,9.182430454012610044e-01,7.349174391323662903e-01,-5.186929215708572238e-01,-1.183882745609099174e-01,0.000000000000000000e+00,8.467241992282842356e-01,1.620158005745125918e-02
2.022104664814773578e+00,-5.647077687011605729e-01,1.354102578630866471e+00,2.813245820598116342e+00,-1.777082730589506276e+00,-1.239695118234170196e-01,-4.699273349073185835e-01,8.182430454012609156e-01,6.508256086763372639e-02,-8.254950557474576289e-01,-1.884138596156900713e-01,0.000000000000000000e+00,5.320320765153366827e-01,1.082261778546914355e-01
2.017116525673636307e+00,-7.455855254638026341e-01,1.400835194467265898e+00,2.945397851631459840e+00,-1.770874931027861976e+00,-1.266241413997482024e-01,-4.699273349073185835e-01,8.182430454012609156e-01,1.650825608676337319e-01,-8.254950557474576289e-01,-1.884138596156900713e-01,0.000000000000000000e+00,5.320320765153366827e-01,1.073955951685500038e-01
2.013192156755840845e+00,-8.894341537081659199e-01,1.376214150718970908e+00,3.111423922998911795e+00,-1.766097128921738424e+00,-1.288845737424757498e-01,-4.699273349073185835e-01,8.182430454012609156e-01,2.650825608676337097e-01,-8.254950557474576289e-01,-1.884138596156900713e-01,0.000000000000000000e+00,5.320320765153366827e-01,1.055486026148425710e-01
2.010345770823593892e+00,-9.925215222277115057e-01,1.286321424008929126e+00,3.301923425485951302e+00,-1.762705903088090054e+00,-1.306416193356770838e-01,-4.699273349073185835e-01,8.182430454012609156e-01,3.650825608676337986e-01,-8.254950557474578510e-01,-1.884138596156901269e-01,0.000000000000000000e+00,5.320320765153362386e-01,1.022442940776000786e-01
2.032815317353102724e+00,-8.600839819634454875e-01,1.347927320177682464e+00,2.654366739024148103e+00,-1.808699726297820387e+00,-2.241656618613909746e-01,-4.666218599065528050e-01,8.037608131727264071e-01,4.000000000000000222e-01,-6.893781378718103481e-01,-1.573460613564739430e-01,0.000000000000000000e+00,7.071067811865475727e-01,9.846718108976762474e-02
1.866794271875304334e+00,-8.363869311922280669e-01,1.305750099162493516e+00,2.445631506420989698e+00,-1.422366278631129299e+00,-4.144912825390197342e-01,-4.365491948138713885e-01,8.182430454012609156e-01,4.666218599065528605e-01,-5.617449009293667972e-01,-2.705220865321327772e-01,0.000000000000000000e+00,7.818314824680298036e-01,9.730966857399341030e-02
1.871894177799499737e+00,-8.961617775603302194e-01,1.123006371507136780e+00,2.688706418490520278e+00,-1.427776713783858842e+00,-4.157291697960192600e-01,-4.365491948138713885e-01,8.182430454012609156e-01,5.666218599065528938e-01,-5.617449009293667972e-01,-2.705220865321327772e-01,0.000000000000000000e+00,7.818314824680299147e-01,9.290141013514796597e-02
2.143024127796334000e+00,-2.362162816186596792e-01,-1.615267559516750107e-01,3.018069976043238789e+00,-2.081678416410808197e+00,-2.729107653214075113e-01,-5.000000000000000000e-01,8.148546698146370559e-01,6.349174391323663125e-01,-5.320320765153365716e-01,0.000000000000000000e+00,0.000000000000000000e+00,8.467241992282841245e-01,1.694025273069015014e-02
2.022770937668172397e+00,-3.418629739635723475e-01,-2.315539967745606775e-01,3.253493563953626655e+00,-1.778040523048312505e+00,-3.249227713008798202e-01,-4.699273349073185835e-01,8.182430454012609156e-01,7.349174391323662903e-01,-5.186929215708572238e-01,-1.183882745609099174e-01,0.000000000000000000e+00,8.467241992282842356e-01,2.563582888394346643e-02
2.007588883186222972e+00,-4.780406529969110085e-01,-1.780353314505580542e-01,3.341966036298865017e+00,-1.759100080071277716e+00,-3.171861468968631970e-01,-4.699273349073185835e-01,8.182430454012609156e-01,8.349174391323662681e-01,-5.186929215708572238e-01,-1.183882745609099174e-01,0.000000000000000000e+00,8.467241992282842356e-01,1.866384585726808820e-02
2.092765250519353248e+00,-6.986174498218056250e-01,1.674823378222477066e+00,2.632235152612936169e+00,-1.839022134766594485e+00,-9.194316817912226436e-02,-4.699273349073185835e-01,7.182430454012610488e-01,6.508256086763372639e-02,-8.254950557474576289e-01,-1.884138596156900713e-01,0.000000000000000000e+00,5.320320765153366827e-01,9.427168802179290708e-02
2.088400828292691358e+00,-8.906106758955848468e-01,1.697789510449231098e+00,2.799087789883284660e+00,-1.833841897374381302e+00,-9.451058961776488687e-02,-4.699273349073185835e-01,7.182430454012610488e-01,1.650825608676337319e-01,-8.254950557474576289e-01,-1.884138596156900713e-01,0.000000000000000000e+00,5.320320765153366827e-01,9.306269077118116406e-02
2.084758518377908487e+00,-1.049829207213184512e+00,1.659206333470231165e+00,2.994522713433280359e+00,-1.829596276383921971e+00,-9.678809204846779146e-02,-4.699273349073185835e-01,7.182430454012610488e-01,2.650825608676337097e-01,-8.254950557474576289e-01,-1.884138596156900713e-01,0.000000000000000000e+00,5.320320765153366827e-01,9.265605133386237147e-02
2.082004668464521036e+00,-1.167999391343989224e+00,1.562222877693558054e+00,3.207452027615671497e+00,-1.826437815119114738e+00,-9.859864910895962953e-02,-4.699273349073185835e-01,7.182430454012610488e-01,3.650825608676337986e-01,-8.254950557474578510e-01,-1.884138596156901269e-01,0.000000000000000000e+00,5.320320765153362386e-01,9.234488575227162155e-02
2.096579248886460967e+00,-5.468754570130948123e-01,1.323242934856623032e+00,1.897061886414286302e+00,-1.843656255753979512e+00,-3.587933165098524113e-01,-4.699273349073185835e-01,7.182430454012610488e-01,3.349174391323663236e-01,-5.186929215708573349e-01,-1.183882745609099590e-01,0.000000000000000000e+00,8.467241992282841245e-01,9.294906735724352276e-02
2.103769116996476729e+00,-6.770548177461701567e-01,1.265780521196788966e+00,2.082168577518010100e+00,-1.852478646262701423e+00,-3.627064078078566234e-01,-4.699273349073185835e-01,7.182430454012610488e-01,4.349174391323663014e-01,-5.186929215708573349e-01,-1.183882745609099590e-01,0.000000000000000000e+00,8.467241992282841245e-01,9.340635907700094165e-02
2.123228291754208019e+00,-1.003530920060228926e+00,1.288516300089543209e+00,2.621823646920465212e+00,-1.895465187189829814e+00,-2.993862626411448735e-01,-4.674587195661831229e-01,7.074273349073186834e-01,5.666218599065528938e-01,-6.078576107927939898e-01,-1.387395330218429146e-01,0.000000000000000000e+00,7.818314824680299147e-01,8.815096719954954030e-02
1.933549713436892636e+00,-1.157701014468975886e+00,1.260868196219429471e+00,2.815666899313769900e+00,-1.489053257865022406e+00,-4.297859210852112977e-01,-4.365491948138713885e-01,7.182430454012610488e-01,6.666218599065528716e-01,-5.617449009293667972e-01,-2.705220865321327772e-01,0.000000000000000000e+00,7.818314824680299147e-01,8.514466264131460849e-02
1.934006020522802016e+00,-5.521071438300868550e-01,-5.466148637355183748e-01,4.245909317564672492e+00,-1.486889042066513511e+00,-4.491147142726761854e-01,-4.349174391323662459e-01,7.148546698146371892e-01,8.000000000000000444e-01,-6.370811961317673910e-01,-3.068021341766004051e-01,0.000000000000000000e+00,7.071067811865475727e-01,4.665639067606280888e-02
2.103783165043893622e+00,-4.794123610483120301e-01,-2.796191915666865757e-01,3.430033101293223918e+00,-1.852879423259780722e+00,-3.624248305632749578e-01,-4.699273349073185835e-01,7.182430454012610488e-01,8.349174391323662681e-01,-5.186929215708572238e-01,-1.183882745609099174e-01,0.000000000000000000e+00,8.467241992282842356e-01,2.721054401049620777e-02
2.080943738763062267e+00,-6.240095121019815227e-01,-1.906390192853570642e-01,3.491949492005535838e+00,-1.824635916714228312e+00,-3.508289364857978265e-01,-4.699273349073185835e-01,7.182430454012610488e-01,9.349174391323662459e-01,-5.186929215708572238e-01,-1.183882745609099174e-01,0.000000000000000000e+00,8.467241992282842356e-01,1.738950003893394158e-02
2.322580053242786047e+00,-9.193793393702103245e-01,1.746364411268477745e+00,2.891769112686900289e+00,-2.231657581195425788e+00,3.812733405466505188e-01,-5.000000000000000000e-01,6.148546698146371003e-01,1.650825608676337319e-01,-8.467241992282841245e-01,0.000000000000000000e+00,0.000000000000000000e+00,5.320320765153365716e-01,7.480993724530572708e-02
2.177929234340275411e+00,-1.182302051291874490e+00,1.888543009053503585e+00,2.907442338024295747e+00,-1.911986075553927522e+00,-5.401012194995382515e-02,-4.699273349073185835e-01,6.182430454012609600e-01,2.650825608676337097e-01,-8.254950557474576289e-01,-1.884138596156900713e-01,0.000000000000000000e+00,5.320320765153366827e-01,7.526970070075891805e-02
2.175473725971850403e+00,-1.319002719532108348e+00,1.783271055630274882e+00,3.147606031933081194e+00,-1.909287472192704893e+00,-5.571971943057162785e-02,-4.699273349073185835e-01,6.182430454012609600e-01,3.650825608676337986e-01,-8.254950557474578510e-01,-1.884138596156901269e-01,0.000000000000000000e+00,5.320320765153362386e-01,7.706830972241238142e-02
2.194842751085428478e+00,-6.666169150001992616e-01,1.595117355908805212e+00,1.731699781842940045e+00,-1.931059940868102842e+00,-4.056106560945404449e-01,-4.699273349073185835e-01,6.182430454012609600e-01,3.349174391323663236e-01,-5.186929215708573349e-01,-1.183882745609099590e-01,0.000000000000000000e+00,8.467241992282841245e-01,8.144179346022237254e-02
2.201470678763211897e+00,-8.287340379990881800e-01,1.563449990829569147e+00,1.923383508796138397e+00,-1.938896371382002659e+00,-4.093421044557605804e-01,-4.699273349073185835e-01,6.182430454012609600e-01,4.349174391323663014e-01,-5.186929215708573349e-01,-1.183882745609099590e-01,0.000000000000000000e+00,8.467241992282841245e-01,8.263022646606484056e-02
2.212386510032064546e+00,-9.406218743503687030e-01,1.437714376687711182e+00,2.157859439012595359e+00,-1.952109236550113369e+00,-4.153619516989116578e-01,-4.699273349073185835e-01,6.182430454012609600e-01,5.349174391323663347e-01,-5.186929215708572238e-01,-1.183882745609099174e-01,0.000000000000000000e+00,8.467241992282842356e-01,8.402673213210680447e-02
2.239004842302392717e+00,-1.202596527138181548e+00,1.296949298132881845e+00,2.804734089065214597e+00,-2.010541560711974096e+00,-3.276032916829936803e-01,-4.674587195661831229e-01,6.074273349073185946e-01,6.666218599065528716e-01,-6.078576107927939898e-01,-1.387395330218429146e-01,0.000000000000000000e+00,7.818314824680299147e-01,7.535504560290358367e-02
2.010206189985230374e+00,-4.026066626465529819e-01,-1.041124449881319691e+00,4.587779016225426609e+00,-1.562871711738829772e+00,-4.486591095960349995e-01,-4.349174391323662459e-01,6.148546698146371003e-01,8.000000000000000444e-01,-6.370811961317673910e-01,-3.068021341766004051e-01,0.000000000000000000e+00,7.071067811865475727e-01,6.339242598121738737e-02
2.341103332634444367e+00,-4.902290718630273325e-01,-2.576008743747317253e-01,3.295191617512400306e+00,-2.254413798125613599e+00,-4.001591237834780102e-01,-5.000000000000000000e-01,6.148546698146371003e-01,8.349174391323662681e-01,-5.320320765153365716e-01,0.000000000000000000e+00,0.000000000000000000e+00,8.467241992282841245e-01,1.995283725399652625e-02
2.199430942619983398e+00,-6.381581038972677922e-01,-2.775077851839256038e-01,3.574024777152763566e+00,-1.936975691914741393e+00,-4.080441362010055473e-01,-4.699273349073185835e-01,6.182430454012609600e-01,9.349174391323662459e-01,-5.186929215708572238e-01,-1.183882745609099174e-01,0.000000000000000000e+00,8.467241992282842356e-01,2.274504075807918038e-02
2.166829755440022875e+00,-7.771843859046793090e-01,-1.722757453536438721e-01,3.613828785536113308e+00,-1.897705453998782543e+00,-3.918476206826044250e-01,-4.699273349073185835e-01,6.182430454012609600e-01,1.034917439132366335e+00,-5.186929215708572238e-01,-1.183882745609099174e-01,0.000000000000000000e+00,8.467241992282842356e-01,1.312419012581387059e-02
2.596764159212638923e+00,-1.139718903600164923e+00,1.342178241184146303e+00,3.979954254945704761e+00,-2.601073195646516290e+00,1.189008283931802135e+00,-5.300726650926814720e-01,5.182430454012608712e-01,3.650825608676337986e-01,-8.254950557474575179e-01,1.884138596156904044e-01,0.000000000000000000e+00,5.320320765153366827e-01,5.409555994951049940e-02
2.325559219813229550e+00,-7.549190553061614350e-01,1.791502145835562443e+00,1.598112103015803642e+00,-2.046319681103864419e+00,-4.725417965636901085e-01,-4.699273349073185835e-01,5.182430454012608712e-01,3.349174391323663236e-01,-5.186929215708573349e-01,-1.183882745609099590e-01,0.000000000000000000e+00,8.467241992282841245e-01,6.656526710054075369e-02
2.331898435620944898e+00,-9.404548783858357464e-01,1.767837629545177425e+00,1.804914379433468774e+00,-2.053496799512021020e+00,-4.764982355171740180e-01,-4.699273349073185835e-01,5.182430454012608712e-01,4.349174391323663014e-01,-5.186929215708573349e-01,-1.183882745609099590e-01,0.000000000000000000e+00,8.467241992282841245e-01,6.758738694575780470e-02
2.344497977908229114e+00,-1.075727770548491335e+00,1.656304807582612559e+00,2.047119735688966546e+00,-2.068002766193198561e+00,-4.843092431601573877e-01,-4.699273349073185835e-01,5.182430454012608712e-01,5.349174391323663347e-01,-5.186929215708572238e-01,-1.183882745609099174e-01,0.000000000000000000e+00,8.467241992282842356e-01,7.010530321305649681e-02
2.377813205865032309e+00,-1.357536112919502491e+00,1.509034522857899629e+00,2.729306152063408319e+00,-2.143101994400358645e+00,-3.665340890416506348e-01,-4.674587195661831229e-01,5.074273349073185058e-01,6.666218599065528716e-01,-6.078576107927939898e-01,-1.387395330218429146e-01,0.000000000000000000e+00,7.818314824680299147e-01,6.313798344899231030e-02
2.151677806587132036e+00,-1.544813224017686837e+00,1.479347616472660887e+00,2.984335978859707694e+00,-1.705196925150119114e+00,-4.780096565803548803e-01,-4.365491948138713885e-01,5.182430454012608712e-01,7.666218599065528494e-01,-5.617449009293667972e-01,-2.705220865321327772e-01,0.000000000000000000e+00,7.818314824680299147e-01,6.249356037078949294e-02
2.120723108327644102e+00,-1.008593784572812568e+00,-2.692509276932034679e-01,4.642406646875644860e+00,-1.670290617359406316e+00,-4.262120577147560097e-01,-4.365491948138713885e-01,5.182430454012608712e-01,9.333781400934472172e-01,-7.044058256496908976e-01,-3.392239669730524043e-01,0.000000000000000000e+00,6.234898018587335944e-01,1.595733904965818475e-02
2.365807004794349133e+00,-8.430459329718610340e-01,-2.226606284499288158e-01,3.946001980729169301e+00,-2.128737226088394774e+00,-3.640772041404355397e-01,-4.674587195661831229e-01,5.074273349073185058e-01,9.666218599065528050e-01,-6.078576107927939898e-01,-1.387395330218429146e-01,0.000000000000000000e+00,7.818314824680299147e-01,1.393714294184811991e-02
2.311324557097649723e+00,-8.002099975118066588e-01,-2.337479323875014947e-01,3.669922457123512505e+00,-2.029719781806888168e+00,-4.656234507346652118e-01,-4.699273349073185835e-01,5.182430454012608712e-01,1.034917439132366335e+00,-5.186929215708572238e-01,-1.183882745609099174e-01,0.000000000000000000e+00,8.467241992282842356e-01,1.550168952321065094e-02
2.462290206284981853e+00,-1.669981020905217939e+00,1.425638282539672064e+00,3.915374640446716015e+00,-2.159926479768263796e+00,9.298408908514614601e-02,-4.699273349073185835e-01,4.182430454012610044e-01,6.650825608676338430e-01,-8.254950557474578510e-01,-1.884138596156901269e-01,0.000000000000000000e+00,5.320320765153362386e-01,5.328517429444253051e-02
2.348245988026540054e+00,-1.674663839821053601e+00,1.606546062292220522e+00,2.976368545789693343e+00,-1.898534107998947951e+00,-5.237045410725897909e-01,-4.365491948138713885e-01,4.182430454012610044e-01,7.666218599065528494e-01,-5.617449009293667972e-01,-2.705220865321327772e-01,0.000000000000000000e+00,7.818314824680299147e-01,5.105743001335659448e-02
2.316044149940034380e+00,-6.901757293569162899e-01,-9.261043528136038150e-01,4.762608216514379933e+00,-1.869048649540558271e+00,-4.472260130594259975e-01,-4.349174391323662459e-01,4.148546698146371448e-01,9.000000000000000222e-01,-6.370811961317673910e-01,-3.068021341766004051e-01,0.000000000000000000e+00,7.071067811865475727e-01,3.950605551481015110e-02
2.558562640690645207e+00,-8.171835116590819847e-01,-3.547616526375965695e-01,4.012613937561278377e+00,-2.316201842743782269e+00,-4.302095934374338126e-01,-4.674587195661831229e-01,4.074273349073186390e-01,9.666218599065528050e-01,-6.078576107927939898e-01,-1.387395330218429146e-01,0.000000000000000000e+00,7.818314824680299147e-01,1.758029953104977422e-02
2.492201817776691364e+00,-8.077347093689924984e-01,-3.019688734907210459e-01,3.690749826682255375e+00,-2.188837556250982086e+00,-5.723934715709211307e-01,-4.699273349073185835e-01,4.182430454012610044e-01,1.034917439132366335e+00,-5.186929215708572238e-01,-1.183882745609099174e-01,0.000000000000000000e+00,8.467241992282842356e-01,1.675750754955788319e-02
2.593425609742594506e+00,-1.067479497852338532e+00,-3.597552379687307123e-01,4.839236295850174230e+00,-2.132782569234129788e+00,-3.027318635404140368e-01,-4.365491948138713885e-01,3.182430454012610266e-01,9.333781400934472172e-01,-7.044058256496907866e-01,-3.392239669730524598e-01,0.000000000000000000e+00,6.234898018587335944e-01,1.428293074985976380e-02
2.577668779425257739e+00,-1.168697158239313971e+00,-1.119590484258398827e-01,4.430637810252976649e+00,-2.130156124002906548e+00,-4.441908516949328312e-01,-4.349174391323662459e-01,3.148546698146371670e-01,1.000000000000000000e+00,-6.370811961317671690e-01,-3.068021341766004051e-01,0.000000000000000000e+00,7.071067811865475727e-01,4.406560553961522825e-03
2.738385313127848608e+00,-9.394231186869607120e-01,-2.726216833132764639e-01,3.981353305635978224e+00,-2.470867894621952221e+00,-5.229431800357481341e-01,-4.674587195661831229e-01,3.074273349073185502e-01,1.066621859906552894e+00,-6.078576107927939898e-01,-1.387395330218428591e-01,0.000000000000000000e+00,7.818314824680298036e-01,9.817658486696608303e-03
1.762866017523074147e+00,-1.004348846147467278e-01,3.373154329152415754e-01,3.351998250837358473e+00,-1.540110430556842047e+00,-2.382997616230785598e-01,-3.699273349073184947e-01,1.118243045401261071e+00,6.508256086763372639e-02,-8.254950557474576289e-01,-1.884138596156902379e-01,0.000000000000000000e+00,5.320320765153364606e-01,4.668815775152169306e-02
1.763104104887694534e+00,-2.121697626138156489e-01,3.240464223854028214e-01,3.475632565733646651e+00,-1.540360475364788373e+00,-2.381547236710713222e-01,-3.699273349073184947e-01,1.118243045401261071e+00,1.650825608676337319e-01,-8.254950557474576289e-01,-1.884138596156902379e-01,0.000000000000000000e+00,5.320320765153364606e-01,4.497023903228498931e-02
1.761340298590672537e+00,-3.143856117061247235e-01,2.949037779275474058e-01,3.604570117261479023e+00,-1.538390935290257167e+00,-2.388382898669474397e-01,-3.699273349073184947e-01,1.118243045401261071e+00,2.650825608676337097e-01,-8.254950557474575179e-01,-1.884138596156902379e-01,0.000000000000000000e+00,5.320320765153366827e-01,4.060489708823668276e-02
1.800581316015988698e+00,-2.508057867294107846e-01,6.635121099037269987e-01,3.179514027993636471e+00,-1.576958497665219561e+00,-2.219414083053360687e-01,-3.699273349073184947e-01,1.018243045401260982e+00,6.508256086763372639e-02,-8.254950557474576289e-01,-1.884138596156902379e-01,0.000000000000000000e+00,5.320320765153364606e-01,8.355561988516220506e-02
1.797865745352813960e+00,-3.241918769383062005e-01,8.373966879734181523e-01,2.853158850074527297e+00,-1.574035180523731370e+00,-2.237094852039428483e-01,-3.674587195661830341e-01,1.007427334907318395e+00,1.333781400934471728e-01,-7.622293348805764257e-01,-1.739738716752358416e-01,0.000000000000000000e+00,6.234898018587335944e-01,9.488598727564517832e-02
1.796775694249605593e+00,-4.743241835974963960e-01,8.676809729722138043e-01,2.973150273925932563e+00,-1.572715719444921723e+00,-2.239551245651194566e-01,-3.674587195661830341e-01,1.007427334907318395e+00,2.333781400934471784e-01,-7.622293348805764257e-01,-1.739738716752358416e-01,0.000000000000000000e+00,6.234898018587335944e-01,9.689722652718583962e-02
1.662384084682964058e+00,-6.066853816330496363e-01,8.647496630528247463e-01,3.121943085083382030e+00,-1.223347956348850518e+00,-5.312726820426949548e-01,-3.365491948138712996e-01,1.018243045401260982e+00,3.333781400934472394e-01,-7.044058256496908976e-01,-3.392239669730526819e-01,0.000000000000000000e+00,6.234898018587332613e-01,8.961058175623909383e-02
1.661418594865056830e+00,-6.715336587885210040e-01,7.344254958268545685e-01,3.316291242164703501e+00,-1.222549144262131238e+00,-5.312063791763332876e-01,-3.365491948138712996e-01,1.018243045401260982e+00,4.333781400934472172e-01,-7.044058256496908976e-01,-3.392239669730526819e-01,0.000000000000000000e+00,6.234898018587332613e-01,7.844563943894959646e-02
1.661246614422300150e+00,-5.128015519249674581e-01,4.266542145367314687e-01,3.228336447401361387e+00,-1.211768863499564475e+00,-4.488492659998410961e-01,-3.349174391323661570e-01,1.014854669814637012e+00,5.000000000000000000e-01,-6.370811961317673910e-01,-3.068021341766004051e-01,0.000000000000000000e+00,7.071067811865475727e-01,4.911691101029401485e-02
1.834866233390521462e+00,-4.860496599166692633e-01,1.177423965665471250e+00,2.901897160839133072e+00,-1.608522625303313802e+00,-2.068990309951646012e-01,-3.699273349073184947e-01,9.182430454012610044e-01,6.508256086763372639e-02,-8.254950557474576289e-01,-1.884138596156900713e-01,0.000000000000000000e+00,5.320320765153366827e-01,1.109284833715925705e-01
1.829926174199488775e+00,-6.680835526695327875e-01,1.243790854498906917e+00,3.016122569097942741e+00,-1.602795572354196230e+00,-2.091552799037338928e-01,-3.699273349073184947e-01,9.182430454012610044e-01,1.650825608676337319e-01,-8.254950557474576289e-01,-1.884138596156900713e-01,0.000000000000000000e+00,5.320320765153366827e-01,1.113233958588822486e-01
1.825773677347291235e+00,-8.101498813169896174e-01,1.232792626576207029e+00,3.166832538900020033e+00,-1.598007847309506735e+00,-2.110862219212702173e-01,-3.699273349073184947e-01,9.182430454012610044e-01,2.650825608676337097e-01,-8.254950557474576289e-01,-1.884138596156900713e-01,0.000000000000000000e+00,5.320320765153366827e-01,1.090072013937097573e-01
1.827165537252784411e+00,-8.333664661877915325e-01,1.289862907670827674e+00,2.908987445301995933e+00,-1.601562281309685698e+00,-2.172302984497776479e-01,-3.674587195661830341e-01,9.074273349073186390e-01,3.333781400934472394e-01,-7.622293348805764257e-01,-1.739738716752360081e-01,0.000000000000000000e+00,6.234898018587335944e-01,1.055678016221174437e-01
1.830689994360072292e+00,-7.893183168016250084e-01,1.219061221377433002e+00,2.712379906638751503e+00,-1.606600368662425726e+00,-2.242989667822053446e-01,-3.666218599065527162e-01,9.037608131727264960e-01,4.000000000000000222e-01,-6.893781378718103481e-01,-1.573460613564739430e-01,0.000000000000000000e+00,7.071067811865475727e-01,1.024935946521978725e-01
1.832150826265513954e+00,-8.626701793542798091e-01,1.075033069372271832e+00,2.930153113646832619e+00,-1.608404469582303431e+00,-2.242829249390703161e-01,-3.666218599065527162e-01,9.037608131727264960e-01,5.000000000000000000e-01,-6.893781378718103481e-01,-1.573460613564739430e-01,0.000000000000000000e+00,7.071067811865475727e-01,9.660726535221671185e-02
1.675175026015932600e+00,-8.890785200482929085e-01,8.537996526992465141e-01,3.178618099003637898e+00,-1.226130238371782699e+00,-4.492425434567791087e-01,-3.349174391323661570e-01,9.148546698146371448e-01,6.000000000000000888e-01,-6.370811961317673910e-01,-3.068021341766004051e-01,0.000000000000000000e+00,7.071067811865475727e-01,7.797713092620979503e-02
1.835484487646436014e+00,-2.213810344079226999e-01,-2.007305130077235988e-01,3.110291017345646392e+00,-1.609066111275045952e+00,-2.419663739944505620e-01,-3.699273349073184947e-01,9.182430454012610044e-01,6.349174391323663125e-01,-5.186929215708572238e-01,-1.183882745609099174e-01,0.000000000000000000e+00,8.467241992282842356e-01,2.417852782229808206e-02
1.825693474742878131e+00,-3.489813622745704946e-01,-1.821413582655980190e-01,3.224547020824107602e+00,-1.597917135576458314e+00,-2.375276541318159240e-01,-3.699273349073184947e-01,9.182430454012610044e-01,7.349174391323662903e-01,-5.186929215708572238e-01,-1.183882745609099174e-01,0.000000000000000000e+00,8.467241992282842356e-01,2.093674700024612118e-02
1.872682913344802413e+00,-6.630896705028281879e-01,1.588951186325273213e+00,2.666303499864399740e+00,-1.641502304391959655e+00,-1.905238645168326195e-01,-3.699273349073184947e-01,8.182430454012609156e-01,6.508256086763372639e-02,-8.254950557474576289e-01,-1.884138596156900713e-01,0.000000000000000000e+00,5.320320765153366827e-01,1.020428340216619489e-01
1.868882252911362896e+00,-8.492209123715559471e-01,1.614592720833095907e+00,2.825319063059458458e+00,-1.637142868573709942e+00,-1.923459813407836505e-01,-3.699273349073184947e-01,8.182430454012609156e-01,1.650825608676337319e-01,-8.254950557474576289e-01,-1.884138596156900713e-01,0.000000000000000000e+00,5.320320765153366827e-01,1.007800106259628958e-01
1.865655800110723961e+00,-1.002437614069603411e+00,1.578424209714900384e+00,3.012839782452424675e+00,-1.633469168239232605e+00,-1.939256524628217293e-01,-3.699273349073184947e-01,8.182430454012609156e-01,2.650825608676337097e-01,-8.254950557474576289e-01,-1.884138596156900713e-01,0.000000000000000000e+00,5.320320765153366827e-01,9.988658514044090886e-02
1.862911360615062017e+00,-1.116215773874119410e+00,1.485211831820311801e+00,3.217727786649342114e+00,-1.630379210236881038e+00,-1.952823278358948311e-01,-3.699273349073184947e-01,8.182430454012609156e-01,3.650825608676337986e-01,-8.254950557474578510e-01,-1.884138596156901269e-01,0.000000000000000000e+00,5.320320765153362386e-01,9.863588360741218364e-02
1.874001102918163797e+00,-5.128159043945444973e-01,1.247998599857752966e+00,1.955657943140580945e+00,-1.643022044429611084e+00,-2.587225137614330706e-01,-3.699273349073184947e-01,8.182430454012609156e-01,3.349174391323663236e-01,-5.186929215708573349e-01,-1.183882745609099590e-01,0.000000000000000000e+00,8.467241992282841245e-01,9.731032454283336519e-02
1.880088410777153385e+00,-6.371042269986634254e-01,1.188918845791598011e+00,2.137219851735517651e+00,-1.650009561910502187e+00,-2.615704314434936228e-01,-3.699273349073184947e-01,8.182430454012609156e-01,4.349174391323663014e-01,-5.186929215708573349e-01,-1.183882745609099590e-01,0.000000000000000000e+00,8.467241992282841245e-01,9.735637202133373691e-02
1.888764408965896147e+00,-9.513530912991234878e-01,1.201515459192990631e+00,2.667667014988737151e+00,-1.665748439087487265e+00,-2.451271872776702443e-01,-3.674587195661830341e-01,8.074273349073185502e-01,5.666218599065528938e-01,-6.078576107927939898e-01,-1.387395330218429146e-01,0.000000000000000000e+00,7.818314824680299147e-01,9.347510112176329877e-02
1.694686893841642839e+00,-1.149946869946869343e+00,1.000805963014780309e+00,3.293436409895318384e+00,-1.245945128391075851e+00,-4.495277913662319991e-01,-3.349174391323661570e-01,8.148546698146370559e-01,7.000000000000000666e-01,-6.370811961317673910e-01,-3.068021341766004051e-01,0.000000000000000000e+00,7.071067811865475727e-01,7.464392841930028721e-02
2.024467906968213882e+00,-3.603623875901031948e-01,-2.065474737289094975e-01,3.212609896600518766e+00,-1.981989965303292411e+00,-2.099824323230791712e-01,-3.999999999999999112e-01,8.148546698146370559e-01,7.349174391323662903e-01,-5.320320765153365716e-01,0.000000000000000000e+00,0.000000000000000000e+00,8.467241992282841245e-01,2.132167474262802037e-02
1.876117191599434575e+00,-4.848559201178593847e-01,-2.371655831488451993e-01,3.412235492731368502e+00,-1.645340642775153572e+00,-2.595831763279652926e-01,-3.699273349073184947e-01,8.182430454012609156e-01,8.349174391323662681e-01,-5.186929215708572238e-01,-1.183882745609099174e-01,0.000000000000000000e+00,8.467241992282842356e-01,2.445772506081707667e-02
1.857380097379162986e+00,-6.218876091360281411e-01,-1.603724492407752888e-01,3.475476469585676575e+00,-1.624251536754940162e+00,-2.512570151558345399e-01,-3.699273349073184947e-01,8.182430454012609156e-01,9.349174391323662459e-01,-5.186929215708572238e-01,-1.183882745609099174e-01,0.000000000000000000e+00,8.467241992282842356e-01,1.541169126717220964e-02
2.087844445614473354e+00,-7.262504707025232431e-01,1.740729372757745974e+00,2.631904181117108443e+00,-2.032306960415811936e+00,2.412563881822199496e-01,-3.999999999999999112e-01,7.148546698146371892e-01,6.508256086763372639e-02,-8.467241992282841245e-01,0.000000000000000000e+00,0.000000000000000000e+00,5.320320765153365716e-01,8.426150588897622640e-02
2.083535270556193364e+00,-9.211758540196910428e-01,1.759105889008125478e+00,2.805296794379508629e+00,-2.027277166464728442e+00,2.378560510733856714e-01,-3.999999999999999112e-01,7.148546698146371892e-01,1.650825608676337319e-01,-8.467241992282841245e-01,0.000000000000000000e+00,0.000000000000000000e+00,5.320320765153365716e-01,8.335157753216466958e-02
2.080116095820369715e+00,-1.083920264090612928e+00,1.716548051498681060e+00,3.007650332687920702e+00,-2.023377242289098987e+00,2.349756883053280565e-01,-3.999999999999999112e-01,7.148546698146371892e-01,2.650825608676337097e-01,-8.467241992282842356e-01,0.000000000000000000e+00,0.000000000000000000e+00,5.320320765153364606e-01,8.342995686337492667e-02
2.077293111438137885e+00,-1.205735849607460386e+00,1.617750537926547549e+00,3.225553243258292291e+00,-2.020191869776094329e+00,2.325074063136084168e-01,-3.999999999999999112e-01,7.148546698146371892e-01,3.650825608676337986e-01,-8.467241992282841245e-01,0.000000000000000000e+00,0.000000000000000000e+00,5.320320765153365716e-01,8.371700757564949635e-02
2.084923376860155830e+00,-5.961990063715704169e-01,1.423958582770839421e+00,1.810453862914493506e+00,-2.028745585562215403e+00,-2.393295157209146540e-01,-3.999999999999999112e-01,7.148546698146371892e-01,3.349174391323663236e-01,-5.320320765153366827e-01,0.000000000000000000e+00,0.000000000000000000e+00,8.467241992282841245e-01,8.405912753158847894e-02
1.937480543019671320e+00,-8.249971029196733197e-01,1.562544207889083214e+00,1.951067310058586690e+00,-1.701631327195393117e+00,-2.866631340581901610e-01,-3.699273349073184947e-01,7.182430454012610488e-01,4.349174391323663014e-01,-5.186929215708573349e-01,-1.183882745609099590e-01,0.000000000000000000e+00,8.467241992282841245e-01,8.832496172732599848e-02
1.946145107701815480e+00,-9.419504469526752688e-01,1.448757721148894451e+00,2.180548283897107975e+00,-1.711513576092965172e+00,-2.906891065895479409e-01,-3.699273349073184947e-01,7.182430454012610488e-01,5.349174391323663347e-01,-5.186929215708572238e-01,-1.183882745609099174e-01,0.000000000000000000e+00,8.467241992282842356e-01,8.985919069561294770e-02
1.958133547269937491e+00,-1.205231003420252245e+00,1.302616188112699414e+00,2.821684610611647326e+00,-1.734911228051367216e+00,-2.601906585767967406e-01,-3.674587195661830341e-01,7.074273349073186834e-01,6.666218599065528716e-01,-6.078576107927939898e-01,-1.387395330218429146e-01,0.000000000000000000e+00,7.818314824680299147e-01,8.241310017049119363e-02
1.716251738718158837e+00,-1.371273361994635565e+00,1.054156649688956948e+00,3.459198470714154539e+00,-1.267453661118312924e+00,-4.487981391224853955e-01,-3.349174391323661570e-01,7.148546698146371892e-01,8.000000000000000444e-01,-6.370811961317673910e-01,-3.068021341766004051e-01,0.000000000000000000e+00,7.071067811865475727e-01,6.314067980095842969e-02
